(G-CODE GENERATED BY FLATCAM v8.993 - www.flatcam.org - Version Date: 2020/06/05)

(Name: bottom_mill_0_14mm)
(Type: G-code from Geometry)
(Units: MM)

(Created on Friday, 15 January 2021 at 18:44)

(This preprocessor is the default preprocessor used by FlatCAM.)
(It is made to work with MACH3 compatible motion controllers.)

(TOOL DIAMETER: 0.14 mm)
(Feedrate_XY: 170.0 mm/min)
(Feedrate_Z: 60.0 mm/min)
(Feedrate rapids 1500.0 mm/min)

(Z_Cut: -0.04 mm)
(Z_Move: 1.0 mm)
(Z Start: None mm)
(Z End: 15.0 mm)
(Steps per circle: 64)
(Preprocessor Geometry: default)

(X range:    0.7779 ...  144.2561  mm)
(Y range:    0.5239 ...   88.3761  mm)

(Spindle Speed: 20000 RPM)
G21
G90
G94



G01 F170.00
G00 Z1.0000

M03 S20000
G4 P1.0
G00 X3.3346 Y2.5963
G01 F60.00
G01 Z-0.0400
G01 F170.00
G01 X3.4067 Y2.4927
G01 X3.9065 Y2.2271
G01 X4.4857 Y2.0530
G01 X5.0876 Y1.9952
G01 X5.6893 Y2.0560
G01 X6.2675 Y2.2329
G01 X6.7549 Y2.4950
G01 X6.8254 Y2.5963
G01 X6.7774 Y2.5607
G01 X6.7629 Y2.5508
G01 X6.5223 Y2.4065
G01 X6.5069 Y2.3980
G01 X6.2533 Y2.2780
G01 X6.2426 Y2.2733
G01 X6.2317 Y2.2690
G01 X5.9675 Y2.1746
G01 X5.9506 Y2.1697
G01 X5.6841 Y2.1029
G01 X5.6727 Y2.1004
G01 X5.6612 Y2.0984
G01 X5.3894 Y2.0581
G01 X5.3778 Y2.0566
G01 X5.3661 Y2.0558
G01 X5.0917 Y2.0423
G01 X5.0800 Y2.0420
G01 X5.0683 Y2.0423
G01 X4.7939 Y2.0558
G01 X4.7822 Y2.0566
G01 X4.7706 Y2.0581
G01 X4.4988 Y2.0984
G01 X4.4873 Y2.1004
G01 X4.4759 Y2.1029
G01 X4.2094 Y2.1697
G01 X4.1925 Y2.1746
G01 X3.9283 Y2.2690
G01 X3.9174 Y2.2733
G01 X3.9067 Y2.2780
G01 X3.6531 Y2.3980
G01 X3.6377 Y2.4065
G01 X3.3971 Y2.5508
G01 X3.3826 Y2.5607
G01 X3.3346 Y2.5963
G00 Z1.0000
G00 X3.3021 Y2.7250
G01 F60.00
G01 Z-0.0400
G01 F170.00
G01 X3.2081 Y2.6310
G01 X3.3493 Y2.4281
G01 X3.8744 Y2.1491
G01 X4.4694 Y1.9702
G01 X5.0878 Y1.9108
G01 X5.7059 Y1.9732
G01 X6.3000 Y2.1550
G01 X6.8124 Y2.4305
G01 X6.9519 Y2.6310
G01 X6.8579 Y2.7250
G01 X6.7273 Y2.6282
G01 X6.7180 Y2.6218
G01 X6.4791 Y2.4785
G01 X6.4692 Y2.4731
G01 X6.2104 Y2.3509
G01 X5.9411 Y2.2543
G01 X5.9302 Y2.2512
G01 X5.6637 Y2.1844
G01 X5.6488 Y2.1815
G01 X5.3695 Y2.1402
G01 X5.0876 Y2.1262
G01 X5.0762 Y2.1260
G01 X4.7905 Y2.1402
G01 X4.5112 Y2.1815
G01 X4.4963 Y2.1844
G01 X4.2298 Y2.2512
G01 X4.2189 Y2.2543
G01 X3.9496 Y2.3509
G01 X3.6908 Y2.4731
G01 X3.6809 Y2.4785
G01 X3.4420 Y2.6218
G01 X3.4327 Y2.6282
G01 X3.3021 Y2.7250
G00 Z1.0000
G00 X3.2939 Y2.8357
G01 F60.00
G01 Z-0.0400
G01 F170.00
G01 X3.0990 Y2.6407
G01 X3.2920 Y2.3634
G01 X3.8423 Y2.0710
G01 X4.4531 Y1.8874
G01 X5.0880 Y1.8264
G01 X5.7226 Y1.8905
G01 X6.3325 Y2.0771
G01 X6.8699 Y2.3661
G01 X7.0610 Y2.6407
G01 X6.8661 Y2.8357
G01 X6.6745 Y2.6937
G01 X6.4329 Y2.5489
G01 X6.1783 Y2.4285
G01 X5.9131 Y2.3336
G01 X5.6399 Y2.2651
G01 X5.3613 Y2.2238
G01 X5.0800 Y2.2100
G01 X4.8021 Y2.2236
G01 X4.7953 Y2.2242
G01 X4.5235 Y2.2646
G01 X4.5167 Y2.2659
G01 X4.2469 Y2.3336
G01 X3.9817 Y2.4285
G01 X3.7302 Y2.5473
G01 X3.7241 Y2.5506
G01 X3.4855 Y2.6937
G01 X3.2939 Y2.8357
G00 Z1.0000
G00 X2.8357 Y3.2939
G01 F60.00
G01 Z-0.0400
G01 F170.00
G01 X2.6937 Y3.4855
G01 X2.5506 Y3.7241
G01 X2.5473 Y3.7302
G01 X2.4285 Y3.9817
G01 X2.3336 Y4.2469
G01 X2.2659 Y4.5167
G01 X2.2646 Y4.5235
G01 X2.2242 Y4.7953
G01 X2.2236 Y4.8021
G01 X2.2100 Y5.0800
G01 X2.2238 Y5.3613
G01 X2.2651 Y5.6399
G01 X2.3336 Y5.9131
G01 X2.4285 Y6.1783
G01 X2.5489 Y6.4329
G01 X2.6937 Y6.6745
G01 X2.8357 Y6.8661
G01 X2.6407 Y7.0610
G01 X2.3634 Y6.8680
G01 X2.0710 Y6.3177
G01 X1.8874 Y5.7069
G01 X1.8264 Y5.0720
G01 X1.8905 Y4.4374
G01 X2.0771 Y3.8275
G01 X2.3661 Y3.2901
G01 X2.6407 Y3.0990
G01 X2.8357 Y3.2939
G00 Z1.0000
G00 X2.7250 Y3.3021
G01 F60.00
G01 Z-0.0400
G01 F170.00
G01 X2.6282 Y3.4327
G01 X2.6218 Y3.4420
G01 X2.4785 Y3.6809
G01 X2.4731 Y3.6908
G01 X2.3509 Y3.9496
G01 X2.2543 Y4.2189
G01 X2.2512 Y4.2298
G01 X2.1844 Y4.4963
G01 X2.1815 Y4.5112
G01 X2.1402 Y4.7905
G01 X2.1260 Y5.0762
G01 X2.1262 Y5.0876
G01 X2.1397 Y5.3620
G01 X2.1411 Y5.3770
G01 X2.1828 Y5.6563
G01 X2.2512 Y5.9302
G01 X2.2543 Y5.9411
G01 X2.3509 Y6.2104
G01 X2.4731 Y6.4692
G01 X2.4785 Y6.4791
G01 X2.6218 Y6.7180
G01 X2.6282 Y6.7273
G01 X2.7250 Y6.8579
G01 X2.6310 Y6.9519
G01 X2.4281 Y6.8107
G01 X2.1491 Y6.2856
G01 X1.9702 Y5.6906
G01 X1.9108 Y5.0722
G01 X1.9732 Y4.4541
G01 X2.1550 Y3.8600
G01 X2.4305 Y3.3476
G01 X2.6310 Y3.2081
G01 X2.7250 Y3.3021
G00 Z1.0000
G00 X2.5963 Y3.3346
G01 F60.00
G01 Z-0.0400
G01 F170.00
G01 X2.5607 Y3.3826
G01 X2.5508 Y3.3971
G01 X2.4065 Y3.6377
G01 X2.3980 Y3.6531
G01 X2.2780 Y3.9067
G01 X2.2733 Y3.9174
G01 X2.2690 Y3.9283
G01 X2.1746 Y4.1925
G01 X2.1697 Y4.2094
G01 X2.1029 Y4.4759
G01 X2.1004 Y4.4873
G01 X2.0984 Y4.4988
G01 X2.0581 Y4.7706
G01 X2.0566 Y4.7822
G01 X2.0558 Y4.7939
G01 X2.0423 Y5.0683
G01 X2.0420 Y5.0800
G01 X2.0423 Y5.0917
G01 X2.0558 Y5.3661
G01 X2.0566 Y5.3778
G01 X2.0581 Y5.3894
G01 X2.0984 Y5.6612
G01 X2.1004 Y5.6727
G01 X2.1029 Y5.6841
G01 X2.1697 Y5.9506
G01 X2.1746 Y5.9675
G01 X2.2690 Y6.2317
G01 X2.2733 Y6.2426
G01 X2.2780 Y6.2533
G01 X2.3980 Y6.5069
G01 X2.4065 Y6.5223
G01 X2.5508 Y6.7629
G01 X2.5607 Y6.7774
G01 X2.5963 Y6.8254
G01 X2.4927 Y6.7533
G01 X2.2271 Y6.2535
G01 X2.0530 Y5.6743
G01 X1.9952 Y5.0724
G01 X2.0560 Y4.4707
G01 X2.2329 Y3.8925
G01 X2.4950 Y3.4051
G01 X2.5963 Y3.3346
G00 Z1.0000
G00 X3.2939 Y7.3243
G01 F60.00
G01 Z-0.0400
G01 F170.00
G01 X3.4855 Y7.4663
G01 X3.7241 Y7.6094
G01 X3.7302 Y7.6127
G01 X3.9817 Y7.7315
G01 X4.2469 Y7.8264
G01 X4.5167 Y7.8941
G01 X4.5235 Y7.8954
G01 X4.7953 Y7.9358
G01 X4.8021 Y7.9364
G01 X5.0800 Y7.9500
G01 X5.3613 Y7.9362
G01 X5.6399 Y7.8949
G01 X5.9131 Y7.8264
G01 X6.1783 Y7.7315
G01 X6.4329 Y7.6111
G01 X6.6745 Y7.4663
G01 X6.8661 Y7.3243
G01 X7.0610 Y7.5193
G01 X6.8680 Y7.7966
G01 X6.3177 Y8.0890
G01 X5.7069 Y8.2726
G01 X5.0720 Y8.3336
G01 X4.4374 Y8.2695
G01 X3.8275 Y8.0829
G01 X3.2901 Y7.7939
G01 X3.0990 Y7.5193
G01 X3.2939 Y7.3243
G00 Z1.0000
G00 X3.3021 Y7.4350
G01 F60.00
G01 Z-0.0400
G01 F170.00
G01 X3.4327 Y7.5318
G01 X3.4420 Y7.5382
G01 X3.6809 Y7.6815
G01 X3.6908 Y7.6869
G01 X3.9496 Y7.8091
G01 X4.2189 Y7.9057
G01 X4.2298 Y7.9088
G01 X4.4963 Y7.9756
G01 X4.5112 Y7.9785
G01 X4.7905 Y8.0198
G01 X5.0762 Y8.0340
G01 X5.0876 Y8.0338
G01 X5.3620 Y8.0203
G01 X5.3770 Y8.0189
G01 X5.6563 Y7.9772
G01 X5.9302 Y7.9088
G01 X5.9411 Y7.9057
G01 X6.2104 Y7.8091
G01 X6.4692 Y7.6869
G01 X6.4791 Y7.6815
G01 X6.7180 Y7.5382
G01 X6.7273 Y7.5318
G01 X6.8579 Y7.4350
G01 X6.9519 Y7.5290
G01 X6.8107 Y7.7319
G01 X6.2856 Y8.0109
G01 X5.6906 Y8.1898
G01 X5.0722 Y8.2492
G01 X4.4541 Y8.1868
G01 X3.8600 Y8.0050
G01 X3.3476 Y7.7295
G01 X3.2081 Y7.5290
G01 X3.3021 Y7.4350
G00 Z1.0000
G00 X3.3346 Y7.5637
G01 F60.00
G01 Z-0.0400
G01 F170.00
G01 X3.3826 Y7.5993
G01 X3.3971 Y7.6092
G01 X3.6377 Y7.7535
G01 X3.6531 Y7.7620
G01 X3.9067 Y7.8820
G01 X3.9174 Y7.8867
G01 X3.9283 Y7.8910
G01 X4.1925 Y7.9854
G01 X4.2094 Y7.9903
G01 X4.4759 Y8.0571
G01 X4.4873 Y8.0596
G01 X4.4988 Y8.0616
G01 X4.7706 Y8.1019
G01 X4.7822 Y8.1034
G01 X4.7939 Y8.1042
G01 X5.0683 Y8.1177
G01 X5.0800 Y8.1180
G01 X5.0917 Y8.1177
G01 X5.3661 Y8.1042
G01 X5.3778 Y8.1034
G01 X5.3894 Y8.1019
G01 X5.6612 Y8.0616
G01 X5.6727 Y8.0596
G01 X5.6841 Y8.0571
G01 X5.9506 Y7.9903
G01 X5.9675 Y7.9854
G01 X6.2317 Y7.8910
G01 X6.2426 Y7.8867
G01 X6.2533 Y7.8820
G01 X6.5069 Y7.7620
G01 X6.5223 Y7.7535
G01 X6.7629 Y7.6092
G01 X6.7774 Y7.5993
G01 X6.8254 Y7.5637
G01 X6.7533 Y7.6673
G01 X6.2535 Y7.9329
G01 X5.6743 Y8.1070
G01 X5.0724 Y8.1648
G01 X4.4707 Y8.1040
G01 X3.8925 Y7.9271
G01 X3.4051 Y7.6650
G01 X3.3346 Y7.5637
G00 Z1.0000
G00 X7.3243 Y6.8661
G01 F60.00
G01 Z-0.0400
G01 F170.00
G01 X7.4663 Y6.6745
G01 X7.6094 Y6.4359
G01 X7.6127 Y6.4298
G01 X7.7315 Y6.1783
G01 X7.8264 Y5.9131
G01 X7.8941 Y5.6433
G01 X7.8954 Y5.6365
G01 X7.9358 Y5.3647
G01 X7.9364 Y5.3579
G01 X7.9500 Y5.0800
G01 X7.9362 Y4.7987
G01 X7.8949 Y4.5201
G01 X7.8264 Y4.2469
G01 X7.7315 Y3.9817
G01 X7.6111 Y3.7271
G01 X7.4663 Y3.4855
G01 X7.3243 Y3.2939
G01 X7.5193 Y3.0990
G01 X7.7966 Y3.2920
G01 X8.0890 Y3.8423
G01 X8.2726 Y4.4531
G01 X8.3336 Y5.0880
G01 X8.2695 Y5.7226
G01 X8.0829 Y6.3325
G01 X7.7939 Y6.8699
G01 X7.5193 Y7.0610
G01 X7.3243 Y6.8661
G00 Z1.0000
G00 X7.4350 Y6.8579
G01 F60.00
G01 Z-0.0400
G01 F170.00
G01 X7.5318 Y6.7273
G01 X7.5382 Y6.7180
G01 X7.6815 Y6.4791
G01 X7.6869 Y6.4692
G01 X7.8091 Y6.2104
G01 X7.9057 Y5.9411
G01 X7.9088 Y5.9302
G01 X7.9756 Y5.6637
G01 X7.9785 Y5.6488
G01 X8.0198 Y5.3695
G01 X8.0340 Y5.0838
G01 X8.0338 Y5.0724
G01 X8.0198 Y4.7905
G01 X7.9785 Y4.5112
G01 X7.9756 Y4.4963
G01 X7.9088 Y4.2298
G01 X7.9057 Y4.2189
G01 X7.8091 Y3.9496
G01 X7.6869 Y3.6908
G01 X7.6815 Y3.6809
G01 X7.5382 Y3.4420
G01 X7.5318 Y3.4327
G01 X7.4350 Y3.3021
G01 X7.5290 Y3.2081
G01 X7.7319 Y3.3493
G01 X8.0109 Y3.8744
G01 X8.1898 Y4.4694
G01 X8.2492 Y5.0878
G01 X8.1868 Y5.7059
G01 X8.0050 Y6.3000
G01 X7.7295 Y6.8124
G01 X7.5290 Y6.9519
G01 X7.4350 Y6.8579
G00 Z1.0000
G00 X7.5637 Y6.8254
G01 F60.00
G01 Z-0.0400
G01 F170.00
G01 X7.5993 Y6.7774
G01 X7.6092 Y6.7629
G01 X7.7535 Y6.5223
G01 X7.7620 Y6.5069
G01 X7.8820 Y6.2533
G01 X7.8867 Y6.2426
G01 X7.8910 Y6.2317
G01 X7.9854 Y5.9675
G01 X7.9903 Y5.9506
G01 X8.0571 Y5.6841
G01 X8.0596 Y5.6727
G01 X8.0616 Y5.6612
G01 X8.1019 Y5.3894
G01 X8.1034 Y5.3778
G01 X8.1042 Y5.3661
G01 X8.1177 Y5.0917
G01 X8.1180 Y5.0800
G01 X8.1177 Y5.0683
G01 X8.1042 Y4.7939
G01 X8.1034 Y4.7822
G01 X8.1019 Y4.7706
G01 X8.0616 Y4.4988
G01 X8.0596 Y4.4873
G01 X8.0571 Y4.4759
G01 X7.9903 Y4.2094
G01 X7.9854 Y4.1925
G01 X7.8910 Y3.9283
G01 X7.8867 Y3.9174
G01 X7.8820 Y3.9067
G01 X7.7620 Y3.6531
G01 X7.7535 Y3.6377
G01 X7.6092 Y3.3971
G01 X7.5993 Y3.3826
G01 X7.5637 Y3.3346
G01 X7.6673 Y3.4067
G01 X7.9329 Y3.9065
G01 X8.1070 Y4.4857
G01 X8.1648 Y5.0876
G01 X8.1040 Y5.6893
G01 X7.9271 Y6.2675
G01 X7.6650 Y6.7549
G01 X7.5637 Y6.8254
G00 Z1.0000
G00 X12.4247 Y5.0628
G01 F60.00
G01 Z-0.0400
G01 F170.00
G01 X12.4003 Y4.8772
G01 X12.4205 Y4.5700
G01 X12.5002 Y4.2726
G01 X12.6116 Y4.0468
G01 X12.6980 Y4.0123
G01 X12.9281 Y4.2424
G01 X12.9153 Y4.2642
G01 X12.8660 Y4.3687
G01 X12.8275 Y4.4758
G01 X12.8255 Y4.4824
G01 X12.7980 Y4.5929
G01 X12.7812 Y4.7055
G01 X12.7805 Y4.7123
G01 X12.7750 Y4.8260
G01 X12.7805 Y4.9397
G01 X12.7812 Y4.9465
G01 X12.7980 Y5.0591
G01 X12.8255 Y5.1696
G01 X12.8275 Y5.1762
G01 X12.8660 Y5.2833
G01 X12.9153 Y5.3878
G01 X12.9281 Y5.4096
G01 X12.6980 Y5.6397
G01 X12.6082 Y5.6038
G01 X12.5405 Y5.4771
G01 X12.4405 Y5.1824
G01 X12.4247 Y5.0628
G00 Z1.0000
G00 X12.5080 Y5.0519
G01 F60.00
G01 Z-0.0400
G01 F170.00
G01 X12.4847 Y4.8744
G01 X12.5038 Y4.5837
G01 X12.5792 Y4.3024
G01 X12.6727 Y4.1129
G01 X12.6778 Y4.1109
G01 X12.8252 Y4.2583
G01 X12.7884 Y4.3365
G01 X12.7484 Y4.4475
G01 X12.7441 Y4.4620
G01 X12.7164 Y4.5728
G01 X12.7143 Y4.5839
G01 X12.6972 Y4.7006
G01 X12.6910 Y4.8260
G01 X12.6972 Y4.9514
G01 X12.7143 Y5.0681
G01 X12.7164 Y5.0792
G01 X12.7441 Y5.1900
G01 X12.7484 Y5.2045
G01 X12.7884 Y5.3155
G01 X12.8252 Y5.3937
G01 X12.6778 Y5.5411
G01 X12.6678 Y5.5372
G01 X12.6178 Y5.4435
G01 X12.5227 Y5.1633
G01 X12.5080 Y5.0519
G00 Z1.0000
G00 X12.5913 Y5.0409
G01 F60.00
G01 Z-0.0400
G01 F170.00
G01 X12.5691 Y4.8717
G01 X12.5871 Y4.5975
G01 X12.6582 Y4.3321
G01 X12.6985 Y4.2504
G01 X12.7239 Y4.2758
G01 X12.7131 Y4.2990
G01 X12.7086 Y4.3098
G01 X12.6675 Y4.4248
G01 X12.6626 Y4.4416
G01 X12.6344 Y4.5544
G01 X12.6312 Y4.5716
G01 X12.6150 Y4.6808
G01 X12.6136 Y4.6924
G01 X12.6127 Y4.7041
G01 X12.6073 Y4.8143
G01 X12.6070 Y4.8260
G01 X12.6073 Y4.8377
G01 X12.6127 Y4.9479
G01 X12.6136 Y4.9596
G01 X12.6150 Y4.9712
G01 X12.6312 Y5.0804
G01 X12.6344 Y5.0976
G01 X12.6626 Y5.2104
G01 X12.6675 Y5.2272
G01 X12.7086 Y5.3422
G01 X12.7131 Y5.3530
G01 X12.7239 Y5.3762
G01 X12.6938 Y5.4063
G01 X12.6049 Y5.1441
G01 X12.5913 Y5.0409
G00 Z1.0000
G00 X13.4023 Y5.9708
G01 F60.00
G01 Z-0.0400
G01 F170.00
G01 X13.4805 Y6.0076
G01 X13.5915 Y6.0476
G01 X13.6060 Y6.0519
G01 X13.7168 Y6.0796
G01 X13.7279 Y6.0817
G01 X13.8446 Y6.0988
G01 X13.9700 Y6.1050
G01 X14.0954 Y6.0988
G01 X14.2121 Y6.0817
G01 X14.2232 Y6.0796
G01 X14.3340 Y6.0519
G01 X14.3485 Y6.0476
G01 X14.4595 Y6.0076
G01 X14.5377 Y5.9708
G01 X14.6851 Y6.1182
G01 X14.6812 Y6.1282
G01 X14.5875 Y6.1782
G01 X14.3073 Y6.2733
G01 X14.0184 Y6.3113
G01 X13.7277 Y6.2922
G01 X13.4464 Y6.2168
G01 X13.2569 Y6.1233
G01 X13.2549 Y6.1182
G01 X13.4023 Y5.9708
G00 Z1.0000
G00 X13.3944 Y6.0975
G01 F60.00
G01 Z-0.0400
G01 F170.00
G01 X13.4198 Y6.0721
G01 X13.4430 Y6.0829
G01 X13.4538 Y6.0874
G01 X13.5688 Y6.1285
G01 X13.5856 Y6.1334
G01 X13.6984 Y6.1616
G01 X13.7156 Y6.1648
G01 X13.8248 Y6.1810
G01 X13.8364 Y6.1824
G01 X13.8481 Y6.1833
G01 X13.9583 Y6.1887
G01 X13.9700 Y6.1890
G01 X13.9817 Y6.1887
G01 X14.0919 Y6.1833
G01 X14.1036 Y6.1824
G01 X14.1152 Y6.1810
G01 X14.2244 Y6.1648
G01 X14.2416 Y6.1616
G01 X14.3544 Y6.1334
G01 X14.3712 Y6.1285
G01 X14.4862 Y6.0874
G01 X14.4970 Y6.0829
G01 X14.5202 Y6.0721
G01 X14.5503 Y6.1022
G01 X14.2881 Y6.1911
G01 X14.0157 Y6.2269
G01 X13.7415 Y6.2089
G01 X13.4761 Y6.1378
G01 X13.3944 Y6.0975
G00 Z1.0000
G00 X14.5536 Y5.8679
G01 F60.00
G01 Z-0.0400
G01 F170.00
G01 X14.7837 Y6.0980
G01 X14.7478 Y6.1878
G01 X14.6211 Y6.2555
G01 X14.3264 Y6.3555
G01 X14.0212 Y6.3957
G01 X13.7140 Y6.3755
G01 X13.4166 Y6.2958
G01 X13.1908 Y6.1844
G01 X13.1563 Y6.0980
G01 X13.3864 Y5.8679
G01 X13.4082 Y5.8807
G01 X13.5127 Y5.9300
G01 X13.6198 Y5.9685
G01 X13.6264 Y5.9705
G01 X13.7369 Y5.9980
G01 X13.8495 Y6.0148
G01 X13.8563 Y6.0155
G01 X13.9700 Y6.0210
G01 X14.0837 Y6.0155
G01 X14.0905 Y6.0148
G01 X14.2031 Y5.9980
G01 X14.3136 Y5.9705
G01 X14.3202 Y5.9685
G01 X14.4273 Y5.9300
G01 X14.5318 Y5.8807
G01 X14.5536 Y5.8679
G00 Z1.0000
G00 X15.0119 Y5.4096
G01 F60.00
G01 Z-0.0400
G01 F170.00
G01 X15.0247 Y5.3878
G01 X15.0740 Y5.2833
G01 X15.1125 Y5.1762
G01 X15.1145 Y5.1696
G01 X15.1420 Y5.0591
G01 X15.1588 Y4.9465
G01 X15.1595 Y4.9397
G01 X15.1650 Y4.8260
G01 X15.1595 Y4.7123
G01 X15.1588 Y4.7055
G01 X15.1420 Y4.5929
G01 X15.1145 Y4.4824
G01 X15.1125 Y4.4758
G01 X15.0740 Y4.3687
G01 X15.0247 Y4.2642
G01 X15.0119 Y4.2424
G01 X15.2420 Y4.0123
G01 X15.3318 Y4.0482
G01 X15.3995 Y4.1749
G01 X15.4995 Y4.4696
G01 X15.5397 Y4.7748
G01 X15.5195 Y5.0820
G01 X15.4398 Y5.3794
G01 X15.3284 Y5.6052
G01 X15.2420 Y5.6397
G01 X15.0119 Y5.4096
G00 Z1.0000
G00 X15.1148 Y5.3937
G01 F60.00
G01 Z-0.0400
G01 F170.00
G01 X15.1516 Y5.3155
G01 X15.1916 Y5.2045
G01 X15.1959 Y5.1900
G01 X15.2236 Y5.0792
G01 X15.2257 Y5.0681
G01 X15.2428 Y4.9514
G01 X15.2490 Y4.8260
G01 X15.2428 Y4.7006
G01 X15.2257 Y4.5839
G01 X15.2236 Y4.5728
G01 X15.1959 Y4.4620
G01 X15.1916 Y4.4475
G01 X15.1516 Y4.3365
G01 X15.1148 Y4.2583
G01 X15.2622 Y4.1109
G01 X15.2722 Y4.1148
G01 X15.3222 Y4.2085
G01 X15.4173 Y4.4887
G01 X15.4553 Y4.7776
G01 X15.4362 Y5.0683
G01 X15.3608 Y5.3496
G01 X15.2673 Y5.5391
G01 X15.2622 Y5.5411
G01 X15.1148 Y5.3937
G00 Z1.0000
G00 X15.2161 Y5.3762
G01 F60.00
G01 Z-0.0400
G01 F170.00
G01 X15.2269 Y5.3530
G01 X15.2314 Y5.3422
G01 X15.2725 Y5.2272
G01 X15.2774 Y5.2104
G01 X15.3056 Y5.0976
G01 X15.3088 Y5.0804
G01 X15.3250 Y4.9712
G01 X15.3264 Y4.9596
G01 X15.3273 Y4.9479
G01 X15.3329 Y4.8318
G01 X15.3327 Y4.8143
G01 X15.3273 Y4.7041
G01 X15.3264 Y4.6924
G01 X15.3250 Y4.6808
G01 X15.3088 Y4.5716
G01 X15.3068 Y4.5601
G01 X15.3043 Y4.5487
G01 X15.2774 Y4.4416
G01 X15.2725 Y4.4248
G01 X15.2314 Y4.3098
G01 X15.2269 Y4.2990
G01 X15.2161 Y4.2758
G01 X15.2462 Y4.2457
G01 X15.3351 Y4.5079
G01 X15.3709 Y4.7803
G01 X15.3529 Y5.0545
G01 X15.2818 Y5.3199
G01 X15.2415 Y5.4016
G01 X15.2161 Y5.3762
G00 Z1.0000
G00 X14.5536 Y3.7841
G01 F60.00
G01 Z-0.0400
G01 F170.00
G01 X14.5318 Y3.7713
G01 X14.4273 Y3.7220
G01 X14.3202 Y3.6835
G01 X14.3136 Y3.6815
G01 X14.2031 Y3.6540
G01 X14.0905 Y3.6372
G01 X14.0837 Y3.6365
G01 X13.9700 Y3.6310
G01 X13.8563 Y3.6365
G01 X13.8495 Y3.6372
G01 X13.7369 Y3.6540
G01 X13.6264 Y3.6815
G01 X13.6198 Y3.6835
G01 X13.5127 Y3.7220
G01 X13.4082 Y3.7713
G01 X13.3864 Y3.7841
G01 X13.1563 Y3.5540
G01 X13.1922 Y3.4642
G01 X13.3189 Y3.3965
G01 X13.6136 Y3.2965
G01 X13.9188 Y3.2563
G01 X14.2260 Y3.2765
G01 X14.5234 Y3.3562
G01 X14.7492 Y3.4676
G01 X14.7837 Y3.5540
G01 X14.5536 Y3.7841
G00 Z1.0000
G00 X13.4023 Y3.6812
G01 F60.00
G01 Z-0.0400
G01 F170.00
G01 X13.2549 Y3.5338
G01 X13.2588 Y3.5238
G01 X13.3525 Y3.4738
G01 X13.6327 Y3.3787
G01 X13.9216 Y3.3407
G01 X14.2123 Y3.3598
G01 X14.4936 Y3.4352
G01 X14.6831 Y3.5287
G01 X14.6851 Y3.5338
G01 X14.5377 Y3.6812
G01 X14.4595 Y3.6444
G01 X14.3485 Y3.6044
G01 X14.3340 Y3.6001
G01 X14.2232 Y3.5724
G01 X14.2121 Y3.5703
G01 X14.0954 Y3.5532
G01 X13.9700 Y3.5470
G01 X13.8446 Y3.5532
G01 X13.7279 Y3.5703
G01 X13.7168 Y3.5724
G01 X13.6060 Y3.6001
G01 X13.5915 Y3.6044
G01 X13.4805 Y3.6444
G01 X13.4023 Y3.6812
G00 Z1.0000
G00 X13.3897 Y3.5498
G01 F60.00
G01 Z-0.0400
G01 F170.00
G01 X13.6519 Y3.4609
G01 X13.9243 Y3.4251
G01 X14.1985 Y3.4431
G01 X14.4639 Y3.5142
G01 X14.5456 Y3.5545
G01 X14.5202 Y3.5799
G01 X14.4970 Y3.5691
G01 X14.4862 Y3.5646
G01 X14.3712 Y3.5235
G01 X14.3544 Y3.5186
G01 X14.2416 Y3.4904
G01 X14.2244 Y3.4872
G01 X14.1152 Y3.4710
G01 X14.1036 Y3.4696
G01 X14.0919 Y3.4687
G01 X13.9817 Y3.4633
G01 X13.9700 Y3.4630
G01 X13.9583 Y3.4633
G01 X13.8481 Y3.4687
G01 X13.8364 Y3.4696
G01 X13.8248 Y3.4710
G01 X13.7156 Y3.4872
G01 X13.6984 Y3.4904
G01 X13.5856 Y3.5186
G01 X13.5688 Y3.5235
G01 X13.4538 Y3.5646
G01 X13.4430 Y3.5691
G01 X13.4198 Y3.5799
G01 X13.3897 Y3.5498
G00 Z1.0000
G00 X15.2473 Y7.3777
G01 F60.00
G01 Z-0.0400
G01 F170.00
G01 X15.2470 Y7.3660
G01 X15.2473 Y7.3543
G01 X15.2522 Y7.2539
G01 X15.2531 Y7.2422
G01 X15.2545 Y7.2306
G01 X15.2693 Y7.1311
G01 X15.2713 Y7.1196
G01 X15.2738 Y7.1082
G01 X15.2983 Y7.0106
G01 X15.3014 Y6.9994
G01 X15.3050 Y6.9883
G01 X15.3389 Y6.8936
G01 X15.3431 Y6.8827
G01 X15.3479 Y6.8720
G01 X15.3909 Y6.7811
G01 X15.3961 Y6.7706
G01 X15.4019 Y6.7605
G01 X15.4536 Y6.6742
G01 X15.4599 Y6.6643
G01 X15.4666 Y6.6548
G01 X15.5265 Y6.5740
G01 X15.5337 Y6.5648
G01 X15.5413 Y6.5559
G01 X15.6089 Y6.4814
G01 X15.6169 Y6.4729
G01 X15.6254 Y6.4649
G01 X15.6999 Y6.3973
G01 X15.7088 Y6.3897
G01 X15.7180 Y6.3825
G01 X15.7988 Y6.3226
G01 X15.8083 Y6.3159
G01 X15.8182 Y6.3096
G01 X15.9045 Y6.2579
G01 X15.9146 Y6.2521
G01 X15.9251 Y6.2469
G01 X16.0160 Y6.2039
G01 X16.0267 Y6.1991
G01 X16.0376 Y6.1949
G01 X16.1323 Y6.1610
G01 X16.1434 Y6.1574
G01 X16.1546 Y6.1543
G01 X16.2522 Y6.1298
G01 X16.2636 Y6.1273
G01 X16.2751 Y6.1253
G01 X16.3746 Y6.1105
G01 X16.3862 Y6.1091
G01 X16.3979 Y6.1082
G01 X16.4983 Y6.1033
G01 X16.5100 Y6.1030
G01 X16.5217 Y6.1033
G01 X16.6221 Y6.1082
G01 X16.6338 Y6.1091
G01 X16.6454 Y6.1105
G01 X16.7449 Y6.1253
G01 X16.7564 Y6.1273
G01 X16.7678 Y6.1298
G01 X16.8654 Y6.1543
G01 X16.8766 Y6.1574
G01 X16.8877 Y6.1610
G01 X16.9824 Y6.1949
G01 X16.9933 Y6.1991
G01 X17.0040 Y6.2039
G01 X17.0949 Y6.2469
G01 X17.1054 Y6.2521
G01 X17.1155 Y6.2579
G01 X17.2018 Y6.3096
G01 X17.2117 Y6.3159
G01 X17.2212 Y6.3226
G01 X17.3020 Y6.3825
G01 X17.3112 Y6.3897
G01 X17.3201 Y6.3973
G01 X17.3946 Y6.4649
G01 X17.4031 Y6.4729
G01 X17.4111 Y6.4814
G01 X17.4787 Y6.5559
G01 X17.4863 Y6.5648
G01 X17.4935 Y6.5740
G01 X17.5534 Y6.6548
G01 X17.5601 Y6.6643
G01 X17.5664 Y6.6742
G01 X17.6181 Y6.7605
G01 X17.6239 Y6.7706
G01 X17.6291 Y6.7811
G01 X17.6721 Y6.8720
G01 X17.6769 Y6.8827
G01 X17.6811 Y6.8936
G01 X17.7150 Y6.9883
G01 X17.7186 Y6.9994
G01 X17.7217 Y7.0106
G01 X17.7462 Y7.1082
G01 X17.7487 Y7.1196
G01 X17.7507 Y7.1311
G01 X17.7655 Y7.2306
G01 X17.7669 Y7.2422
G01 X17.7678 Y7.2539
G01 X17.7727 Y7.3543
G01 X17.7730 Y7.3660
G01 X17.7727 Y7.3777
G01 X17.7678 Y7.4781
G01 X17.7669 Y7.4898
G01 X17.7655 Y7.5014
G01 X17.7507 Y7.6009
G01 X17.7487 Y7.6124
G01 X17.7462 Y7.6238
G01 X17.7217 Y7.7214
G01 X17.7186 Y7.7326
G01 X17.7150 Y7.7437
G01 X17.6811 Y7.8384
G01 X17.6769 Y7.8493
G01 X17.6721 Y7.8600
G01 X17.6291 Y7.9509
G01 X17.6239 Y7.9614
G01 X17.6181 Y7.9715
G01 X17.5664 Y8.0578
G01 X17.5601 Y8.0677
G01 X17.5534 Y8.0772
G01 X17.4935 Y8.1580
G01 X17.4863 Y8.1672
G01 X17.4787 Y8.1761
G01 X17.4111 Y8.2506
G01 X17.4031 Y8.2591
G01 X17.3946 Y8.2671
G01 X17.3201 Y8.3347
G01 X17.3112 Y8.3423
G01 X17.3020 Y8.3495
G01 X17.2212 Y8.4094
G01 X17.2117 Y8.4161
G01 X17.2018 Y8.4224
G01 X17.1155 Y8.4741
G01 X17.1054 Y8.4799
G01 X17.0949 Y8.4851
G01 X17.0040 Y8.5281
G01 X16.9933 Y8.5329
G01 X16.9824 Y8.5371
G01 X16.8877 Y8.5710
G01 X16.8766 Y8.5746
G01 X16.8654 Y8.5777
G01 X16.7678 Y8.6022
G01 X16.7564 Y8.6047
G01 X16.7449 Y8.6067
G01 X16.6454 Y8.6215
G01 X16.6338 Y8.6229
G01 X16.6221 Y8.6238
G01 X16.5217 Y8.6287
G01 X16.5100 Y8.6290
G01 X16.4983 Y8.6287
G01 X16.3979 Y8.6238
G01 X16.3862 Y8.6229
G01 X16.3746 Y8.6215
G01 X16.2751 Y8.6067
G01 X16.2636 Y8.6047
G01 X16.2522 Y8.6022
G01 X16.1546 Y8.5777
G01 X16.1434 Y8.5746
G01 X16.1323 Y8.5710
G01 X16.0376 Y8.5371
G01 X16.0267 Y8.5329
G01 X16.0160 Y8.5281
G01 X15.9251 Y8.4851
G01 X15.9146 Y8.4799
G01 X15.9045 Y8.4741
G01 X15.8182 Y8.4224
G01 X15.8083 Y8.4161
G01 X15.7988 Y8.4094
G01 X15.7180 Y8.3495
G01 X15.7088 Y8.3423
G01 X15.6999 Y8.3347
G01 X15.6254 Y8.2671
G01 X15.6169 Y8.2591
G01 X15.6089 Y8.2506
G01 X15.5413 Y8.1761
G01 X15.5337 Y8.1672
G01 X15.5265 Y8.1580
G01 X15.4666 Y8.0772
G01 X15.4599 Y8.0677
G01 X15.4536 Y8.0578
G01 X15.4019 Y7.9715
G01 X15.3961 Y7.9614
G01 X15.3909 Y7.9509
G01 X15.3479 Y7.8600
G01 X15.3431 Y7.8493
G01 X15.3389 Y7.8384
G01 X15.3050 Y7.7437
G01 X15.3014 Y7.7326
G01 X15.2983 Y7.7214
G01 X15.2738 Y7.6238
G01 X15.2713 Y7.6124
G01 X15.2693 Y7.6009
G01 X15.2545 Y7.5014
G01 X15.2531 Y7.4898
G01 X15.2522 Y7.4781
G01 X15.2473 Y7.3777
G00 Z1.0000
G00 X15.3312 Y7.3736
G01 F60.00
G01 Z-0.0400
G01 F170.00
G01 X15.3312 Y7.3584
G01 X15.3367 Y7.2504
G01 X15.3537 Y7.1360
G01 X15.3818 Y7.0238
G01 X15.4207 Y6.9148
G01 X15.4702 Y6.8102
G01 X15.5297 Y6.7110
G01 X15.5986 Y6.6181
G01 X15.6763 Y6.5323
G01 X15.7621 Y6.4546
G01 X15.8550 Y6.3857
G01 X15.9542 Y6.3262
G01 X16.0588 Y6.2767
G01 X16.1678 Y6.2378
G01 X16.2800 Y6.2097
G01 X16.3944 Y6.1927
G01 X16.5100 Y6.1870
G01 X16.6256 Y6.1927
G01 X16.7400 Y6.2097
G01 X16.8522 Y6.2378
G01 X16.9612 Y6.2767
G01 X17.0658 Y6.3262
G01 X17.1650 Y6.3857
G01 X17.2579 Y6.4546
G01 X17.3437 Y6.5323
G01 X17.4214 Y6.6181
G01 X17.4903 Y6.7110
G01 X17.5498 Y6.8102
G01 X17.5993 Y6.9148
G01 X17.6382 Y7.0238
G01 X17.6663 Y7.1360
G01 X17.6833 Y7.2504
G01 X17.6890 Y7.3660
G01 X17.6833 Y7.4816
G01 X17.6663 Y7.5960
G01 X17.6382 Y7.7082
G01 X17.5993 Y7.8172
G01 X17.5498 Y7.9218
G01 X17.4903 Y8.0210
G01 X17.4214 Y8.1139
G01 X17.3437 Y8.1997
G01 X17.2579 Y8.2774
G01 X17.1650 Y8.3463
G01 X17.0658 Y8.4058
G01 X16.9612 Y8.4553
G01 X16.8522 Y8.4942
G01 X16.7400 Y8.5223
G01 X16.6256 Y8.5393
G01 X16.5100 Y8.5450
G01 X16.3944 Y8.5393
G01 X16.2800 Y8.5223
G01 X16.1678 Y8.4942
G01 X16.0588 Y8.4553
G01 X15.9542 Y8.4058
G01 X15.8550 Y8.3463
G01 X15.7621 Y8.2774
G01 X15.6763 Y8.1997
G01 X15.5986 Y8.1139
G01 X15.5297 Y8.0210
G01 X15.4702 Y7.9218
G01 X15.4207 Y7.8172
G01 X15.3818 Y7.7082
G01 X15.3537 Y7.5960
G01 X15.3367 Y7.4816
G01 X15.3312 Y7.3736
G00 Z1.0000
G00 X15.4151 Y7.3694
G01 F60.00
G01 Z-0.0400
G01 F170.00
G01 X15.4151 Y7.3626
G01 X15.4203 Y7.2587
G01 X15.4360 Y7.1524
G01 X15.4622 Y7.0481
G01 X15.4984 Y6.9470
G01 X15.5443 Y6.8498
G01 X15.5995 Y6.7577
G01 X15.6636 Y6.6713
G01 X15.7357 Y6.5917
G01 X15.8153 Y6.5196
G01 X15.9017 Y6.4555
G01 X15.9938 Y6.4003
G01 X16.0910 Y6.3544
G01 X16.1921 Y6.3182
G01 X16.2964 Y6.2920
G01 X16.4027 Y6.2763
G01 X16.5100 Y6.2710
G01 X16.6173 Y6.2763
G01 X16.7236 Y6.2920
G01 X16.8279 Y6.3182
G01 X16.9290 Y6.3544
G01 X17.0262 Y6.4003
G01 X17.1183 Y6.4555
G01 X17.2047 Y6.5196
G01 X17.2843 Y6.5917
G01 X17.3564 Y6.6713
G01 X17.4205 Y6.7577
G01 X17.4757 Y6.8498
G01 X17.5216 Y6.9470
G01 X17.5578 Y7.0481
G01 X17.5840 Y7.1524
G01 X17.5997 Y7.2587
G01 X17.6050 Y7.3660
G01 X17.5997 Y7.4733
G01 X17.5840 Y7.5796
G01 X17.5578 Y7.6839
G01 X17.5216 Y7.7850
G01 X17.4757 Y7.8822
G01 X17.4205 Y7.9743
G01 X17.3564 Y8.0607
G01 X17.2843 Y8.1403
G01 X17.2047 Y8.2124
G01 X17.1183 Y8.2765
G01 X17.0262 Y8.3317
G01 X16.9290 Y8.3776
G01 X16.8279 Y8.4138
G01 X16.7236 Y8.4400
G01 X16.6173 Y8.4557
G01 X16.5100 Y8.4610
G01 X16.4027 Y8.4557
G01 X16.2964 Y8.4400
G01 X16.1921 Y8.4138
G01 X16.0910 Y8.3776
G01 X15.9938 Y8.3317
G01 X15.9017 Y8.2765
G01 X15.8153 Y8.2124
G01 X15.7357 Y8.1403
G01 X15.6636 Y8.0607
G01 X15.5995 Y7.9743
G01 X15.5443 Y7.8822
G01 X15.4984 Y7.7850
G01 X15.4622 Y7.6839
G01 X15.4360 Y7.5796
G01 X15.4203 Y7.4733
G01 X15.4151 Y7.3694
G00 Z1.0000
G00 X15.6936 Y8.3779
G01 F60.00
G01 Z-0.0400
G01 F170.00
G01 X15.6845 Y8.3718
G01 X15.5042 Y8.1915
G01 X15.3624 Y7.9794
G01 X15.2648 Y7.7437
G01 X15.2151 Y7.4935
G01 X15.2151 Y7.2385
G01 X15.2648 Y6.9883
G01 X15.3624 Y6.7526
G01 X15.5042 Y6.5405
G01 X15.6845 Y6.3602
G01 X15.8966 Y6.2184
G01 X16.1323 Y6.1208
G01 X16.3825 Y6.0711
G01 X16.6375 Y6.0711
G01 X16.8877 Y6.1208
G01 X17.1234 Y6.2184
G01 X17.3355 Y6.3602
G01 X17.5158 Y6.5405
G01 X17.6576 Y6.7526
G01 X17.7552 Y6.9883
G01 X17.8049 Y7.2385
G01 X17.8049 Y7.4935
G01 X17.7552 Y7.7437
G01 X17.6576 Y7.9794
G01 X17.5158 Y8.1915
G01 X17.3355 Y8.3718
G01 X17.1234 Y8.5136
G01 X16.8877 Y8.6112
G01 X16.6375 Y8.6609
G01 X16.3825 Y8.6609
G01 X16.1323 Y8.6112
G01 X15.8966 Y8.5136
G01 X15.6936 Y8.3779
G00 Z1.0000
G00 X15.6470 Y8.4478
G01 F60.00
G01 Z-0.0400
G01 F170.00
G01 X15.6310 Y8.4371
G01 X15.4389 Y8.2450
G01 X15.2880 Y8.0192
G01 X15.1841 Y7.7682
G01 X15.1311 Y7.5018
G01 X15.1311 Y7.2302
G01 X15.1841 Y6.9638
G01 X15.2880 Y6.7128
G01 X15.4389 Y6.4870
G01 X15.6310 Y6.2949
G01 X15.8568 Y6.1440
G01 X16.1078 Y6.0401
G01 X16.3742 Y5.9871
G01 X16.6458 Y5.9871
G01 X16.9122 Y6.0401
G01 X17.1632 Y6.1440
G01 X17.3890 Y6.2949
G01 X17.5811 Y6.4870
G01 X17.7320 Y6.7128
G01 X17.8359 Y6.9638
G01 X17.8889 Y7.2302
G01 X17.8889 Y7.5018
G01 X17.8359 Y7.7682
G01 X17.7320 Y8.0192
G01 X17.5811 Y8.2450
G01 X17.3890 Y8.4371
G01 X17.1632 Y8.5880
G01 X16.9122 Y8.6919
G01 X16.6458 Y8.7449
G01 X16.3742 Y8.7449
G01 X16.1078 Y8.6919
G01 X15.8568 Y8.5880
G01 X15.6470 Y8.4478
G00 Z1.0000
G00 X15.6003 Y8.5176
G01 F60.00
G01 Z-0.0400
G01 F170.00
G01 X15.5774 Y8.5023
G01 X15.3737 Y8.2986
G01 X15.2136 Y8.0590
G01 X15.1033 Y7.7927
G01 X15.0471 Y7.5101
G01 X15.0471 Y7.2219
G01 X15.1033 Y6.9393
G01 X15.2136 Y6.6730
G01 X15.3737 Y6.4334
G01 X15.5774 Y6.2297
G01 X15.8170 Y6.0696
G01 X16.0833 Y5.9593
G01 X16.3659 Y5.9031
G01 X16.6541 Y5.9031
G01 X16.9367 Y5.9593
G01 X17.2030 Y6.0696
G01 X17.4426 Y6.2297
G01 X17.6463 Y6.4334
G01 X17.8064 Y6.6730
G01 X17.9167 Y6.9393
G01 X17.9729 Y7.2219
G01 X17.9729 Y7.5101
G01 X17.9167 Y7.7927
G01 X17.8064 Y8.0590
G01 X17.6463 Y8.2986
G01 X17.4426 Y8.5023
G01 X17.2030 Y8.6624
G01 X16.9367 Y8.7727
G01 X16.6541 Y8.8289
G01 X16.3659 Y8.8289
G01 X16.0833 Y8.7727
G01 X15.8170 Y8.6624
G01 X15.6003 Y8.5176
G00 Z1.0000
G00 X14.5536 Y8.8641
G01 F60.00
G01 Z-0.0400
G01 F170.00
G01 X14.5318 Y8.8513
G01 X14.4273 Y8.8020
G01 X14.3202 Y8.7635
G01 X14.3136 Y8.7615
G01 X14.2031 Y8.7340
G01 X14.0905 Y8.7172
G01 X14.0837 Y8.7165
G01 X13.9700 Y8.7110
G01 X13.8563 Y8.7165
G01 X13.8495 Y8.7172
G01 X13.7369 Y8.7340
G01 X13.6264 Y8.7615
G01 X13.6198 Y8.7635
G01 X13.5127 Y8.8020
G01 X13.4082 Y8.8513
G01 X13.3864 Y8.8641
G01 X13.1563 Y8.6340
G01 X13.1922 Y8.5442
G01 X13.3189 Y8.4765
G01 X13.6136 Y8.3765
G01 X13.9188 Y8.3363
G01 X14.2260 Y8.3565
G01 X14.5234 Y8.4362
G01 X14.7492 Y8.5476
G01 X14.7837 Y8.6340
G01 X14.5536 Y8.8641
G00 Z1.0000
G00 X13.4023 Y8.7612
G01 F60.00
G01 Z-0.0400
G01 F170.00
G01 X13.2549 Y8.6138
G01 X13.2588 Y8.6038
G01 X13.3525 Y8.5538
G01 X13.6327 Y8.4587
G01 X13.9216 Y8.4207
G01 X14.2123 Y8.4398
G01 X14.4936 Y8.5152
G01 X14.6831 Y8.6087
G01 X14.6851 Y8.6138
G01 X14.5377 Y8.7612
G01 X14.4595 Y8.7244
G01 X14.3485 Y8.6844
G01 X14.3340 Y8.6801
G01 X14.2232 Y8.6524
G01 X14.2121 Y8.6503
G01 X14.0954 Y8.6332
G01 X13.9700 Y8.6270
G01 X13.8446 Y8.6332
G01 X13.7279 Y8.6503
G01 X13.7168 Y8.6524
G01 X13.6060 Y8.6801
G01 X13.5915 Y8.6844
G01 X13.4805 Y8.7244
G01 X13.4023 Y8.7612
G00 Z1.0000
G00 X13.3897 Y8.6298
G01 F60.00
G01 Z-0.0400
G01 F170.00
G01 X13.6519 Y8.5409
G01 X13.9243 Y8.5051
G01 X14.1985 Y8.5231
G01 X14.4639 Y8.5942
G01 X14.5456 Y8.6345
G01 X14.5202 Y8.6599
G01 X14.4970 Y8.6491
G01 X14.4862 Y8.6446
G01 X14.3712 Y8.6035
G01 X14.3544 Y8.5986
G01 X14.2416 Y8.5704
G01 X14.2244 Y8.5672
G01 X14.1152 Y8.5510
G01 X14.1036 Y8.5496
G01 X14.0919 Y8.5487
G01 X13.9817 Y8.5433
G01 X13.9700 Y8.5430
G01 X13.9583 Y8.5433
G01 X13.8481 Y8.5487
G01 X13.8364 Y8.5496
G01 X13.8248 Y8.5510
G01 X13.7156 Y8.5672
G01 X13.6984 Y8.5704
G01 X13.5856 Y8.5986
G01 X13.5688 Y8.6035
G01 X13.4538 Y8.6446
G01 X13.4430 Y8.6491
G01 X13.4198 Y8.6599
G01 X13.3897 Y8.6298
G00 Z1.0000
G00 X12.8252 Y9.3383
G01 F60.00
G01 Z-0.0400
G01 F170.00
G01 X12.7884 Y9.4165
G01 X12.7484 Y9.5275
G01 X12.7441 Y9.5420
G01 X12.7164 Y9.6528
G01 X12.7143 Y9.6639
G01 X12.6972 Y9.7806
G01 X12.6910 Y9.9060
G01 X12.6972 Y10.0314
G01 X12.7143 Y10.1481
G01 X12.7164 Y10.1592
G01 X12.7441 Y10.2700
G01 X12.7484 Y10.2845
G01 X12.7884 Y10.3955
G01 X12.8252 Y10.4737
G01 X12.6778 Y10.6211
G01 X12.6678 Y10.6172
G01 X12.6178 Y10.5235
G01 X12.5227 Y10.2433
G01 X12.4847 Y9.9544
G01 X12.5038 Y9.6637
G01 X12.5792 Y9.3824
G01 X12.6727 Y9.1929
G01 X12.6778 Y9.1909
G01 X12.8252 Y9.3383
G00 Z1.0000
G00 X12.6938 Y10.4863
G01 F60.00
G01 Z-0.0400
G01 F170.00
G01 X12.6049 Y10.2241
G01 X12.5691 Y9.9517
G01 X12.5871 Y9.6775
G01 X12.6582 Y9.4121
G01 X12.6985 Y9.3304
G01 X12.7239 Y9.3558
G01 X12.7131 Y9.3790
G01 X12.7086 Y9.3898
G01 X12.6675 Y9.5048
G01 X12.6626 Y9.5216
G01 X12.6344 Y9.6344
G01 X12.6312 Y9.6516
G01 X12.6150 Y9.7608
G01 X12.6136 Y9.7724
G01 X12.6127 Y9.7841
G01 X12.6073 Y9.8943
G01 X12.6070 Y9.9060
G01 X12.6073 Y9.9177
G01 X12.6127 Y10.0279
G01 X12.6136 Y10.0396
G01 X12.6150 Y10.0512
G01 X12.6312 Y10.1604
G01 X12.6344 Y10.1776
G01 X12.6626 Y10.2904
G01 X12.6675 Y10.3072
G01 X12.7086 Y10.4222
G01 X12.7131 Y10.4330
G01 X12.7239 Y10.4562
G01 X12.6938 Y10.4863
G00 Z1.0000
G00 X12.9281 Y10.4896
G01 F60.00
G01 Z-0.0400
G01 F170.00
G01 X12.6980 Y10.7197
G01 X12.6082 Y10.6838
G01 X12.5405 Y10.5571
G01 X12.4405 Y10.2624
G01 X12.4003 Y9.9572
G01 X12.4205 Y9.6500
G01 X12.5002 Y9.3526
G01 X12.6116 Y9.1268
G01 X12.6980 Y9.0923
G01 X12.9281 Y9.3224
G01 X12.9153 Y9.3442
G01 X12.8660 Y9.4487
G01 X12.8275 Y9.5558
G01 X12.8255 Y9.5624
G01 X12.7980 Y9.6729
G01 X12.7812 Y9.7855
G01 X12.7805 Y9.7923
G01 X12.7750 Y9.9060
G01 X12.7805 Y10.0197
G01 X12.7812 Y10.0265
G01 X12.7980 Y10.1391
G01 X12.8255 Y10.2496
G01 X12.8275 Y10.2562
G01 X12.8660 Y10.3633
G01 X12.9153 Y10.4678
G01 X12.9281 Y10.4896
G00 Z1.0000
G00 X13.4023 Y11.0508
G01 F60.00
G01 Z-0.0400
G01 F170.00
G01 X13.4805 Y11.0876
G01 X13.5915 Y11.1276
G01 X13.6060 Y11.1319
G01 X13.7168 Y11.1596
G01 X13.7279 Y11.1617
G01 X13.8446 Y11.1788
G01 X13.9700 Y11.1850
G01 X14.0954 Y11.1788
G01 X14.2121 Y11.1617
G01 X14.2232 Y11.1596
G01 X14.3340 Y11.1319
G01 X14.3485 Y11.1276
G01 X14.4595 Y11.0876
G01 X14.5377 Y11.0508
G01 X14.6851 Y11.1982
G01 X14.6812 Y11.2082
G01 X14.5875 Y11.2582
G01 X14.3073 Y11.3533
G01 X14.0184 Y11.3913
G01 X13.7277 Y11.3722
G01 X13.4464 Y11.2968
G01 X13.2569 Y11.2033
G01 X13.2549 Y11.1982
G01 X13.4023 Y11.0508
G00 Z1.0000
G00 X13.3944 Y11.1775
G01 F60.00
G01 Z-0.0400
G01 F170.00
G01 X13.4198 Y11.1521
G01 X13.4430 Y11.1629
G01 X13.4538 Y11.1674
G01 X13.5688 Y11.2085
G01 X13.5856 Y11.2134
G01 X13.6984 Y11.2416
G01 X13.7156 Y11.2448
G01 X13.8248 Y11.2610
G01 X13.8364 Y11.2624
G01 X13.8481 Y11.2633
G01 X13.9583 Y11.2687
G01 X13.9700 Y11.2690
G01 X13.9817 Y11.2687
G01 X14.0919 Y11.2633
G01 X14.1036 Y11.2624
G01 X14.1152 Y11.2610
G01 X14.2244 Y11.2448
G01 X14.2416 Y11.2416
G01 X14.3544 Y11.2134
G01 X14.3712 Y11.2085
G01 X14.4862 Y11.1674
G01 X14.4970 Y11.1629
G01 X14.5202 Y11.1521
G01 X14.5503 Y11.1822
G01 X14.2881 Y11.2711
G01 X14.0157 Y11.3069
G01 X13.7415 Y11.2889
G01 X13.4761 Y11.2178
G01 X13.3944 Y11.1775
G00 Z1.0000
G00 X14.5536 Y10.9479
G01 F60.00
G01 Z-0.0400
G01 F170.00
G01 X14.7837 Y11.1780
G01 X14.7478 Y11.2678
G01 X14.6211 Y11.3355
G01 X14.3264 Y11.4355
G01 X14.0212 Y11.4757
G01 X13.7140 Y11.4555
G01 X13.4166 Y11.3758
G01 X13.1908 Y11.2644
G01 X13.1563 Y11.1780
G01 X13.3864 Y10.9479
G01 X13.4082 Y10.9607
G01 X13.5127 Y11.0100
G01 X13.6198 Y11.0485
G01 X13.6264 Y11.0505
G01 X13.7369 Y11.0780
G01 X13.8495 Y11.0948
G01 X13.8563 Y11.0955
G01 X13.9700 Y11.1010
G01 X14.0837 Y11.0955
G01 X14.0905 Y11.0948
G01 X14.2031 Y11.0780
G01 X14.3136 Y11.0505
G01 X14.3202 Y11.0485
G01 X14.4273 Y11.0100
G01 X14.5318 Y10.9607
G01 X14.5536 Y10.9479
G00 Z1.0000
G00 X15.0119 Y10.4896
G01 F60.00
G01 Z-0.0400
G01 F170.00
G01 X15.0247 Y10.4678
G01 X15.0740 Y10.3633
G01 X15.1125 Y10.2562
G01 X15.1145 Y10.2496
G01 X15.1420 Y10.1391
G01 X15.1588 Y10.0265
G01 X15.1595 Y10.0197
G01 X15.1650 Y9.9060
G01 X15.1595 Y9.7923
G01 X15.1588 Y9.7855
G01 X15.1420 Y9.6729
G01 X15.1145 Y9.5624
G01 X15.1125 Y9.5558
G01 X15.0740 Y9.4487
G01 X15.0247 Y9.3442
G01 X15.0119 Y9.3224
G01 X15.2420 Y9.0923
G01 X15.3318 Y9.1282
G01 X15.3995 Y9.2549
G01 X15.4995 Y9.5496
G01 X15.5397 Y9.8548
G01 X15.5195 Y10.1620
G01 X15.4398 Y10.4594
G01 X15.3284 Y10.6852
G01 X15.2420 Y10.7197
G01 X15.0119 Y10.4896
G00 Z1.0000
G00 X15.1148 Y10.4737
G01 F60.00
G01 Z-0.0400
G01 F170.00
G01 X15.1516 Y10.3955
G01 X15.1916 Y10.2845
G01 X15.1959 Y10.2700
G01 X15.2236 Y10.1592
G01 X15.2257 Y10.1481
G01 X15.2428 Y10.0314
G01 X15.2490 Y9.9060
G01 X15.2428 Y9.7806
G01 X15.2257 Y9.6639
G01 X15.2236 Y9.6528
G01 X15.1959 Y9.5420
G01 X15.1916 Y9.5275
G01 X15.1516 Y9.4165
G01 X15.1148 Y9.3383
G01 X15.2622 Y9.1909
G01 X15.2722 Y9.1948
G01 X15.3222 Y9.2885
G01 X15.4173 Y9.5687
G01 X15.4553 Y9.8576
G01 X15.4362 Y10.1483
G01 X15.3608 Y10.4296
G01 X15.2673 Y10.6191
G01 X15.2622 Y10.6211
G01 X15.1148 Y10.4737
G00 Z1.0000
G00 X15.2161 Y10.4562
G01 F60.00
G01 Z-0.0400
G01 F170.00
G01 X15.2269 Y10.4330
G01 X15.2314 Y10.4222
G01 X15.2725 Y10.3072
G01 X15.2774 Y10.2904
G01 X15.3056 Y10.1776
G01 X15.3088 Y10.1604
G01 X15.3250 Y10.0512
G01 X15.3264 Y10.0396
G01 X15.3273 Y10.0279
G01 X15.3329 Y9.9118
G01 X15.3327 Y9.8943
G01 X15.3273 Y9.7841
G01 X15.3264 Y9.7724
G01 X15.3250 Y9.7608
G01 X15.3088 Y9.6516
G01 X15.3068 Y9.6401
G01 X15.3043 Y9.6287
G01 X15.2774 Y9.5216
G01 X15.2725 Y9.5048
G01 X15.2314 Y9.3898
G01 X15.2269 Y9.3790
G01 X15.2161 Y9.3558
G01 X15.2462 Y9.3257
G01 X15.3351 Y9.5879
G01 X15.3709 Y9.8603
G01 X15.3529 Y10.1345
G01 X15.2818 Y10.3999
G01 X15.2415 Y10.4816
G01 X15.2161 Y10.4562
G00 Z1.0000
G00 X17.7738 Y10.4863
G01 F60.00
G01 Z-0.0400
G01 F170.00
G01 X17.6849 Y10.2241
G01 X17.6491 Y9.9517
G01 X17.6671 Y9.6775
G01 X17.7382 Y9.4121
G01 X17.7785 Y9.3304
G01 X17.8039 Y9.3558
G01 X17.7931 Y9.3790
G01 X17.7886 Y9.3898
G01 X17.7475 Y9.5048
G01 X17.7426 Y9.5216
G01 X17.7144 Y9.6344
G01 X17.7112 Y9.6516
G01 X17.6950 Y9.7608
G01 X17.6936 Y9.7724
G01 X17.6927 Y9.7841
G01 X17.6873 Y9.8943
G01 X17.6870 Y9.9060
G01 X17.6873 Y9.9177
G01 X17.6927 Y10.0279
G01 X17.6936 Y10.0396
G01 X17.6950 Y10.0512
G01 X17.7112 Y10.1604
G01 X17.7144 Y10.1776
G01 X17.7426 Y10.2904
G01 X17.7475 Y10.3072
G01 X17.7886 Y10.4222
G01 X17.7931 Y10.4330
G01 X17.8039 Y10.4562
G01 X17.7738 Y10.4863
G00 Z1.0000
G00 X18.0081 Y10.4896
G01 F60.00
G01 Z-0.0400
G01 F170.00
G01 X17.7780 Y10.7197
G01 X17.6882 Y10.6838
G01 X17.6205 Y10.5571
G01 X17.5205 Y10.2624
G01 X17.4803 Y9.9572
G01 X17.5005 Y9.6500
G01 X17.5802 Y9.3526
G01 X17.6916 Y9.1268
G01 X17.7780 Y9.0923
G01 X18.0081 Y9.3224
G01 X17.9953 Y9.3442
G01 X17.9460 Y9.4487
G01 X17.9075 Y9.5558
G01 X17.9055 Y9.5624
G01 X17.8780 Y9.6729
G01 X17.8612 Y9.7855
G01 X17.8605 Y9.7923
G01 X17.8550 Y9.9060
G01 X17.8605 Y10.0197
G01 X17.8612 Y10.0265
G01 X17.8780 Y10.1391
G01 X17.9055 Y10.2496
G01 X17.9075 Y10.2562
G01 X17.9460 Y10.3633
G01 X17.9953 Y10.4678
G01 X18.0081 Y10.4896
G00 Z1.0000
G00 X18.4823 Y11.0508
G01 F60.00
G01 Z-0.0400
G01 F170.00
G01 X18.5605 Y11.0876
G01 X18.6715 Y11.1276
G01 X18.6860 Y11.1319
G01 X18.7968 Y11.1596
G01 X18.8079 Y11.1617
G01 X18.9246 Y11.1788
G01 X19.0500 Y11.1850
G01 X19.1754 Y11.1788
G01 X19.2921 Y11.1617
G01 X19.3032 Y11.1596
G01 X19.4140 Y11.1319
G01 X19.4285 Y11.1276
G01 X19.5395 Y11.0876
G01 X19.6177 Y11.0508
G01 X19.7651 Y11.1982
G01 X19.7612 Y11.2082
G01 X19.6675 Y11.2582
G01 X19.3873 Y11.3533
G01 X19.0984 Y11.3913
G01 X18.8077 Y11.3722
G01 X18.5264 Y11.2968
G01 X18.3369 Y11.2033
G01 X18.3349 Y11.1982
G01 X18.4823 Y11.0508
G00 Z1.0000
G00 X18.4744 Y11.1775
G01 F60.00
G01 Z-0.0400
G01 F170.00
G01 X18.4998 Y11.1521
G01 X18.5230 Y11.1629
G01 X18.5338 Y11.1674
G01 X18.6488 Y11.2085
G01 X18.6656 Y11.2134
G01 X18.7784 Y11.2416
G01 X18.7956 Y11.2448
G01 X18.9048 Y11.2610
G01 X18.9164 Y11.2624
G01 X18.9281 Y11.2633
G01 X19.0383 Y11.2687
G01 X19.0500 Y11.2690
G01 X19.0617 Y11.2687
G01 X19.1719 Y11.2633
G01 X19.1836 Y11.2624
G01 X19.1952 Y11.2610
G01 X19.3044 Y11.2448
G01 X19.3216 Y11.2416
G01 X19.4344 Y11.2134
G01 X19.4512 Y11.2085
G01 X19.5662 Y11.1674
G01 X19.5770 Y11.1629
G01 X19.6002 Y11.1521
G01 X19.6303 Y11.1822
G01 X19.3681 Y11.2711
G01 X19.0957 Y11.3069
G01 X18.8215 Y11.2889
G01 X18.5561 Y11.2178
G01 X18.4744 Y11.1775
G00 Z1.0000
G00 X19.6336 Y10.9479
G01 F60.00
G01 Z-0.0400
G01 F170.00
G01 X19.8637 Y11.1780
G01 X19.8278 Y11.2678
G01 X19.7011 Y11.3355
G01 X19.4064 Y11.4355
G01 X19.1012 Y11.4757
G01 X18.7940 Y11.4555
G01 X18.4966 Y11.3758
G01 X18.2708 Y11.2644
G01 X18.2363 Y11.1780
G01 X18.4664 Y10.9479
G01 X18.4882 Y10.9607
G01 X18.5927 Y11.0100
G01 X18.6998 Y11.0485
G01 X18.7064 Y11.0505
G01 X18.8169 Y11.0780
G01 X18.9295 Y11.0948
G01 X18.9363 Y11.0955
G01 X19.0500 Y11.1010
G01 X19.1637 Y11.0955
G01 X19.1705 Y11.0948
G01 X19.2831 Y11.0780
G01 X19.3936 Y11.0505
G01 X19.4002 Y11.0485
G01 X19.5073 Y11.0100
G01 X19.6118 Y10.9607
G01 X19.6336 Y10.9479
G00 Z1.0000
G00 X20.0919 Y10.4896
G01 F60.00
G01 Z-0.0400
G01 F170.00
G01 X20.1047 Y10.4678
G01 X20.1540 Y10.3633
G01 X20.1925 Y10.2562
G01 X20.1945 Y10.2496
G01 X20.2220 Y10.1391
G01 X20.2388 Y10.0265
G01 X20.2395 Y10.0197
G01 X20.2450 Y9.9060
G01 X20.2395 Y9.7923
G01 X20.2388 Y9.7855
G01 X20.2220 Y9.6729
G01 X20.1945 Y9.5624
G01 X20.1925 Y9.5558
G01 X20.1540 Y9.4487
G01 X20.1047 Y9.3442
G01 X20.0919 Y9.3224
G01 X20.3220 Y9.0923
G01 X20.4118 Y9.1282
G01 X20.4795 Y9.2549
G01 X20.5795 Y9.5496
G01 X20.6197 Y9.8548
G01 X20.5995 Y10.1620
G01 X20.5198 Y10.4594
G01 X20.4084 Y10.6852
G01 X20.3220 Y10.7197
G01 X20.0919 Y10.4896
G00 Z1.0000
G00 X20.1948 Y10.4737
G01 F60.00
G01 Z-0.0400
G01 F170.00
G01 X20.2316 Y10.3955
G01 X20.2716 Y10.2845
G01 X20.2759 Y10.2700
G01 X20.3036 Y10.1592
G01 X20.3057 Y10.1481
G01 X20.3228 Y10.0314
G01 X20.3290 Y9.9060
G01 X20.3228 Y9.7806
G01 X20.3057 Y9.6639
G01 X20.3036 Y9.6528
G01 X20.2759 Y9.5420
G01 X20.2716 Y9.5275
G01 X20.2316 Y9.4165
G01 X20.1948 Y9.3383
G01 X20.3422 Y9.1909
G01 X20.3522 Y9.1948
G01 X20.4022 Y9.2885
G01 X20.4973 Y9.5687
G01 X20.5353 Y9.8576
G01 X20.5162 Y10.1483
G01 X20.4408 Y10.4296
G01 X20.3473 Y10.6191
G01 X20.3422 Y10.6211
G01 X20.1948 Y10.4737
G00 Z1.0000
G00 X20.2961 Y10.4562
G01 F60.00
G01 Z-0.0400
G01 F170.00
G01 X20.3069 Y10.4330
G01 X20.3114 Y10.4222
G01 X20.3525 Y10.3072
G01 X20.3574 Y10.2904
G01 X20.3856 Y10.1776
G01 X20.3888 Y10.1604
G01 X20.4050 Y10.0512
G01 X20.4064 Y10.0396
G01 X20.4073 Y10.0279
G01 X20.4129 Y9.9118
G01 X20.4127 Y9.8943
G01 X20.4073 Y9.7841
G01 X20.4064 Y9.7724
G01 X20.4050 Y9.7608
G01 X20.3888 Y9.6516
G01 X20.3868 Y9.6401
G01 X20.3843 Y9.6287
G01 X20.3574 Y9.5216
G01 X20.3525 Y9.5048
G01 X20.3114 Y9.3898
G01 X20.3069 Y9.3790
G01 X20.2961 Y9.3558
G01 X20.3262 Y9.3257
G01 X20.4151 Y9.5879
G01 X20.4509 Y9.8603
G01 X20.4329 Y10.1345
G01 X20.3618 Y10.3999
G01 X20.3215 Y10.4816
G01 X20.2961 Y10.4562
G00 Z1.0000
G00 X19.6336 Y8.8641
G01 F60.00
G01 Z-0.0400
G01 F170.00
G01 X19.6118 Y8.8513
G01 X19.5073 Y8.8020
G01 X19.4002 Y8.7635
G01 X19.3936 Y8.7615
G01 X19.2831 Y8.7340
G01 X19.1705 Y8.7172
G01 X19.1637 Y8.7165
G01 X19.0500 Y8.7110
G01 X18.9363 Y8.7165
G01 X18.9295 Y8.7172
G01 X18.8169 Y8.7340
G01 X18.7064 Y8.7615
G01 X18.6998 Y8.7635
G01 X18.5927 Y8.8020
G01 X18.4882 Y8.8513
G01 X18.4664 Y8.8641
G01 X18.2363 Y8.6340
G01 X18.2722 Y8.5442
G01 X18.3989 Y8.4765
G01 X18.6936 Y8.3765
G01 X18.9988 Y8.3363
G01 X19.3060 Y8.3565
G01 X19.6034 Y8.4362
G01 X19.8292 Y8.5476
G01 X19.8637 Y8.6340
G01 X19.6336 Y8.8641
G00 Z1.0000
G00 X18.4823 Y8.7612
G01 F60.00
G01 Z-0.0400
G01 F170.00
G01 X18.3349 Y8.6138
G01 X18.3388 Y8.6038
G01 X18.4325 Y8.5538
G01 X18.7127 Y8.4587
G01 X19.0016 Y8.4207
G01 X19.2923 Y8.4398
G01 X19.5736 Y8.5152
G01 X19.7631 Y8.6087
G01 X19.7651 Y8.6138
G01 X19.6177 Y8.7612
G01 X19.5395 Y8.7244
G01 X19.4285 Y8.6844
G01 X19.4140 Y8.6801
G01 X19.3032 Y8.6524
G01 X19.2921 Y8.6503
G01 X19.1754 Y8.6332
G01 X19.0500 Y8.6270
G01 X18.9246 Y8.6332
G01 X18.8079 Y8.6503
G01 X18.7968 Y8.6524
G01 X18.6860 Y8.6801
G01 X18.6715 Y8.6844
G01 X18.5605 Y8.7244
G01 X18.4823 Y8.7612
G00 Z1.0000
G00 X18.4697 Y8.6298
G01 F60.00
G01 Z-0.0400
G01 F170.00
G01 X18.7319 Y8.5409
G01 X19.0043 Y8.5051
G01 X19.2785 Y8.5231
G01 X19.5439 Y8.5942
G01 X19.6256 Y8.6345
G01 X19.6002 Y8.6599
G01 X19.5770 Y8.6491
G01 X19.5662 Y8.6446
G01 X19.4512 Y8.6035
G01 X19.4344 Y8.5986
G01 X19.3216 Y8.5704
G01 X19.3044 Y8.5672
G01 X19.1952 Y8.5510
G01 X19.1836 Y8.5496
G01 X19.1719 Y8.5487
G01 X19.0617 Y8.5433
G01 X19.0500 Y8.5430
G01 X19.0383 Y8.5433
G01 X18.9281 Y8.5487
G01 X18.9164 Y8.5496
G01 X18.9048 Y8.5510
G01 X18.7956 Y8.5672
G01 X18.7784 Y8.5704
G01 X18.6656 Y8.5986
G01 X18.6488 Y8.6035
G01 X18.5338 Y8.6446
G01 X18.5230 Y8.6491
G01 X18.4998 Y8.6599
G01 X18.4697 Y8.6298
G00 Z1.0000
G00 X17.9052 Y9.3383
G01 F60.00
G01 Z-0.0400
G01 F170.00
G01 X17.8684 Y9.4165
G01 X17.8284 Y9.5275
G01 X17.8241 Y9.5420
G01 X17.7964 Y9.6528
G01 X17.7943 Y9.6639
G01 X17.7772 Y9.7806
G01 X17.7710 Y9.9060
G01 X17.7772 Y10.0314
G01 X17.7943 Y10.1481
G01 X17.7964 Y10.1592
G01 X17.8241 Y10.2700
G01 X17.8284 Y10.2845
G01 X17.8684 Y10.3955
G01 X17.9052 Y10.4737
G01 X17.7578 Y10.6211
G01 X17.7478 Y10.6172
G01 X17.6978 Y10.5235
G01 X17.6027 Y10.2433
G01 X17.5647 Y9.9544
G01 X17.5838 Y9.6637
G01 X17.6592 Y9.3824
G01 X17.7527 Y9.1929
G01 X17.7578 Y9.1909
G01 X17.9052 Y9.3383
G00 Z1.0000
G00 X18.4744 Y6.0975
G01 F60.00
G01 Z-0.0400
G01 F170.00
G01 X18.4998 Y6.0721
G01 X18.5230 Y6.0829
G01 X18.5338 Y6.0874
G01 X18.6488 Y6.1285
G01 X18.6656 Y6.1334
G01 X18.7784 Y6.1616
G01 X18.7956 Y6.1648
G01 X18.9048 Y6.1810
G01 X18.9164 Y6.1824
G01 X18.9281 Y6.1833
G01 X19.0383 Y6.1887
G01 X19.0500 Y6.1890
G01 X19.0617 Y6.1887
G01 X19.1719 Y6.1833
G01 X19.1836 Y6.1824
G01 X19.1952 Y6.1810
G01 X19.3044 Y6.1648
G01 X19.3216 Y6.1616
G01 X19.4344 Y6.1334
G01 X19.4512 Y6.1285
G01 X19.5662 Y6.0874
G01 X19.5770 Y6.0829
G01 X19.6002 Y6.0721
G01 X19.6303 Y6.1022
G01 X19.3681 Y6.1911
G01 X19.0957 Y6.2269
G01 X18.8215 Y6.2089
G01 X18.5561 Y6.1378
G01 X18.4744 Y6.0975
G00 Z1.0000
G00 X18.4823 Y5.9708
G01 F60.00
G01 Z-0.0400
G01 F170.00
G01 X18.5605 Y6.0076
G01 X18.6715 Y6.0476
G01 X18.6860 Y6.0519
G01 X18.7968 Y6.0796
G01 X18.8079 Y6.0817
G01 X18.9246 Y6.0988
G01 X19.0500 Y6.1050
G01 X19.1754 Y6.0988
G01 X19.2921 Y6.0817
G01 X19.3032 Y6.0796
G01 X19.4140 Y6.0519
G01 X19.4285 Y6.0476
G01 X19.5395 Y6.0076
G01 X19.6177 Y5.9708
G01 X19.7651 Y6.1182
G01 X19.7612 Y6.1282
G01 X19.6675 Y6.1782
G01 X19.3873 Y6.2733
G01 X19.0984 Y6.3113
G01 X18.8077 Y6.2922
G01 X18.5264 Y6.2168
G01 X18.3369 Y6.1233
G01 X18.3349 Y6.1182
G01 X18.4823 Y5.9708
G00 Z1.0000
G00 X18.0081 Y5.4096
G01 F60.00
G01 Z-0.0400
G01 F170.00
G01 X17.7780 Y5.6397
G01 X17.6882 Y5.6038
G01 X17.6205 Y5.4771
G01 X17.5205 Y5.1824
G01 X17.4803 Y4.8772
G01 X17.5005 Y4.5700
G01 X17.5802 Y4.2726
G01 X17.6916 Y4.0468
G01 X17.7780 Y4.0123
G01 X18.0081 Y4.2424
G01 X17.9953 Y4.2642
G01 X17.9460 Y4.3687
G01 X17.9075 Y4.4758
G01 X17.9055 Y4.4824
G01 X17.8780 Y4.5929
G01 X17.8612 Y4.7055
G01 X17.8605 Y4.7123
G01 X17.8550 Y4.8260
G01 X17.8605 Y4.9397
G01 X17.8612 Y4.9465
G01 X17.8780 Y5.0591
G01 X17.9055 Y5.1696
G01 X17.9075 Y5.1762
G01 X17.9460 Y5.2833
G01 X17.9953 Y5.3878
G01 X18.0081 Y5.4096
G00 Z1.0000
G00 X17.7738 Y5.4063
G01 F60.00
G01 Z-0.0400
G01 F170.00
G01 X17.6849 Y5.1441
G01 X17.6491 Y4.8717
G01 X17.6671 Y4.5975
G01 X17.7382 Y4.3321
G01 X17.7785 Y4.2504
G01 X17.8039 Y4.2758
G01 X17.7931 Y4.2990
G01 X17.7886 Y4.3098
G01 X17.7475 Y4.4248
G01 X17.7426 Y4.4416
G01 X17.7144 Y4.5544
G01 X17.7112 Y4.5716
G01 X17.6950 Y4.6808
G01 X17.6936 Y4.6924
G01 X17.6927 Y4.7041
G01 X17.6873 Y4.8143
G01 X17.6870 Y4.8260
G01 X17.6873 Y4.8377
G01 X17.6927 Y4.9479
G01 X17.6936 Y4.9596
G01 X17.6950 Y4.9712
G01 X17.7112 Y5.0804
G01 X17.7144 Y5.0976
G01 X17.7426 Y5.2104
G01 X17.7475 Y5.2272
G01 X17.7886 Y5.3422
G01 X17.7931 Y5.3530
G01 X17.8039 Y5.3762
G01 X17.7738 Y5.4063
G00 Z1.0000
G00 X17.9052 Y4.2583
G01 F60.00
G01 Z-0.0400
G01 F170.00
G01 X17.8684 Y4.3365
G01 X17.8284 Y4.4475
G01 X17.8241 Y4.4620
G01 X17.7964 Y4.5728
G01 X17.7943 Y4.5839
G01 X17.7772 Y4.7006
G01 X17.7710 Y4.8260
G01 X17.7772 Y4.9514
G01 X17.7943 Y5.0681
G01 X17.7964 Y5.0792
G01 X17.8241 Y5.1900
G01 X17.8284 Y5.2045
G01 X17.8684 Y5.3155
G01 X17.9052 Y5.3937
G01 X17.7578 Y5.5411
G01 X17.7478 Y5.5372
G01 X17.6978 Y5.4435
G01 X17.6027 Y5.1633
G01 X17.5647 Y4.8744
G01 X17.5838 Y4.5837
G01 X17.6592 Y4.3024
G01 X17.7527 Y4.1129
G01 X17.7578 Y4.1109
G01 X17.9052 Y4.2583
G00 Z1.0000
G00 X18.4823 Y3.6812
G01 F60.00
G01 Z-0.0400
G01 F170.00
G01 X18.3349 Y3.5338
G01 X18.3388 Y3.5238
G01 X18.4325 Y3.4738
G01 X18.7127 Y3.3787
G01 X19.0016 Y3.3407
G01 X19.2923 Y3.3598
G01 X19.5736 Y3.4352
G01 X19.7631 Y3.5287
G01 X19.7651 Y3.5338
G01 X19.6177 Y3.6812
G01 X19.5395 Y3.6444
G01 X19.4285 Y3.6044
G01 X19.4140 Y3.6001
G01 X19.3032 Y3.5724
G01 X19.2921 Y3.5703
G01 X19.1754 Y3.5532
G01 X19.0500 Y3.5470
G01 X18.9246 Y3.5532
G01 X18.8079 Y3.5703
G01 X18.7968 Y3.5724
G01 X18.6860 Y3.6001
G01 X18.6715 Y3.6044
G01 X18.5605 Y3.6444
G01 X18.4823 Y3.6812
G00 Z1.0000
G00 X18.4697 Y3.5498
G01 F60.00
G01 Z-0.0400
G01 F170.00
G01 X18.7319 Y3.4609
G01 X19.0043 Y3.4251
G01 X19.2785 Y3.4431
G01 X19.5439 Y3.5142
G01 X19.6256 Y3.5545
G01 X19.6002 Y3.5799
G01 X19.5770 Y3.5691
G01 X19.5662 Y3.5646
G01 X19.4512 Y3.5235
G01 X19.4344 Y3.5186
G01 X19.3216 Y3.4904
G01 X19.3044 Y3.4872
G01 X19.1952 Y3.4710
G01 X19.1836 Y3.4696
G01 X19.1719 Y3.4687
G01 X19.0617 Y3.4633
G01 X19.0500 Y3.4630
G01 X19.0383 Y3.4633
G01 X18.9281 Y3.4687
G01 X18.9164 Y3.4696
G01 X18.9048 Y3.4710
G01 X18.7956 Y3.4872
G01 X18.7784 Y3.4904
G01 X18.6656 Y3.5186
G01 X18.6488 Y3.5235
G01 X18.5338 Y3.5646
G01 X18.5230 Y3.5691
G01 X18.4998 Y3.5799
G01 X18.4697 Y3.5498
G00 Z1.0000
G00 X19.6336 Y3.7841
G01 F60.00
G01 Z-0.0400
G01 F170.00
G01 X19.6118 Y3.7713
G01 X19.5073 Y3.7220
G01 X19.4002 Y3.6835
G01 X19.3936 Y3.6815
G01 X19.2831 Y3.6540
G01 X19.1705 Y3.6372
G01 X19.1637 Y3.6365
G01 X19.0500 Y3.6310
G01 X18.9363 Y3.6365
G01 X18.9295 Y3.6372
G01 X18.8169 Y3.6540
G01 X18.7064 Y3.6815
G01 X18.6998 Y3.6835
G01 X18.5927 Y3.7220
G01 X18.4882 Y3.7713
G01 X18.4664 Y3.7841
G01 X18.2363 Y3.5540
G01 X18.2722 Y3.4642
G01 X18.3989 Y3.3965
G01 X18.6936 Y3.2965
G01 X18.9988 Y3.2563
G01 X19.3060 Y3.2765
G01 X19.6034 Y3.3562
G01 X19.8292 Y3.4676
G01 X19.8637 Y3.5540
G01 X19.6336 Y3.7841
G00 Z1.0000
G00 X20.0919 Y5.4096
G01 F60.00
G01 Z-0.0400
G01 F170.00
G01 X20.1047 Y5.3878
G01 X20.1540 Y5.2833
G01 X20.1925 Y5.1762
G01 X20.1945 Y5.1696
G01 X20.2220 Y5.0591
G01 X20.2388 Y4.9465
G01 X20.2395 Y4.9397
G01 X20.2450 Y4.8260
G01 X20.2395 Y4.7123
G01 X20.2388 Y4.7055
G01 X20.2220 Y4.5929
G01 X20.1945 Y4.4824
G01 X20.1925 Y4.4758
G01 X20.1540 Y4.3687
G01 X20.1047 Y4.2642
G01 X20.0919 Y4.2424
G01 X20.3220 Y4.0123
G01 X20.4118 Y4.0482
G01 X20.4795 Y4.1749
G01 X20.5795 Y4.4696
G01 X20.6197 Y4.7748
G01 X20.5995 Y5.0820
G01 X20.5198 Y5.3794
G01 X20.4084 Y5.6052
G01 X20.3220 Y5.6397
G01 X20.0919 Y5.4096
G00 Z1.0000
G00 X20.1948 Y5.3937
G01 F60.00
G01 Z-0.0400
G01 F170.00
G01 X20.2316 Y5.3155
G01 X20.2716 Y5.2045
G01 X20.2759 Y5.1900
G01 X20.3036 Y5.0792
G01 X20.3057 Y5.0681
G01 X20.3228 Y4.9514
G01 X20.3290 Y4.8260
G01 X20.3228 Y4.7006
G01 X20.3057 Y4.5839
G01 X20.3036 Y4.5728
G01 X20.2759 Y4.4620
G01 X20.2716 Y4.4475
G01 X20.2316 Y4.3365
G01 X20.1948 Y4.2583
G01 X20.3422 Y4.1109
G01 X20.3522 Y4.1148
G01 X20.4022 Y4.2085
G01 X20.4973 Y4.4887
G01 X20.5353 Y4.7776
G01 X20.5162 Y5.0683
G01 X20.4408 Y5.3496
G01 X20.3473 Y5.5391
G01 X20.3422 Y5.5411
G01 X20.1948 Y5.3937
G00 Z1.0000
G00 X20.2961 Y5.3762
G01 F60.00
G01 Z-0.0400
G01 F170.00
G01 X20.3069 Y5.3530
G01 X20.3114 Y5.3422
G01 X20.3525 Y5.2272
G01 X20.3574 Y5.2104
G01 X20.3856 Y5.0976
G01 X20.3888 Y5.0804
G01 X20.4050 Y4.9712
G01 X20.4064 Y4.9596
G01 X20.4073 Y4.9479
G01 X20.4129 Y4.8318
G01 X20.4127 Y4.8143
G01 X20.4073 Y4.7041
G01 X20.4064 Y4.6924
G01 X20.4050 Y4.6808
G01 X20.3888 Y4.5716
G01 X20.3868 Y4.5601
G01 X20.3843 Y4.5487
G01 X20.3574 Y4.4416
G01 X20.3525 Y4.4248
G01 X20.3114 Y4.3098
G01 X20.3069 Y4.2990
G01 X20.2961 Y4.2758
G01 X20.3262 Y4.2457
G01 X20.4151 Y4.5079
G01 X20.4509 Y4.7803
G01 X20.4329 Y5.0545
G01 X20.3618 Y5.3199
G01 X20.3215 Y5.4016
G01 X20.2961 Y5.3762
G00 Z1.0000
G00 X19.6336 Y5.8679
G01 F60.00
G01 Z-0.0400
G01 F170.00
G01 X19.8637 Y6.0980
G01 X19.8278 Y6.1878
G01 X19.7011 Y6.2555
G01 X19.4064 Y6.3555
G01 X19.1012 Y6.3957
G01 X18.7940 Y6.3755
G01 X18.4966 Y6.2958
G01 X18.2708 Y6.1844
G01 X18.2363 Y6.0980
G01 X18.4664 Y5.8679
G01 X18.4882 Y5.8807
G01 X18.5927 Y5.9300
G01 X18.6998 Y5.9685
G01 X18.7064 Y5.9705
G01 X18.8169 Y5.9980
G01 X18.9295 Y6.0148
G01 X18.9363 Y6.0155
G01 X19.0500 Y6.0210
G01 X19.1637 Y6.0155
G01 X19.1705 Y6.0148
G01 X19.2831 Y5.9980
G01 X19.3936 Y5.9705
G01 X19.4002 Y5.9685
G01 X19.5073 Y5.9300
G01 X19.6118 Y5.8807
G01 X19.6336 Y5.8679
G00 Z1.0000
G00 X22.8538 Y5.4063
G01 F60.00
G01 Z-0.0400
G01 F170.00
G01 X22.7649 Y5.1441
G01 X22.7291 Y4.8717
G01 X22.7471 Y4.5975
G01 X22.8182 Y4.3321
G01 X22.8585 Y4.2504
G01 X22.8839 Y4.2758
G01 X22.8731 Y4.2990
G01 X22.8686 Y4.3098
G01 X22.8275 Y4.4248
G01 X22.8226 Y4.4416
G01 X22.7944 Y4.5544
G01 X22.7912 Y4.5716
G01 X22.7750 Y4.6808
G01 X22.7736 Y4.6924
G01 X22.7727 Y4.7041
G01 X22.7673 Y4.8143
G01 X22.7670 Y4.8260
G01 X22.7673 Y4.8377
G01 X22.7727 Y4.9479
G01 X22.7736 Y4.9596
G01 X22.7750 Y4.9712
G01 X22.7912 Y5.0804
G01 X22.7944 Y5.0976
G01 X22.8226 Y5.2104
G01 X22.8275 Y5.2272
G01 X22.8686 Y5.3422
G01 X22.8731 Y5.3530
G01 X22.8839 Y5.3762
G01 X22.8538 Y5.4063
G00 Z1.0000
G00 X23.0881 Y5.4096
G01 F60.00
G01 Z-0.0400
G01 F170.00
G01 X22.8580 Y5.6397
G01 X22.7682 Y5.6038
G01 X22.7005 Y5.4771
G01 X22.6005 Y5.1824
G01 X22.5603 Y4.8772
G01 X22.5805 Y4.5700
G01 X22.6602 Y4.2726
G01 X22.7716 Y4.0468
G01 X22.8580 Y4.0123
G01 X23.0881 Y4.2424
G01 X23.0753 Y4.2642
G01 X23.0260 Y4.3687
G01 X22.9875 Y4.4758
G01 X22.9855 Y4.4824
G01 X22.9580 Y4.5929
G01 X22.9412 Y4.7055
G01 X22.9405 Y4.7123
G01 X22.9350 Y4.8260
G01 X22.9405 Y4.9397
G01 X22.9412 Y4.9465
G01 X22.9580 Y5.0591
G01 X22.9855 Y5.1696
G01 X22.9875 Y5.1762
G01 X23.0260 Y5.2833
G01 X23.0753 Y5.3878
G01 X23.0881 Y5.4096
G00 Z1.0000
G00 X23.5623 Y5.9708
G01 F60.00
G01 Z-0.0400
G01 F170.00
G01 X23.6405 Y6.0076
G01 X23.7515 Y6.0476
G01 X23.7660 Y6.0519
G01 X23.8768 Y6.0796
G01 X23.8879 Y6.0817
G01 X24.0046 Y6.0988
G01 X24.1300 Y6.1050
G01 X24.2554 Y6.0988
G01 X24.3721 Y6.0817
G01 X24.3832 Y6.0796
G01 X24.4940 Y6.0519
G01 X24.5085 Y6.0476
G01 X24.6195 Y6.0076
G01 X24.6977 Y5.9708
G01 X24.8451 Y6.1182
G01 X24.8412 Y6.1282
G01 X24.7475 Y6.1782
G01 X24.4673 Y6.2733
G01 X24.1784 Y6.3113
G01 X23.8877 Y6.2922
G01 X23.6064 Y6.2168
G01 X23.4169 Y6.1233
G01 X23.4149 Y6.1182
G01 X23.5623 Y5.9708
G00 Z1.0000
G00 X23.5544 Y6.0975
G01 F60.00
G01 Z-0.0400
G01 F170.00
G01 X23.5798 Y6.0721
G01 X23.6030 Y6.0829
G01 X23.6138 Y6.0874
G01 X23.7288 Y6.1285
G01 X23.7456 Y6.1334
G01 X23.8584 Y6.1616
G01 X23.8756 Y6.1648
G01 X23.9848 Y6.1810
G01 X23.9964 Y6.1824
G01 X24.0081 Y6.1833
G01 X24.1183 Y6.1887
G01 X24.1300 Y6.1890
G01 X24.1417 Y6.1887
G01 X24.2519 Y6.1833
G01 X24.2636 Y6.1824
G01 X24.2752 Y6.1810
G01 X24.3844 Y6.1648
G01 X24.4016 Y6.1616
G01 X24.5144 Y6.1334
G01 X24.5312 Y6.1285
G01 X24.6462 Y6.0874
G01 X24.6570 Y6.0829
G01 X24.6802 Y6.0721
G01 X24.7103 Y6.1022
G01 X24.4481 Y6.1911
G01 X24.1757 Y6.2269
G01 X23.9015 Y6.2089
G01 X23.6361 Y6.1378
G01 X23.5544 Y6.0975
G00 Z1.0000
G00 X24.7136 Y5.8679
G01 F60.00
G01 Z-0.0400
G01 F170.00
G01 X24.9437 Y6.0980
G01 X24.9078 Y6.1878
G01 X24.7811 Y6.2555
G01 X24.4864 Y6.3555
G01 X24.1812 Y6.3957
G01 X23.8740 Y6.3755
G01 X23.5766 Y6.2958
G01 X23.3508 Y6.1844
G01 X23.3163 Y6.0980
G01 X23.5464 Y5.8679
G01 X23.5682 Y5.8807
G01 X23.6727 Y5.9300
G01 X23.7798 Y5.9685
G01 X23.7864 Y5.9705
G01 X23.8969 Y5.9980
G01 X24.0095 Y6.0148
G01 X24.0163 Y6.0155
G01 X24.1300 Y6.0210
G01 X24.2437 Y6.0155
G01 X24.2505 Y6.0148
G01 X24.3631 Y5.9980
G01 X24.4736 Y5.9705
G01 X24.4802 Y5.9685
G01 X24.5873 Y5.9300
G01 X24.6918 Y5.8807
G01 X24.7136 Y5.8679
G00 Z1.0000
G00 X25.1719 Y5.4096
G01 F60.00
G01 Z-0.0400
G01 F170.00
G01 X25.1847 Y5.3878
G01 X25.2340 Y5.2833
G01 X25.2725 Y5.1762
G01 X25.2745 Y5.1696
G01 X25.3020 Y5.0591
G01 X25.3188 Y4.9465
G01 X25.3195 Y4.9397
G01 X25.3250 Y4.8260
G01 X25.3195 Y4.7123
G01 X25.3188 Y4.7055
G01 X25.3020 Y4.5929
G01 X25.2745 Y4.4824
G01 X25.2725 Y4.4758
G01 X25.2340 Y4.3687
G01 X25.1847 Y4.2642
G01 X25.1719 Y4.2424
G01 X25.4020 Y4.0123
G01 X25.4918 Y4.0482
G01 X25.5595 Y4.1749
G01 X25.6595 Y4.4696
G01 X25.6997 Y4.7748
G01 X25.6795 Y5.0820
G01 X25.5998 Y5.3794
G01 X25.4884 Y5.6052
G01 X25.4020 Y5.6397
G01 X25.1719 Y5.4096
G00 Z1.0000
G00 X25.2748 Y5.3937
G01 F60.00
G01 Z-0.0400
G01 F170.00
G01 X25.3116 Y5.3155
G01 X25.3516 Y5.2045
G01 X25.3559 Y5.1900
G01 X25.3836 Y5.0792
G01 X25.3857 Y5.0681
G01 X25.4028 Y4.9514
G01 X25.4090 Y4.8260
G01 X25.4028 Y4.7006
G01 X25.3857 Y4.5839
G01 X25.3836 Y4.5728
G01 X25.3559 Y4.4620
G01 X25.3516 Y4.4475
G01 X25.3116 Y4.3365
G01 X25.2748 Y4.2583
G01 X25.4222 Y4.1109
G01 X25.4322 Y4.1148
G01 X25.4822 Y4.2085
G01 X25.5773 Y4.4887
G01 X25.6153 Y4.7776
G01 X25.5962 Y5.0683
G01 X25.5208 Y5.3496
G01 X25.4273 Y5.5391
G01 X25.4222 Y5.5411
G01 X25.2748 Y5.3937
G00 Z1.0000
G00 X25.3761 Y5.3762
G01 F60.00
G01 Z-0.0400
G01 F170.00
G01 X25.3869 Y5.3530
G01 X25.3914 Y5.3422
G01 X25.4325 Y5.2272
G01 X25.4374 Y5.2104
G01 X25.4656 Y5.0976
G01 X25.4688 Y5.0804
G01 X25.4850 Y4.9712
G01 X25.4864 Y4.9596
G01 X25.4873 Y4.9479
G01 X25.4929 Y4.8318
G01 X25.4927 Y4.8143
G01 X25.4873 Y4.7041
G01 X25.4864 Y4.6924
G01 X25.4850 Y4.6808
G01 X25.4688 Y4.5716
G01 X25.4668 Y4.5601
G01 X25.4643 Y4.5487
G01 X25.4374 Y4.4416
G01 X25.4325 Y4.4248
G01 X25.3914 Y4.3098
G01 X25.3869 Y4.2990
G01 X25.3761 Y4.2758
G01 X25.4062 Y4.2457
G01 X25.4951 Y4.5079
G01 X25.5309 Y4.7803
G01 X25.5129 Y5.0545
G01 X25.4418 Y5.3199
G01 X25.4015 Y5.4016
G01 X25.3761 Y5.3762
G00 Z1.0000
G00 X24.7136 Y3.7841
G01 F60.00
G01 Z-0.0400
G01 F170.00
G01 X24.6918 Y3.7713
G01 X24.5873 Y3.7220
G01 X24.4802 Y3.6835
G01 X24.4736 Y3.6815
G01 X24.3631 Y3.6540
G01 X24.2505 Y3.6372
G01 X24.2437 Y3.6365
G01 X24.1300 Y3.6310
G01 X24.0163 Y3.6365
G01 X24.0095 Y3.6372
G01 X23.8969 Y3.6540
G01 X23.7864 Y3.6815
G01 X23.7798 Y3.6835
G01 X23.6727 Y3.7220
G01 X23.5682 Y3.7713
G01 X23.5464 Y3.7841
G01 X23.3163 Y3.5540
G01 X23.3522 Y3.4642
G01 X23.4789 Y3.3965
G01 X23.7736 Y3.2965
G01 X24.0788 Y3.2563
G01 X24.3860 Y3.2765
G01 X24.6834 Y3.3562
G01 X24.9092 Y3.4676
G01 X24.9437 Y3.5540
G01 X24.7136 Y3.7841
G00 Z1.0000
G00 X23.5623 Y3.6812
G01 F60.00
G01 Z-0.0400
G01 F170.00
G01 X23.4149 Y3.5338
G01 X23.4188 Y3.5238
G01 X23.5125 Y3.4738
G01 X23.7927 Y3.3787
G01 X24.0816 Y3.3407
G01 X24.3723 Y3.3598
G01 X24.6536 Y3.4352
G01 X24.8431 Y3.5287
G01 X24.8451 Y3.5338
G01 X24.6977 Y3.6812
G01 X24.6195 Y3.6444
G01 X24.5085 Y3.6044
G01 X24.4940 Y3.6001
G01 X24.3832 Y3.5724
G01 X24.3721 Y3.5703
G01 X24.2554 Y3.5532
G01 X24.1300 Y3.5470
G01 X24.0046 Y3.5532
G01 X23.8879 Y3.5703
G01 X23.8768 Y3.5724
G01 X23.7660 Y3.6001
G01 X23.7515 Y3.6044
G01 X23.6405 Y3.6444
G01 X23.5623 Y3.6812
G00 Z1.0000
G00 X23.5497 Y3.5498
G01 F60.00
G01 Z-0.0400
G01 F170.00
G01 X23.8119 Y3.4609
G01 X24.0843 Y3.4251
G01 X24.3585 Y3.4431
G01 X24.6239 Y3.5142
G01 X24.7056 Y3.5545
G01 X24.6802 Y3.5799
G01 X24.6570 Y3.5691
G01 X24.6462 Y3.5646
G01 X24.5312 Y3.5235
G01 X24.5144 Y3.5186
G01 X24.4016 Y3.4904
G01 X24.3844 Y3.4872
G01 X24.2752 Y3.4710
G01 X24.2636 Y3.4696
G01 X24.2519 Y3.4687
G01 X24.1417 Y3.4633
G01 X24.1300 Y3.4630
G01 X24.1183 Y3.4633
G01 X24.0081 Y3.4687
G01 X23.9964 Y3.4696
G01 X23.9848 Y3.4710
G01 X23.8756 Y3.4872
G01 X23.8584 Y3.4904
G01 X23.7456 Y3.5186
G01 X23.7288 Y3.5235
G01 X23.6138 Y3.5646
G01 X23.6030 Y3.5691
G01 X23.5798 Y3.5799
G01 X23.5497 Y3.5498
G00 Z1.0000
G00 X22.9852 Y4.2583
G01 F60.00
G01 Z-0.0400
G01 F170.00
G01 X22.9484 Y4.3365
G01 X22.9084 Y4.4475
G01 X22.9041 Y4.4620
G01 X22.8764 Y4.5728
G01 X22.8743 Y4.5839
G01 X22.8572 Y4.7006
G01 X22.8510 Y4.8260
G01 X22.8572 Y4.9514
G01 X22.8743 Y5.0681
G01 X22.8764 Y5.0792
G01 X22.9041 Y5.1900
G01 X22.9084 Y5.2045
G01 X22.9484 Y5.3155
G01 X22.9852 Y5.3937
G01 X22.8378 Y5.5411
G01 X22.8278 Y5.5372
G01 X22.7778 Y5.4435
G01 X22.6827 Y5.1633
G01 X22.6447 Y4.8744
G01 X22.6638 Y4.5837
G01 X22.7392 Y4.3024
G01 X22.8327 Y4.1129
G01 X22.8378 Y4.1109
G01 X22.9852 Y4.2583
G00 Z1.0000
G00 X25.4073 Y7.3777
G01 F60.00
G01 Z-0.0400
G01 F170.00
G01 X25.4070 Y7.3660
G01 X25.4073 Y7.3543
G01 X25.4122 Y7.2539
G01 X25.4131 Y7.2422
G01 X25.4145 Y7.2306
G01 X25.4293 Y7.1311
G01 X25.4313 Y7.1196
G01 X25.4338 Y7.1082
G01 X25.4583 Y7.0106
G01 X25.4614 Y6.9994
G01 X25.4650 Y6.9883
G01 X25.4989 Y6.8936
G01 X25.5031 Y6.8827
G01 X25.5079 Y6.8720
G01 X25.5509 Y6.7811
G01 X25.5561 Y6.7706
G01 X25.5619 Y6.7605
G01 X25.6136 Y6.6742
G01 X25.6199 Y6.6643
G01 X25.6266 Y6.6548
G01 X25.6865 Y6.5740
G01 X25.6937 Y6.5648
G01 X25.7013 Y6.5559
G01 X25.7689 Y6.4814
G01 X25.7769 Y6.4729
G01 X25.7854 Y6.4649
G01 X25.8599 Y6.3973
G01 X25.8688 Y6.3897
G01 X25.8780 Y6.3825
G01 X25.9588 Y6.3226
G01 X25.9683 Y6.3159
G01 X25.9782 Y6.3096
G01 X26.0645 Y6.2579
G01 X26.0746 Y6.2521
G01 X26.0851 Y6.2469
G01 X26.1760 Y6.2039
G01 X26.1867 Y6.1991
G01 X26.1976 Y6.1949
G01 X26.2923 Y6.1610
G01 X26.3034 Y6.1574
G01 X26.3146 Y6.1543
G01 X26.4122 Y6.1298
G01 X26.4236 Y6.1273
G01 X26.4351 Y6.1253
G01 X26.5346 Y6.1105
G01 X26.5462 Y6.1091
G01 X26.5579 Y6.1082
G01 X26.6583 Y6.1033
G01 X26.6700 Y6.1030
G01 X26.6817 Y6.1033
G01 X26.7821 Y6.1082
G01 X26.7938 Y6.1091
G01 X26.8054 Y6.1105
G01 X26.9049 Y6.1253
G01 X26.9164 Y6.1273
G01 X26.9278 Y6.1298
G01 X27.0254 Y6.1543
G01 X27.0366 Y6.1574
G01 X27.0477 Y6.1610
G01 X27.1424 Y6.1949
G01 X27.1533 Y6.1991
G01 X27.1640 Y6.2039
G01 X27.2549 Y6.2469
G01 X27.2654 Y6.2521
G01 X27.2755 Y6.2579
G01 X27.3618 Y6.3096
G01 X27.3717 Y6.3159
G01 X27.3812 Y6.3226
G01 X27.4620 Y6.3825
G01 X27.4712 Y6.3897
G01 X27.4801 Y6.3973
G01 X27.5546 Y6.4649
G01 X27.5631 Y6.4729
G01 X27.5711 Y6.4814
G01 X27.6387 Y6.5559
G01 X27.6463 Y6.5648
G01 X27.6535 Y6.5740
G01 X27.7134 Y6.6548
G01 X27.7201 Y6.6643
G01 X27.7264 Y6.6742
G01 X27.7781 Y6.7605
G01 X27.7839 Y6.7706
G01 X27.7891 Y6.7811
G01 X27.8321 Y6.8720
G01 X27.8369 Y6.8827
G01 X27.8411 Y6.8936
G01 X27.8750 Y6.9883
G01 X27.8786 Y6.9994
G01 X27.8817 Y7.0106
G01 X27.9062 Y7.1082
G01 X27.9087 Y7.1196
G01 X27.9107 Y7.1311
G01 X27.9255 Y7.2306
G01 X27.9269 Y7.2422
G01 X27.9278 Y7.2539
G01 X27.9327 Y7.3543
G01 X27.9330 Y7.3660
G01 X27.9327 Y7.3777
G01 X27.9278 Y7.4781
G01 X27.9269 Y7.4898
G01 X27.9255 Y7.5014
G01 X27.9107 Y7.6009
G01 X27.9087 Y7.6124
G01 X27.9062 Y7.6238
G01 X27.8817 Y7.7214
G01 X27.8786 Y7.7326
G01 X27.8750 Y7.7437
G01 X27.8411 Y7.8384
G01 X27.8369 Y7.8493
G01 X27.8321 Y7.8600
G01 X27.7891 Y7.9509
G01 X27.7839 Y7.9614
G01 X27.7781 Y7.9715
G01 X27.7264 Y8.0578
G01 X27.7201 Y8.0677
G01 X27.7134 Y8.0772
G01 X27.6535 Y8.1580
G01 X27.6463 Y8.1672
G01 X27.6387 Y8.1761
G01 X27.5711 Y8.2506
G01 X27.5631 Y8.2591
G01 X27.5546 Y8.2671
G01 X27.4801 Y8.3347
G01 X27.4712 Y8.3423
G01 X27.4620 Y8.3495
G01 X27.3812 Y8.4094
G01 X27.3717 Y8.4161
G01 X27.3618 Y8.4224
G01 X27.2755 Y8.4741
G01 X27.2654 Y8.4799
G01 X27.2549 Y8.4851
G01 X27.1640 Y8.5281
G01 X27.1533 Y8.5329
G01 X27.1424 Y8.5371
G01 X27.0477 Y8.5710
G01 X27.0366 Y8.5746
G01 X27.0254 Y8.5777
G01 X26.9278 Y8.6022
G01 X26.9164 Y8.6047
G01 X26.9049 Y8.6067
G01 X26.8054 Y8.6215
G01 X26.7938 Y8.6229
G01 X26.7821 Y8.6238
G01 X26.6817 Y8.6287
G01 X26.6700 Y8.6290
G01 X26.6583 Y8.6287
G01 X26.5579 Y8.6238
G01 X26.5462 Y8.6229
G01 X26.5346 Y8.6215
G01 X26.4351 Y8.6067
G01 X26.4236 Y8.6047
G01 X26.4122 Y8.6022
G01 X26.3146 Y8.5777
G01 X26.3034 Y8.5746
G01 X26.2923 Y8.5710
G01 X26.1976 Y8.5371
G01 X26.1867 Y8.5329
G01 X26.1760 Y8.5281
G01 X26.0851 Y8.4851
G01 X26.0746 Y8.4799
G01 X26.0645 Y8.4741
G01 X25.9782 Y8.4224
G01 X25.9683 Y8.4161
G01 X25.9588 Y8.4094
G01 X25.8780 Y8.3495
G01 X25.8688 Y8.3423
G01 X25.8599 Y8.3347
G01 X25.7854 Y8.2671
G01 X25.7769 Y8.2591
G01 X25.7689 Y8.2506
G01 X25.7013 Y8.1761
G01 X25.6937 Y8.1672
G01 X25.6865 Y8.1580
G01 X25.6266 Y8.0772
G01 X25.6199 Y8.0677
G01 X25.6136 Y8.0578
G01 X25.5619 Y7.9715
G01 X25.5561 Y7.9614
G01 X25.5509 Y7.9509
G01 X25.5079 Y7.8600
G01 X25.5031 Y7.8493
G01 X25.4989 Y7.8384
G01 X25.4650 Y7.7437
G01 X25.4614 Y7.7326
G01 X25.4583 Y7.7214
G01 X25.4338 Y7.6238
G01 X25.4313 Y7.6124
G01 X25.4293 Y7.6009
G01 X25.4145 Y7.5014
G01 X25.4131 Y7.4898
G01 X25.4122 Y7.4781
G01 X25.4073 Y7.3777
G00 Z1.0000
G00 X25.4912 Y7.3736
G01 F60.00
G01 Z-0.0400
G01 F170.00
G01 X25.4912 Y7.3584
G01 X25.4967 Y7.2504
G01 X25.5137 Y7.1360
G01 X25.5418 Y7.0238
G01 X25.5807 Y6.9148
G01 X25.6302 Y6.8102
G01 X25.6897 Y6.7110
G01 X25.7586 Y6.6181
G01 X25.8363 Y6.5323
G01 X25.9221 Y6.4546
G01 X26.0150 Y6.3857
G01 X26.1142 Y6.3262
G01 X26.2188 Y6.2767
G01 X26.3278 Y6.2378
G01 X26.4400 Y6.2097
G01 X26.5544 Y6.1927
G01 X26.6700 Y6.1870
G01 X26.7856 Y6.1927
G01 X26.9000 Y6.2097
G01 X27.0122 Y6.2378
G01 X27.1212 Y6.2767
G01 X27.2258 Y6.3262
G01 X27.3250 Y6.3857
G01 X27.4179 Y6.4546
G01 X27.5037 Y6.5323
G01 X27.5814 Y6.6181
G01 X27.6503 Y6.7110
G01 X27.7098 Y6.8102
G01 X27.7593 Y6.9148
G01 X27.7982 Y7.0238
G01 X27.8263 Y7.1360
G01 X27.8433 Y7.2504
G01 X27.8490 Y7.3660
G01 X27.8433 Y7.4816
G01 X27.8263 Y7.5960
G01 X27.7982 Y7.7082
G01 X27.7593 Y7.8172
G01 X27.7098 Y7.9218
G01 X27.6503 Y8.0210
G01 X27.5814 Y8.1139
G01 X27.5037 Y8.1997
G01 X27.4179 Y8.2774
G01 X27.3250 Y8.3463
G01 X27.2258 Y8.4058
G01 X27.1212 Y8.4553
G01 X27.0122 Y8.4942
G01 X26.9000 Y8.5223
G01 X26.7856 Y8.5393
G01 X26.6700 Y8.5450
G01 X26.5544 Y8.5393
G01 X26.4400 Y8.5223
G01 X26.3278 Y8.4942
G01 X26.2188 Y8.4553
G01 X26.1142 Y8.4058
G01 X26.0150 Y8.3463
G01 X25.9221 Y8.2774
G01 X25.8363 Y8.1997
G01 X25.7586 Y8.1139
G01 X25.6897 Y8.0210
G01 X25.6302 Y7.9218
G01 X25.5807 Y7.8172
G01 X25.5418 Y7.7082
G01 X25.5137 Y7.5960
G01 X25.4967 Y7.4816
G01 X25.4912 Y7.3736
G00 Z1.0000
G00 X25.5751 Y7.3694
G01 F60.00
G01 Z-0.0400
G01 F170.00
G01 X25.5751 Y7.3626
G01 X25.5803 Y7.2587
G01 X25.5960 Y7.1524
G01 X25.6222 Y7.0481
G01 X25.6584 Y6.9470
G01 X25.7043 Y6.8498
G01 X25.7595 Y6.7577
G01 X25.8236 Y6.6713
G01 X25.8957 Y6.5917
G01 X25.9753 Y6.5196
G01 X26.0617 Y6.4555
G01 X26.1538 Y6.4003
G01 X26.2510 Y6.3544
G01 X26.3521 Y6.3182
G01 X26.4564 Y6.2920
G01 X26.5627 Y6.2763
G01 X26.6700 Y6.2710
G01 X26.7773 Y6.2763
G01 X26.8836 Y6.2920
G01 X26.9879 Y6.3182
G01 X27.0890 Y6.3544
G01 X27.1862 Y6.4003
G01 X27.2783 Y6.4555
G01 X27.3647 Y6.5196
G01 X27.4443 Y6.5917
G01 X27.5164 Y6.6713
G01 X27.5805 Y6.7577
G01 X27.6357 Y6.8498
G01 X27.6816 Y6.9470
G01 X27.7178 Y7.0481
G01 X27.7440 Y7.1524
G01 X27.7597 Y7.2587
G01 X27.7650 Y7.3660
G01 X27.7597 Y7.4733
G01 X27.7440 Y7.5796
G01 X27.7178 Y7.6839
G01 X27.6816 Y7.7850
G01 X27.6357 Y7.8822
G01 X27.5805 Y7.9743
G01 X27.5164 Y8.0607
G01 X27.4443 Y8.1403
G01 X27.3647 Y8.2124
G01 X27.2783 Y8.2765
G01 X27.1862 Y8.3317
G01 X27.0890 Y8.3776
G01 X26.9879 Y8.4138
G01 X26.8836 Y8.4400
G01 X26.7773 Y8.4557
G01 X26.6700 Y8.4610
G01 X26.5627 Y8.4557
G01 X26.4564 Y8.4400
G01 X26.3521 Y8.4138
G01 X26.2510 Y8.3776
G01 X26.1538 Y8.3317
G01 X26.0617 Y8.2765
G01 X25.9753 Y8.2124
G01 X25.8957 Y8.1403
G01 X25.8236 Y8.0607
G01 X25.7595 Y7.9743
G01 X25.7043 Y7.8822
G01 X25.6584 Y7.7850
G01 X25.6222 Y7.6839
G01 X25.5960 Y7.5796
G01 X25.5803 Y7.4733
G01 X25.5751 Y7.3694
G00 Z1.0000
G00 X25.8536 Y8.3779
G01 F60.00
G01 Z-0.0400
G01 F170.00
G01 X25.8445 Y8.3718
G01 X25.6642 Y8.1915
G01 X25.5224 Y7.9794
G01 X25.4248 Y7.7437
G01 X25.3751 Y7.4935
G01 X25.3751 Y7.2385
G01 X25.4248 Y6.9883
G01 X25.5224 Y6.7526
G01 X25.6642 Y6.5405
G01 X25.8445 Y6.3602
G01 X26.0566 Y6.2184
G01 X26.2923 Y6.1208
G01 X26.5425 Y6.0711
G01 X26.7975 Y6.0711
G01 X27.0477 Y6.1208
G01 X27.2834 Y6.2184
G01 X27.4955 Y6.3602
G01 X27.6758 Y6.5405
G01 X27.8176 Y6.7526
G01 X27.9152 Y6.9883
G01 X27.9649 Y7.2385
G01 X27.9649 Y7.4935
G01 X27.9152 Y7.7437
G01 X27.8176 Y7.9794
G01 X27.6758 Y8.1915
G01 X27.4955 Y8.3718
G01 X27.2834 Y8.5136
G01 X27.0477 Y8.6112
G01 X26.7975 Y8.6609
G01 X26.5425 Y8.6609
G01 X26.2923 Y8.6112
G01 X26.0566 Y8.5136
G01 X25.8536 Y8.3779
G00 Z1.0000
G00 X25.8070 Y8.4478
G01 F60.00
G01 Z-0.0400
G01 F170.00
G01 X25.7910 Y8.4371
G01 X25.5989 Y8.2450
G01 X25.4480 Y8.0192
G01 X25.3441 Y7.7682
G01 X25.2911 Y7.5018
G01 X25.2911 Y7.2302
G01 X25.3441 Y6.9638
G01 X25.4480 Y6.7128
G01 X25.5989 Y6.4870
G01 X25.7910 Y6.2949
G01 X26.0168 Y6.1440
G01 X26.2678 Y6.0401
G01 X26.5342 Y5.9871
G01 X26.8058 Y5.9871
G01 X27.0722 Y6.0401
G01 X27.3232 Y6.1440
G01 X27.5490 Y6.2949
G01 X27.7411 Y6.4870
G01 X27.8920 Y6.7128
G01 X27.9959 Y6.9638
G01 X28.0489 Y7.2302
G01 X28.0489 Y7.5018
G01 X27.9959 Y7.7682
G01 X27.8920 Y8.0192
G01 X27.7411 Y8.2450
G01 X27.5490 Y8.4371
G01 X27.3232 Y8.5880
G01 X27.0722 Y8.6919
G01 X26.8058 Y8.7449
G01 X26.5342 Y8.7449
G01 X26.2678 Y8.6919
G01 X26.0168 Y8.5880
G01 X25.8070 Y8.4478
G00 Z1.0000
G00 X25.7603 Y8.5176
G01 F60.00
G01 Z-0.0400
G01 F170.00
G01 X25.7374 Y8.5023
G01 X25.5337 Y8.2986
G01 X25.3736 Y8.0590
G01 X25.2633 Y7.7927
G01 X25.2071 Y7.5101
G01 X25.2071 Y7.2219
G01 X25.2633 Y6.9393
G01 X25.3736 Y6.6730
G01 X25.5337 Y6.4334
G01 X25.7374 Y6.2297
G01 X25.9770 Y6.0696
G01 X26.2433 Y5.9593
G01 X26.5259 Y5.9031
G01 X26.8141 Y5.9031
G01 X27.0967 Y5.9593
G01 X27.3630 Y6.0696
G01 X27.6026 Y6.2297
G01 X27.8063 Y6.4334
G01 X27.9664 Y6.6730
G01 X28.0767 Y6.9393
G01 X28.1329 Y7.2219
G01 X28.1329 Y7.5101
G01 X28.0767 Y7.7927
G01 X27.9664 Y8.0590
G01 X27.8063 Y8.2986
G01 X27.6026 Y8.5023
G01 X27.3630 Y8.6624
G01 X27.0967 Y8.7727
G01 X26.8141 Y8.8289
G01 X26.5259 Y8.8289
G01 X26.2433 Y8.7727
G01 X25.9770 Y8.6624
G01 X25.7603 Y8.5176
G00 Z1.0000
G00 X24.7136 Y8.8641
G01 F60.00
G01 Z-0.0400
G01 F170.00
G01 X24.6918 Y8.8513
G01 X24.5873 Y8.8020
G01 X24.4802 Y8.7635
G01 X24.4736 Y8.7615
G01 X24.3631 Y8.7340
G01 X24.2505 Y8.7172
G01 X24.2437 Y8.7165
G01 X24.1300 Y8.7110
G01 X24.0163 Y8.7165
G01 X24.0095 Y8.7172
G01 X23.8969 Y8.7340
G01 X23.7864 Y8.7615
G01 X23.7798 Y8.7635
G01 X23.6727 Y8.8020
G01 X23.5682 Y8.8513
G01 X23.5464 Y8.8641
G01 X23.3163 Y8.6340
G01 X23.3522 Y8.5442
G01 X23.4789 Y8.4765
G01 X23.7736 Y8.3765
G01 X24.0788 Y8.3363
G01 X24.3860 Y8.3565
G01 X24.6834 Y8.4362
G01 X24.9092 Y8.5476
G01 X24.9437 Y8.6340
G01 X24.7136 Y8.8641
G00 Z1.0000
G00 X23.5623 Y8.7612
G01 F60.00
G01 Z-0.0400
G01 F170.00
G01 X23.4149 Y8.6138
G01 X23.4188 Y8.6038
G01 X23.5125 Y8.5538
G01 X23.7927 Y8.4587
G01 X24.0816 Y8.4207
G01 X24.3723 Y8.4398
G01 X24.6536 Y8.5152
G01 X24.8431 Y8.6087
G01 X24.8451 Y8.6138
G01 X24.6977 Y8.7612
G01 X24.6195 Y8.7244
G01 X24.5085 Y8.6844
G01 X24.4940 Y8.6801
G01 X24.3832 Y8.6524
G01 X24.3721 Y8.6503
G01 X24.2554 Y8.6332
G01 X24.1300 Y8.6270
G01 X24.0046 Y8.6332
G01 X23.8879 Y8.6503
G01 X23.8768 Y8.6524
G01 X23.7660 Y8.6801
G01 X23.7515 Y8.6844
G01 X23.6405 Y8.7244
G01 X23.5623 Y8.7612
G00 Z1.0000
G00 X23.5497 Y8.6298
G01 F60.00
G01 Z-0.0400
G01 F170.00
G01 X23.8119 Y8.5409
G01 X24.0843 Y8.5051
G01 X24.3585 Y8.5231
G01 X24.6239 Y8.5942
G01 X24.7056 Y8.6345
G01 X24.6802 Y8.6599
G01 X24.6570 Y8.6491
G01 X24.6462 Y8.6446
G01 X24.5312 Y8.6035
G01 X24.5144 Y8.5986
G01 X24.4016 Y8.5704
G01 X24.3844 Y8.5672
G01 X24.2752 Y8.5510
G01 X24.2636 Y8.5496
G01 X24.2519 Y8.5487
G01 X24.1417 Y8.5433
G01 X24.1300 Y8.5430
G01 X24.1183 Y8.5433
G01 X24.0081 Y8.5487
G01 X23.9964 Y8.5496
G01 X23.9848 Y8.5510
G01 X23.8756 Y8.5672
G01 X23.8584 Y8.5704
G01 X23.7456 Y8.5986
G01 X23.7288 Y8.6035
G01 X23.6138 Y8.6446
G01 X23.6030 Y8.6491
G01 X23.5798 Y8.6599
G01 X23.5497 Y8.6298
G00 Z1.0000
G00 X22.9852 Y9.3383
G01 F60.00
G01 Z-0.0400
G01 F170.00
G01 X22.9484 Y9.4165
G01 X22.9084 Y9.5275
G01 X22.9041 Y9.5420
G01 X22.8764 Y9.6528
G01 X22.8743 Y9.6639
G01 X22.8572 Y9.7806
G01 X22.8510 Y9.9060
G01 X22.8572 Y10.0314
G01 X22.8743 Y10.1481
G01 X22.8764 Y10.1592
G01 X22.9041 Y10.2700
G01 X22.9084 Y10.2845
G01 X22.9484 Y10.3955
G01 X22.9852 Y10.4737
G01 X22.8378 Y10.6211
G01 X22.8278 Y10.6172
G01 X22.7778 Y10.5235
G01 X22.6827 Y10.2433
G01 X22.6447 Y9.9544
G01 X22.6638 Y9.6637
G01 X22.7392 Y9.3824
G01 X22.8327 Y9.1929
G01 X22.8378 Y9.1909
G01 X22.9852 Y9.3383
G00 Z1.0000
G00 X22.8538 Y10.4863
G01 F60.00
G01 Z-0.0400
G01 F170.00
G01 X22.7649 Y10.2241
G01 X22.7291 Y9.9517
G01 X22.7471 Y9.6775
G01 X22.8182 Y9.4121
G01 X22.8585 Y9.3304
G01 X22.8839 Y9.3558
G01 X22.8731 Y9.3790
G01 X22.8686 Y9.3898
G01 X22.8275 Y9.5048
G01 X22.8226 Y9.5216
G01 X22.7944 Y9.6344
G01 X22.7912 Y9.6516
G01 X22.7750 Y9.7608
G01 X22.7736 Y9.7724
G01 X22.7727 Y9.7841
G01 X22.7673 Y9.8943
G01 X22.7670 Y9.9060
G01 X22.7673 Y9.9177
G01 X22.7727 Y10.0279
G01 X22.7736 Y10.0396
G01 X22.7750 Y10.0512
G01 X22.7912 Y10.1604
G01 X22.7944 Y10.1776
G01 X22.8226 Y10.2904
G01 X22.8275 Y10.3072
G01 X22.8686 Y10.4222
G01 X22.8731 Y10.4330
G01 X22.8839 Y10.4562
G01 X22.8538 Y10.4863
G00 Z1.0000
G00 X23.0881 Y10.4896
G01 F60.00
G01 Z-0.0400
G01 F170.00
G01 X22.8580 Y10.7197
G01 X22.7682 Y10.6838
G01 X22.7005 Y10.5571
G01 X22.6005 Y10.2624
G01 X22.5603 Y9.9572
G01 X22.5805 Y9.6500
G01 X22.6602 Y9.3526
G01 X22.7716 Y9.1268
G01 X22.8580 Y9.0923
G01 X23.0881 Y9.3224
G01 X23.0753 Y9.3442
G01 X23.0260 Y9.4487
G01 X22.9875 Y9.5558
G01 X22.9855 Y9.5624
G01 X22.9580 Y9.6729
G01 X22.9412 Y9.7855
G01 X22.9405 Y9.7923
G01 X22.9350 Y9.9060
G01 X22.9405 Y10.0197
G01 X22.9412 Y10.0265
G01 X22.9580 Y10.1391
G01 X22.9855 Y10.2496
G01 X22.9875 Y10.2562
G01 X23.0260 Y10.3633
G01 X23.0753 Y10.4678
G01 X23.0881 Y10.4896
G00 Z1.0000
G00 X23.5623 Y11.0508
G01 F60.00
G01 Z-0.0400
G01 F170.00
G01 X23.6405 Y11.0876
G01 X23.7515 Y11.1276
G01 X23.7660 Y11.1319
G01 X23.8768 Y11.1596
G01 X23.8879 Y11.1617
G01 X24.0046 Y11.1788
G01 X24.1300 Y11.1850
G01 X24.2554 Y11.1788
G01 X24.3721 Y11.1617
G01 X24.3832 Y11.1596
G01 X24.4940 Y11.1319
G01 X24.5085 Y11.1276
G01 X24.6195 Y11.0876
G01 X24.6977 Y11.0508
G01 X24.8451 Y11.1982
G01 X24.8412 Y11.2082
G01 X24.7475 Y11.2582
G01 X24.4673 Y11.3533
G01 X24.1784 Y11.3913
G01 X23.8877 Y11.3722
G01 X23.6064 Y11.2968
G01 X23.4169 Y11.2033
G01 X23.4149 Y11.1982
G01 X23.5623 Y11.0508
G00 Z1.0000
G00 X23.5544 Y11.1775
G01 F60.00
G01 Z-0.0400
G01 F170.00
G01 X23.5798 Y11.1521
G01 X23.6030 Y11.1629
G01 X23.6138 Y11.1674
G01 X23.7288 Y11.2085
G01 X23.7456 Y11.2134
G01 X23.8584 Y11.2416
G01 X23.8756 Y11.2448
G01 X23.9848 Y11.2610
G01 X23.9964 Y11.2624
G01 X24.0081 Y11.2633
G01 X24.1183 Y11.2687
G01 X24.1300 Y11.2690
G01 X24.1417 Y11.2687
G01 X24.2519 Y11.2633
G01 X24.2636 Y11.2624
G01 X24.2752 Y11.2610
G01 X24.3844 Y11.2448
G01 X24.4016 Y11.2416
G01 X24.5144 Y11.2134
G01 X24.5312 Y11.2085
G01 X24.6462 Y11.1674
G01 X24.6570 Y11.1629
G01 X24.6802 Y11.1521
G01 X24.7103 Y11.1822
G01 X24.4481 Y11.2711
G01 X24.1757 Y11.3069
G01 X23.9015 Y11.2889
G01 X23.6361 Y11.2178
G01 X23.5544 Y11.1775
G00 Z1.0000
G00 X24.7136 Y10.9479
G01 F60.00
G01 Z-0.0400
G01 F170.00
G01 X24.9437 Y11.1780
G01 X24.9078 Y11.2678
G01 X24.7811 Y11.3355
G01 X24.4864 Y11.4355
G01 X24.1812 Y11.4757
G01 X23.8740 Y11.4555
G01 X23.5766 Y11.3758
G01 X23.3508 Y11.2644
G01 X23.3163 Y11.1780
G01 X23.5464 Y10.9479
G01 X23.5682 Y10.9607
G01 X23.6727 Y11.0100
G01 X23.7798 Y11.0485
G01 X23.7864 Y11.0505
G01 X23.8969 Y11.0780
G01 X24.0095 Y11.0948
G01 X24.0163 Y11.0955
G01 X24.1300 Y11.1010
G01 X24.2437 Y11.0955
G01 X24.2505 Y11.0948
G01 X24.3631 Y11.0780
G01 X24.4736 Y11.0505
G01 X24.4802 Y11.0485
G01 X24.5873 Y11.0100
G01 X24.6918 Y10.9607
G01 X24.7136 Y10.9479
G00 Z1.0000
G00 X25.1719 Y10.4896
G01 F60.00
G01 Z-0.0400
G01 F170.00
G01 X25.1847 Y10.4678
G01 X25.2340 Y10.3633
G01 X25.2725 Y10.2562
G01 X25.2745 Y10.2496
G01 X25.3020 Y10.1391
G01 X25.3188 Y10.0265
G01 X25.3195 Y10.0197
G01 X25.3250 Y9.9060
G01 X25.3195 Y9.7923
G01 X25.3188 Y9.7855
G01 X25.3020 Y9.6729
G01 X25.2745 Y9.5624
G01 X25.2725 Y9.5558
G01 X25.2340 Y9.4487
G01 X25.1847 Y9.3442
G01 X25.1719 Y9.3224
G01 X25.4020 Y9.0923
G01 X25.4918 Y9.1282
G01 X25.5595 Y9.2549
G01 X25.6595 Y9.5496
G01 X25.6997 Y9.8548
G01 X25.6795 Y10.1620
G01 X25.5998 Y10.4594
G01 X25.4884 Y10.6852
G01 X25.4020 Y10.7197
G01 X25.1719 Y10.4896
G00 Z1.0000
G00 X25.2748 Y10.4737
G01 F60.00
G01 Z-0.0400
G01 F170.00
G01 X25.3116 Y10.3955
G01 X25.3516 Y10.2845
G01 X25.3559 Y10.2700
G01 X25.3836 Y10.1592
G01 X25.3857 Y10.1481
G01 X25.4028 Y10.0314
G01 X25.4090 Y9.9060
G01 X25.4028 Y9.7806
G01 X25.3857 Y9.6639
G01 X25.3836 Y9.6528
G01 X25.3559 Y9.5420
G01 X25.3516 Y9.5275
G01 X25.3116 Y9.4165
G01 X25.2748 Y9.3383
G01 X25.4222 Y9.1909
G01 X25.4322 Y9.1948
G01 X25.4822 Y9.2885
G01 X25.5773 Y9.5687
G01 X25.6153 Y9.8576
G01 X25.5962 Y10.1483
G01 X25.5208 Y10.4296
G01 X25.4273 Y10.6191
G01 X25.4222 Y10.6211
G01 X25.2748 Y10.4737
G00 Z1.0000
G00 X25.3761 Y10.4562
G01 F60.00
G01 Z-0.0400
G01 F170.00
G01 X25.3869 Y10.4330
G01 X25.3914 Y10.4222
G01 X25.4325 Y10.3072
G01 X25.4374 Y10.2904
G01 X25.4656 Y10.1776
G01 X25.4688 Y10.1604
G01 X25.4850 Y10.0512
G01 X25.4864 Y10.0396
G01 X25.4873 Y10.0279
G01 X25.4929 Y9.9118
G01 X25.4927 Y9.8943
G01 X25.4873 Y9.7841
G01 X25.4864 Y9.7724
G01 X25.4850 Y9.7608
G01 X25.4688 Y9.6516
G01 X25.4668 Y9.6401
G01 X25.4643 Y9.6287
G01 X25.4374 Y9.5216
G01 X25.4325 Y9.5048
G01 X25.3914 Y9.3898
G01 X25.3869 Y9.3790
G01 X25.3761 Y9.3558
G01 X25.4062 Y9.3257
G01 X25.4951 Y9.5879
G01 X25.5309 Y9.8603
G01 X25.5129 Y10.1345
G01 X25.4418 Y10.3999
G01 X25.4015 Y10.4816
G01 X25.3761 Y10.4562
G00 Z1.0000
G00 X27.9338 Y10.4863
G01 F60.00
G01 Z-0.0400
G01 F170.00
G01 X27.8449 Y10.2241
G01 X27.8091 Y9.9517
G01 X27.8271 Y9.6775
G01 X27.8982 Y9.4121
G01 X27.9385 Y9.3304
G01 X27.9639 Y9.3558
G01 X27.9531 Y9.3790
G01 X27.9486 Y9.3898
G01 X27.9075 Y9.5048
G01 X27.9026 Y9.5216
G01 X27.8744 Y9.6344
G01 X27.8712 Y9.6516
G01 X27.8550 Y9.7608
G01 X27.8536 Y9.7724
G01 X27.8527 Y9.7841
G01 X27.8473 Y9.8943
G01 X27.8470 Y9.9060
G01 X27.8473 Y9.9177
G01 X27.8527 Y10.0279
G01 X27.8536 Y10.0396
G01 X27.8550 Y10.0512
G01 X27.8712 Y10.1604
G01 X27.8744 Y10.1776
G01 X27.9026 Y10.2904
G01 X27.9075 Y10.3072
G01 X27.9486 Y10.4222
G01 X27.9531 Y10.4330
G01 X27.9639 Y10.4562
G01 X27.9338 Y10.4863
G00 Z1.0000
G00 X28.1681 Y10.4896
G01 F60.00
G01 Z-0.0400
G01 F170.00
G01 X27.9380 Y10.7197
G01 X27.8482 Y10.6838
G01 X27.7805 Y10.5571
G01 X27.6805 Y10.2624
G01 X27.6403 Y9.9572
G01 X27.6605 Y9.6500
G01 X27.7402 Y9.3526
G01 X27.8516 Y9.1268
G01 X27.9380 Y9.0923
G01 X28.1681 Y9.3224
G01 X28.1553 Y9.3442
G01 X28.1060 Y9.4487
G01 X28.0675 Y9.5558
G01 X28.0655 Y9.5624
G01 X28.0380 Y9.6729
G01 X28.0212 Y9.7855
G01 X28.0205 Y9.7923
G01 X28.0150 Y9.9060
G01 X28.0205 Y10.0197
G01 X28.0212 Y10.0265
G01 X28.0380 Y10.1391
G01 X28.0655 Y10.2496
G01 X28.0675 Y10.2562
G01 X28.1060 Y10.3633
G01 X28.1553 Y10.4678
G01 X28.1681 Y10.4896
G00 Z1.0000
G00 X28.6423 Y11.0508
G01 F60.00
G01 Z-0.0400
G01 F170.00
G01 X28.7205 Y11.0876
G01 X28.8315 Y11.1276
G01 X28.8460 Y11.1319
G01 X28.9568 Y11.1596
G01 X28.9679 Y11.1617
G01 X29.0846 Y11.1788
G01 X29.2100 Y11.1850
G01 X29.3354 Y11.1788
G01 X29.4521 Y11.1617
G01 X29.4632 Y11.1596
G01 X29.5740 Y11.1319
G01 X29.5885 Y11.1276
G01 X29.6995 Y11.0876
G01 X29.7777 Y11.0508
G01 X29.9251 Y11.1982
G01 X29.9212 Y11.2082
G01 X29.8275 Y11.2582
G01 X29.5473 Y11.3533
G01 X29.2584 Y11.3913
G01 X28.9677 Y11.3722
G01 X28.6864 Y11.2968
G01 X28.4969 Y11.2033
G01 X28.4949 Y11.1982
G01 X28.6423 Y11.0508
G00 Z1.0000
G00 X28.6344 Y11.1775
G01 F60.00
G01 Z-0.0400
G01 F170.00
G01 X28.6598 Y11.1521
G01 X28.6830 Y11.1629
G01 X28.6938 Y11.1674
G01 X28.8088 Y11.2085
G01 X28.8256 Y11.2134
G01 X28.9384 Y11.2416
G01 X28.9556 Y11.2448
G01 X29.0648 Y11.2610
G01 X29.0764 Y11.2624
G01 X29.0881 Y11.2633
G01 X29.1983 Y11.2687
G01 X29.2100 Y11.2690
G01 X29.2217 Y11.2687
G01 X29.3319 Y11.2633
G01 X29.3436 Y11.2624
G01 X29.3552 Y11.2610
G01 X29.4644 Y11.2448
G01 X29.4816 Y11.2416
G01 X29.5944 Y11.2134
G01 X29.6112 Y11.2085
G01 X29.7262 Y11.1674
G01 X29.7370 Y11.1629
G01 X29.7602 Y11.1521
G01 X29.7903 Y11.1822
G01 X29.5281 Y11.2711
G01 X29.2557 Y11.3069
G01 X28.9815 Y11.2889
G01 X28.7161 Y11.2178
G01 X28.6344 Y11.1775
G00 Z1.0000
G00 X29.7936 Y10.9479
G01 F60.00
G01 Z-0.0400
G01 F170.00
G01 X30.0237 Y11.1780
G01 X29.9878 Y11.2678
G01 X29.8611 Y11.3355
G01 X29.5664 Y11.4355
G01 X29.2612 Y11.4757
G01 X28.9540 Y11.4555
G01 X28.6566 Y11.3758
G01 X28.4308 Y11.2644
G01 X28.3963 Y11.1780
G01 X28.6264 Y10.9479
G01 X28.6482 Y10.9607
G01 X28.7527 Y11.0100
G01 X28.8598 Y11.0485
G01 X28.8664 Y11.0505
G01 X28.9769 Y11.0780
G01 X29.0895 Y11.0948
G01 X29.0963 Y11.0955
G01 X29.2100 Y11.1010
G01 X29.3237 Y11.0955
G01 X29.3305 Y11.0948
G01 X29.4431 Y11.0780
G01 X29.5536 Y11.0505
G01 X29.5602 Y11.0485
G01 X29.6673 Y11.0100
G01 X29.7718 Y10.9607
G01 X29.7936 Y10.9479
G00 Z1.0000
G00 X30.2519 Y10.4896
G01 F60.00
G01 Z-0.0400
G01 F170.00
G01 X30.2647 Y10.4678
G01 X30.3140 Y10.3633
G01 X30.3525 Y10.2562
G01 X30.3545 Y10.2496
G01 X30.3820 Y10.1391
G01 X30.3988 Y10.0265
G01 X30.3995 Y10.0197
G01 X30.4050 Y9.9060
G01 X30.3995 Y9.7923
G01 X30.3988 Y9.7855
G01 X30.3820 Y9.6729
G01 X30.3545 Y9.5624
G01 X30.3525 Y9.5558
G01 X30.3140 Y9.4487
G01 X30.2647 Y9.3442
G01 X30.2519 Y9.3224
G01 X30.4820 Y9.0923
G01 X30.5718 Y9.1282
G01 X30.6395 Y9.2549
G01 X30.7395 Y9.5496
G01 X30.7797 Y9.8548
G01 X30.7595 Y10.1620
G01 X30.6798 Y10.4594
G01 X30.5684 Y10.6852
G01 X30.4820 Y10.7197
G01 X30.2519 Y10.4896
G00 Z1.0000
G00 X30.3548 Y10.4737
G01 F60.00
G01 Z-0.0400
G01 F170.00
G01 X30.3916 Y10.3955
G01 X30.4316 Y10.2845
G01 X30.4359 Y10.2700
G01 X30.4636 Y10.1592
G01 X30.4657 Y10.1481
G01 X30.4828 Y10.0314
G01 X30.4890 Y9.9060
G01 X30.4828 Y9.7806
G01 X30.4657 Y9.6639
G01 X30.4636 Y9.6528
G01 X30.4359 Y9.5420
G01 X30.4316 Y9.5275
G01 X30.3916 Y9.4165
G01 X30.3548 Y9.3383
G01 X30.5022 Y9.1909
G01 X30.5122 Y9.1948
G01 X30.5622 Y9.2885
G01 X30.6573 Y9.5687
G01 X30.6953 Y9.8576
G01 X30.6762 Y10.1483
G01 X30.6008 Y10.4296
G01 X30.5073 Y10.6191
G01 X30.5022 Y10.6211
G01 X30.3548 Y10.4737
G00 Z1.0000
G00 X30.4561 Y10.4562
G01 F60.00
G01 Z-0.0400
G01 F170.00
G01 X30.4669 Y10.4330
G01 X30.4714 Y10.4222
G01 X30.5125 Y10.3072
G01 X30.5174 Y10.2904
G01 X30.5456 Y10.1776
G01 X30.5488 Y10.1604
G01 X30.5650 Y10.0512
G01 X30.5664 Y10.0396
G01 X30.5673 Y10.0279
G01 X30.5729 Y9.9118
G01 X30.5727 Y9.8943
G01 X30.5673 Y9.7841
G01 X30.5664 Y9.7724
G01 X30.5650 Y9.7608
G01 X30.5488 Y9.6516
G01 X30.5468 Y9.6401
G01 X30.5443 Y9.6287
G01 X30.5174 Y9.5216
G01 X30.5125 Y9.5048
G01 X30.4714 Y9.3898
G01 X30.4669 Y9.3790
G01 X30.4561 Y9.3558
G01 X30.4862 Y9.3257
G01 X30.5751 Y9.5879
G01 X30.6109 Y9.8603
G01 X30.5929 Y10.1345
G01 X30.5218 Y10.3999
G01 X30.4815 Y10.4816
G01 X30.4561 Y10.4562
G00 Z1.0000
G00 X29.7936 Y8.8641
G01 F60.00
G01 Z-0.0400
G01 F170.00
G01 X29.7718 Y8.8513
G01 X29.6673 Y8.8020
G01 X29.5602 Y8.7635
G01 X29.5536 Y8.7615
G01 X29.4431 Y8.7340
G01 X29.3305 Y8.7172
G01 X29.3237 Y8.7165
G01 X29.2100 Y8.7110
G01 X29.0963 Y8.7165
G01 X29.0895 Y8.7172
G01 X28.9769 Y8.7340
G01 X28.8664 Y8.7615
G01 X28.8598 Y8.7635
G01 X28.7527 Y8.8020
G01 X28.6482 Y8.8513
G01 X28.6264 Y8.8641
G01 X28.3963 Y8.6340
G01 X28.4322 Y8.5442
G01 X28.5589 Y8.4765
G01 X28.8536 Y8.3765
G01 X29.1588 Y8.3363
G01 X29.4660 Y8.3565
G01 X29.7634 Y8.4362
G01 X29.9892 Y8.5476
G01 X30.0237 Y8.6340
G01 X29.7936 Y8.8641
G00 Z1.0000
G00 X28.6423 Y8.7612
G01 F60.00
G01 Z-0.0400
G01 F170.00
G01 X28.4949 Y8.6138
G01 X28.4988 Y8.6038
G01 X28.5925 Y8.5538
G01 X28.8727 Y8.4587
G01 X29.1616 Y8.4207
G01 X29.4523 Y8.4398
G01 X29.7336 Y8.5152
G01 X29.9231 Y8.6087
G01 X29.9251 Y8.6138
G01 X29.7777 Y8.7612
G01 X29.6995 Y8.7244
G01 X29.5885 Y8.6844
G01 X29.5740 Y8.6801
G01 X29.4632 Y8.6524
G01 X29.4521 Y8.6503
G01 X29.3354 Y8.6332
G01 X29.2100 Y8.6270
G01 X29.0846 Y8.6332
G01 X28.9679 Y8.6503
G01 X28.9568 Y8.6524
G01 X28.8460 Y8.6801
G01 X28.8315 Y8.6844
G01 X28.7205 Y8.7244
G01 X28.6423 Y8.7612
G00 Z1.0000
G00 X28.6297 Y8.6298
G01 F60.00
G01 Z-0.0400
G01 F170.00
G01 X28.8919 Y8.5409
G01 X29.1643 Y8.5051
G01 X29.4385 Y8.5231
G01 X29.7039 Y8.5942
G01 X29.7856 Y8.6345
G01 X29.7602 Y8.6599
G01 X29.7370 Y8.6491
G01 X29.7262 Y8.6446
G01 X29.6112 Y8.6035
G01 X29.5944 Y8.5986
G01 X29.4816 Y8.5704
G01 X29.4644 Y8.5672
G01 X29.3552 Y8.5510
G01 X29.3436 Y8.5496
G01 X29.3319 Y8.5487
G01 X29.2217 Y8.5433
G01 X29.2100 Y8.5430
G01 X29.1983 Y8.5433
G01 X29.0881 Y8.5487
G01 X29.0764 Y8.5496
G01 X29.0648 Y8.5510
G01 X28.9556 Y8.5672
G01 X28.9384 Y8.5704
G01 X28.8256 Y8.5986
G01 X28.8088 Y8.6035
G01 X28.6938 Y8.6446
G01 X28.6830 Y8.6491
G01 X28.6598 Y8.6599
G01 X28.6297 Y8.6298
G00 Z1.0000
G00 X28.0652 Y9.3383
G01 F60.00
G01 Z-0.0400
G01 F170.00
G01 X28.0284 Y9.4165
G01 X27.9884 Y9.5275
G01 X27.9841 Y9.5420
G01 X27.9564 Y9.6528
G01 X27.9543 Y9.6639
G01 X27.9372 Y9.7806
G01 X27.9310 Y9.9060
G01 X27.9372 Y10.0314
G01 X27.9543 Y10.1481
G01 X27.9564 Y10.1592
G01 X27.9841 Y10.2700
G01 X27.9884 Y10.2845
G01 X28.0284 Y10.3955
G01 X28.0652 Y10.4737
G01 X27.9178 Y10.6211
G01 X27.9078 Y10.6172
G01 X27.8578 Y10.5235
G01 X27.7627 Y10.2433
G01 X27.7247 Y9.9544
G01 X27.7438 Y9.6637
G01 X27.8192 Y9.3824
G01 X27.9127 Y9.1929
G01 X27.9178 Y9.1909
G01 X28.0652 Y9.3383
G00 Z1.0000
G00 X28.6344 Y6.0975
G01 F60.00
G01 Z-0.0400
G01 F170.00
G01 X28.6598 Y6.0721
G01 X28.6830 Y6.0829
G01 X28.6938 Y6.0874
G01 X28.8088 Y6.1285
G01 X28.8256 Y6.1334
G01 X28.9384 Y6.1616
G01 X28.9556 Y6.1648
G01 X29.0648 Y6.1810
G01 X29.0764 Y6.1824
G01 X29.0881 Y6.1833
G01 X29.1983 Y6.1887
G01 X29.2100 Y6.1890
G01 X29.2217 Y6.1887
G01 X29.3319 Y6.1833
G01 X29.3436 Y6.1824
G01 X29.3552 Y6.1810
G01 X29.4644 Y6.1648
G01 X29.4816 Y6.1616
G01 X29.5944 Y6.1334
G01 X29.6112 Y6.1285
G01 X29.7262 Y6.0874
G01 X29.7370 Y6.0829
G01 X29.7602 Y6.0721
G01 X29.7903 Y6.1022
G01 X29.5281 Y6.1911
G01 X29.2557 Y6.2269
G01 X28.9815 Y6.2089
G01 X28.7161 Y6.1378
G01 X28.6344 Y6.0975
G00 Z1.0000
G00 X28.6423 Y5.9708
G01 F60.00
G01 Z-0.0400
G01 F170.00
G01 X28.7205 Y6.0076
G01 X28.8315 Y6.0476
G01 X28.8460 Y6.0519
G01 X28.9568 Y6.0796
G01 X28.9679 Y6.0817
G01 X29.0846 Y6.0988
G01 X29.2100 Y6.1050
G01 X29.3354 Y6.0988
G01 X29.4521 Y6.0817
G01 X29.4632 Y6.0796
G01 X29.5740 Y6.0519
G01 X29.5885 Y6.0476
G01 X29.6995 Y6.0076
G01 X29.7777 Y5.9708
G01 X29.9251 Y6.1182
G01 X29.9212 Y6.1282
G01 X29.8275 Y6.1782
G01 X29.5473 Y6.2733
G01 X29.2584 Y6.3113
G01 X28.9677 Y6.2922
G01 X28.6864 Y6.2168
G01 X28.4969 Y6.1233
G01 X28.4949 Y6.1182
G01 X28.6423 Y5.9708
G00 Z1.0000
G00 X28.1681 Y5.4096
G01 F60.00
G01 Z-0.0400
G01 F170.00
G01 X27.9380 Y5.6397
G01 X27.8482 Y5.6038
G01 X27.7805 Y5.4771
G01 X27.6805 Y5.1824
G01 X27.6403 Y4.8772
G01 X27.6605 Y4.5700
G01 X27.7402 Y4.2726
G01 X27.8516 Y4.0468
G01 X27.9380 Y4.0123
G01 X28.1681 Y4.2424
G01 X28.1553 Y4.2642
G01 X28.1060 Y4.3687
G01 X28.0675 Y4.4758
G01 X28.0655 Y4.4824
G01 X28.0380 Y4.5929
G01 X28.0212 Y4.7055
G01 X28.0205 Y4.7123
G01 X28.0150 Y4.8260
G01 X28.0205 Y4.9397
G01 X28.0212 Y4.9465
G01 X28.0380 Y5.0591
G01 X28.0655 Y5.1696
G01 X28.0675 Y5.1762
G01 X28.1060 Y5.2833
G01 X28.1553 Y5.3878
G01 X28.1681 Y5.4096
G00 Z1.0000
G00 X27.9338 Y5.4063
G01 F60.00
G01 Z-0.0400
G01 F170.00
G01 X27.8449 Y5.1441
G01 X27.8091 Y4.8717
G01 X27.8271 Y4.5975
G01 X27.8982 Y4.3321
G01 X27.9385 Y4.2504
G01 X27.9639 Y4.2758
G01 X27.9531 Y4.2990
G01 X27.9486 Y4.3098
G01 X27.9075 Y4.4248
G01 X27.9026 Y4.4416
G01 X27.8744 Y4.5544
G01 X27.8712 Y4.5716
G01 X27.8550 Y4.6808
G01 X27.8536 Y4.6924
G01 X27.8527 Y4.7041
G01 X27.8473 Y4.8143
G01 X27.8470 Y4.8260
G01 X27.8473 Y4.8377
G01 X27.8527 Y4.9479
G01 X27.8536 Y4.9596
G01 X27.8550 Y4.9712
G01 X27.8712 Y5.0804
G01 X27.8744 Y5.0976
G01 X27.9026 Y5.2104
G01 X27.9075 Y5.2272
G01 X27.9486 Y5.3422
G01 X27.9531 Y5.3530
G01 X27.9639 Y5.3762
G01 X27.9338 Y5.4063
G00 Z1.0000
G00 X28.0652 Y4.2583
G01 F60.00
G01 Z-0.0400
G01 F170.00
G01 X28.0284 Y4.3365
G01 X27.9884 Y4.4475
G01 X27.9841 Y4.4620
G01 X27.9564 Y4.5728
G01 X27.9543 Y4.5839
G01 X27.9372 Y4.7006
G01 X27.9310 Y4.8260
G01 X27.9372 Y4.9514
G01 X27.9543 Y5.0681
G01 X27.9564 Y5.0792
G01 X27.9841 Y5.1900
G01 X27.9884 Y5.2045
G01 X28.0284 Y5.3155
G01 X28.0652 Y5.3937
G01 X27.9178 Y5.5411
G01 X27.9078 Y5.5372
G01 X27.8578 Y5.4435
G01 X27.7627 Y5.1633
G01 X27.7247 Y4.8744
G01 X27.7438 Y4.5837
G01 X27.8192 Y4.3024
G01 X27.9127 Y4.1129
G01 X27.9178 Y4.1109
G01 X28.0652 Y4.2583
G00 Z1.0000
G00 X28.6423 Y3.6812
G01 F60.00
G01 Z-0.0400
G01 F170.00
G01 X28.4949 Y3.5338
G01 X28.4988 Y3.5238
G01 X28.5925 Y3.4738
G01 X28.8727 Y3.3787
G01 X29.1616 Y3.3407
G01 X29.4523 Y3.3598
G01 X29.7336 Y3.4352
G01 X29.9231 Y3.5287
G01 X29.9251 Y3.5338
G01 X29.7777 Y3.6812
G01 X29.6995 Y3.6444
G01 X29.5885 Y3.6044
G01 X29.5740 Y3.6001
G01 X29.4632 Y3.5724
G01 X29.4521 Y3.5703
G01 X29.3354 Y3.5532
G01 X29.2100 Y3.5470
G01 X29.0846 Y3.5532
G01 X28.9679 Y3.5703
G01 X28.9568 Y3.5724
G01 X28.8460 Y3.6001
G01 X28.8315 Y3.6044
G01 X28.7205 Y3.6444
G01 X28.6423 Y3.6812
G00 Z1.0000
G00 X28.6297 Y3.5498
G01 F60.00
G01 Z-0.0400
G01 F170.00
G01 X28.8919 Y3.4609
G01 X29.1643 Y3.4251
G01 X29.4385 Y3.4431
G01 X29.7039 Y3.5142
G01 X29.7856 Y3.5545
G01 X29.7602 Y3.5799
G01 X29.7370 Y3.5691
G01 X29.7262 Y3.5646
G01 X29.6112 Y3.5235
G01 X29.5944 Y3.5186
G01 X29.4816 Y3.4904
G01 X29.4644 Y3.4872
G01 X29.3552 Y3.4710
G01 X29.3436 Y3.4696
G01 X29.3319 Y3.4687
G01 X29.2217 Y3.4633
G01 X29.2100 Y3.4630
G01 X29.1983 Y3.4633
G01 X29.0881 Y3.4687
G01 X29.0764 Y3.4696
G01 X29.0648 Y3.4710
G01 X28.9556 Y3.4872
G01 X28.9384 Y3.4904
G01 X28.8256 Y3.5186
G01 X28.8088 Y3.5235
G01 X28.6938 Y3.5646
G01 X28.6830 Y3.5691
G01 X28.6598 Y3.5799
G01 X28.6297 Y3.5498
G00 Z1.0000
G00 X29.7936 Y3.7841
G01 F60.00
G01 Z-0.0400
G01 F170.00
G01 X29.7718 Y3.7713
G01 X29.6673 Y3.7220
G01 X29.5602 Y3.6835
G01 X29.5536 Y3.6815
G01 X29.4431 Y3.6540
G01 X29.3305 Y3.6372
G01 X29.3237 Y3.6365
G01 X29.2100 Y3.6310
G01 X29.0963 Y3.6365
G01 X29.0895 Y3.6372
G01 X28.9769 Y3.6540
G01 X28.8664 Y3.6815
G01 X28.8598 Y3.6835
G01 X28.7527 Y3.7220
G01 X28.6482 Y3.7713
G01 X28.6264 Y3.7841
G01 X28.3963 Y3.5540
G01 X28.4322 Y3.4642
G01 X28.5589 Y3.3965
G01 X28.8536 Y3.2965
G01 X29.1588 Y3.2563
G01 X29.4660 Y3.2765
G01 X29.7634 Y3.3562
G01 X29.9892 Y3.4676
G01 X30.0237 Y3.5540
G01 X29.7936 Y3.7841
G00 Z1.0000
G00 X30.2519 Y5.4096
G01 F60.00
G01 Z-0.0400
G01 F170.00
G01 X30.2647 Y5.3878
G01 X30.3140 Y5.2833
G01 X30.3525 Y5.1762
G01 X30.3545 Y5.1696
G01 X30.3820 Y5.0591
G01 X30.3988 Y4.9465
G01 X30.3995 Y4.9397
G01 X30.4050 Y4.8260
G01 X30.3995 Y4.7123
G01 X30.3988 Y4.7055
G01 X30.3820 Y4.5929
G01 X30.3545 Y4.4824
G01 X30.3525 Y4.4758
G01 X30.3140 Y4.3687
G01 X30.2647 Y4.2642
G01 X30.2519 Y4.2424
G01 X30.4820 Y4.0123
G01 X30.5718 Y4.0482
G01 X30.6395 Y4.1749
G01 X30.7395 Y4.4696
G01 X30.7797 Y4.7748
G01 X30.7595 Y5.0820
G01 X30.6798 Y5.3794
G01 X30.5684 Y5.6052
G01 X30.4820 Y5.6397
G01 X30.2519 Y5.4096
G00 Z1.0000
G00 X30.3548 Y5.3937
G01 F60.00
G01 Z-0.0400
G01 F170.00
G01 X30.3916 Y5.3155
G01 X30.4316 Y5.2045
G01 X30.4359 Y5.1900
G01 X30.4636 Y5.0792
G01 X30.4657 Y5.0681
G01 X30.4828 Y4.9514
G01 X30.4890 Y4.8260
G01 X30.4828 Y4.7006
G01 X30.4657 Y4.5839
G01 X30.4636 Y4.5728
G01 X30.4359 Y4.4620
G01 X30.4316 Y4.4475
G01 X30.3916 Y4.3365
G01 X30.3548 Y4.2583
G01 X30.5022 Y4.1109
G01 X30.5122 Y4.1148
G01 X30.5622 Y4.2085
G01 X30.6573 Y4.4887
G01 X30.6953 Y4.7776
G01 X30.6762 Y5.0683
G01 X30.6008 Y5.3496
G01 X30.5073 Y5.5391
G01 X30.5022 Y5.5411
G01 X30.3548 Y5.3937
G00 Z1.0000
G00 X30.4561 Y5.3762
G01 F60.00
G01 Z-0.0400
G01 F170.00
G01 X30.4669 Y5.3530
G01 X30.4714 Y5.3422
G01 X30.5125 Y5.2272
G01 X30.5174 Y5.2104
G01 X30.5456 Y5.0976
G01 X30.5488 Y5.0804
G01 X30.5650 Y4.9712
G01 X30.5664 Y4.9596
G01 X30.5673 Y4.9479
G01 X30.5729 Y4.8318
G01 X30.5727 Y4.8143
G01 X30.5673 Y4.7041
G01 X30.5664 Y4.6924
G01 X30.5650 Y4.6808
G01 X30.5488 Y4.5716
G01 X30.5468 Y4.5601
G01 X30.5443 Y4.5487
G01 X30.5174 Y4.4416
G01 X30.5125 Y4.4248
G01 X30.4714 Y4.3098
G01 X30.4669 Y4.2990
G01 X30.4561 Y4.2758
G01 X30.4862 Y4.2457
G01 X30.5751 Y4.5079
G01 X30.6109 Y4.7803
G01 X30.5929 Y5.0545
G01 X30.5218 Y5.3199
G01 X30.4815 Y5.4016
G01 X30.4561 Y5.3762
G00 Z1.0000
G00 X29.7936 Y5.8679
G01 F60.00
G01 Z-0.0400
G01 F170.00
G01 X30.0237 Y6.0980
G01 X29.9878 Y6.1878
G01 X29.8611 Y6.2555
G01 X29.5664 Y6.3555
G01 X29.2612 Y6.3957
G01 X28.9540 Y6.3755
G01 X28.6566 Y6.2958
G01 X28.4308 Y6.1844
G01 X28.3963 Y6.0980
G01 X28.6264 Y5.8679
G01 X28.6482 Y5.8807
G01 X28.7527 Y5.9300
G01 X28.8598 Y5.9685
G01 X28.8664 Y5.9705
G01 X28.9769 Y5.9980
G01 X29.0895 Y6.0148
G01 X29.0963 Y6.0155
G01 X29.2100 Y6.0210
G01 X29.3237 Y6.0155
G01 X29.3305 Y6.0148
G01 X29.4431 Y5.9980
G01 X29.5536 Y5.9705
G01 X29.5602 Y5.9685
G01 X29.6673 Y5.9300
G01 X29.7718 Y5.8807
G01 X29.7936 Y5.8679
G00 Z1.0000
G00 X32.7360 Y4.7427
G01 F60.00
G01 Z-0.0400
G01 F170.00
G01 X32.7203 Y4.6232
G01 X32.7405 Y4.3160
G01 X32.8202 Y4.0186
G01 X32.9316 Y3.7928
G01 X33.0180 Y3.7583
G01 X33.2481 Y3.9884
G01 X33.2353 Y4.0102
G01 X33.1860 Y4.1147
G01 X33.1475 Y4.2218
G01 X33.1455 Y4.2284
G01 X33.1180 Y4.3389
G01 X33.1012 Y4.4515
G01 X33.1005 Y4.4583
G01 X33.0950 Y4.5720
G01 X33.1005 Y4.6857
G01 X33.1012 Y4.6925
G01 X33.1180 Y4.8051
G01 X33.1455 Y4.9156
G01 X33.1475 Y4.9222
G01 X33.1860 Y5.0293
G01 X33.2353 Y5.1338
G01 X33.2481 Y5.1556
G01 X33.0180 Y5.3857
G01 X32.9282 Y5.3498
G01 X32.8605 Y5.2231
G01 X32.7605 Y4.9284
G01 X32.7360 Y4.7427
G00 Z1.0000
G00 X32.8193 Y4.7317
G01 F60.00
G01 Z-0.0400
G01 F170.00
G01 X32.8047 Y4.6204
G01 X32.8238 Y4.3297
G01 X32.8992 Y4.0484
G01 X32.9927 Y3.8589
G01 X32.9978 Y3.8569
G01 X33.1452 Y4.0043
G01 X33.1084 Y4.0825
G01 X33.0684 Y4.1935
G01 X33.0641 Y4.2080
G01 X33.0364 Y4.3188
G01 X33.0343 Y4.3299
G01 X33.0172 Y4.4466
G01 X33.0110 Y4.5720
G01 X33.0172 Y4.6974
G01 X33.0343 Y4.8141
G01 X33.0364 Y4.8252
G01 X33.0641 Y4.9360
G01 X33.0684 Y4.9505
G01 X33.1084 Y5.0615
G01 X33.1452 Y5.1397
G01 X32.9978 Y5.2871
G01 X32.9878 Y5.2832
G01 X32.9378 Y5.1895
G01 X32.8427 Y4.9093
G01 X32.8193 Y4.7317
G00 Z1.0000
G00 X32.9026 Y4.7207
G01 F60.00
G01 Z-0.0400
G01 F170.00
G01 X32.8891 Y4.6177
G01 X32.9071 Y4.3435
G01 X32.9782 Y4.0781
G01 X33.0185 Y3.9964
G01 X33.0439 Y4.0218
G01 X33.0331 Y4.0450
G01 X33.0286 Y4.0558
G01 X32.9875 Y4.1708
G01 X32.9826 Y4.1876
G01 X32.9544 Y4.3004
G01 X32.9512 Y4.3176
G01 X32.9350 Y4.4268
G01 X32.9336 Y4.4384
G01 X32.9327 Y4.4501
G01 X32.9273 Y4.5603
G01 X32.9270 Y4.5720
G01 X32.9273 Y4.5837
G01 X32.9327 Y4.6939
G01 X32.9336 Y4.7056
G01 X32.9350 Y4.7172
G01 X32.9512 Y4.8264
G01 X32.9544 Y4.8436
G01 X32.9826 Y4.9564
G01 X32.9875 Y4.9732
G01 X33.0286 Y5.0882
G01 X33.0331 Y5.0990
G01 X33.0439 Y5.1222
G01 X33.0138 Y5.1523
G01 X32.9249 Y4.8901
G01 X32.9026 Y4.7207
G00 Z1.0000
G00 X33.7223 Y5.7168
G01 F60.00
G01 Z-0.0400
G01 F170.00
G01 X33.8005 Y5.7536
G01 X33.9115 Y5.7936
G01 X33.9260 Y5.7979
G01 X34.0368 Y5.8256
G01 X34.0479 Y5.8277
G01 X34.1646 Y5.8448
G01 X34.2900 Y5.8510
G01 X34.4154 Y5.8448
G01 X34.5321 Y5.8277
G01 X34.5432 Y5.8256
G01 X34.6540 Y5.7979
G01 X34.6685 Y5.7936
G01 X34.7795 Y5.7536
G01 X34.8577 Y5.7168
G01 X35.0051 Y5.8642
G01 X35.0012 Y5.8742
G01 X34.9075 Y5.9242
G01 X34.6273 Y6.0193
G01 X34.3384 Y6.0573
G01 X34.0477 Y6.0382
G01 X33.7664 Y5.9628
G01 X33.5769 Y5.8693
G01 X33.5749 Y5.8642
G01 X33.7223 Y5.7168
G00 Z1.0000
G00 X33.7144 Y5.8435
G01 F60.00
G01 Z-0.0400
G01 F170.00
G01 X33.7398 Y5.8181
G01 X33.7630 Y5.8289
G01 X33.7738 Y5.8334
G01 X33.8888 Y5.8745
G01 X33.9056 Y5.8794
G01 X34.0184 Y5.9076
G01 X34.0356 Y5.9108
G01 X34.1448 Y5.9270
G01 X34.1564 Y5.9284
G01 X34.1681 Y5.9293
G01 X34.2783 Y5.9347
G01 X34.2900 Y5.9350
G01 X34.3017 Y5.9347
G01 X34.4119 Y5.9293
G01 X34.4236 Y5.9284
G01 X34.4352 Y5.9270
G01 X34.5444 Y5.9108
G01 X34.5616 Y5.9076
G01 X34.6744 Y5.8794
G01 X34.6912 Y5.8745
G01 X34.8062 Y5.8334
G01 X34.8170 Y5.8289
G01 X34.8402 Y5.8181
G01 X34.8703 Y5.8482
G01 X34.6081 Y5.9371
G01 X34.3357 Y5.9729
G01 X34.0615 Y5.9549
G01 X33.7961 Y5.8838
G01 X33.7144 Y5.8435
G00 Z1.0000
G00 X34.8736 Y5.6139
G01 F60.00
G01 Z-0.0400
G01 F170.00
G01 X35.1037 Y5.8440
G01 X35.0678 Y5.9338
G01 X34.9411 Y6.0015
G01 X34.6464 Y6.1015
G01 X34.3412 Y6.1417
G01 X34.0340 Y6.1215
G01 X33.7366 Y6.0418
G01 X33.5108 Y5.9304
G01 X33.4763 Y5.8440
G01 X33.7064 Y5.6139
G01 X33.7282 Y5.6267
G01 X33.8327 Y5.6760
G01 X33.9398 Y5.7145
G01 X33.9464 Y5.7165
G01 X34.0569 Y5.7440
G01 X34.1695 Y5.7608
G01 X34.1763 Y5.7615
G01 X34.2900 Y5.7670
G01 X34.4037 Y5.7615
G01 X34.4105 Y5.7608
G01 X34.5231 Y5.7440
G01 X34.6336 Y5.7165
G01 X34.6402 Y5.7145
G01 X34.7473 Y5.6760
G01 X34.8518 Y5.6267
G01 X34.8736 Y5.6139
G00 Z1.0000
G00 X35.3319 Y5.1556
G01 F60.00
G01 Z-0.0400
G01 F170.00
G01 X35.3447 Y5.1338
G01 X35.3940 Y5.0293
G01 X35.4325 Y4.9222
G01 X35.4345 Y4.9156
G01 X35.4620 Y4.8051
G01 X35.4788 Y4.6925
G01 X35.4795 Y4.6857
G01 X35.4850 Y4.5720
G01 X35.4795 Y4.4583
G01 X35.4788 Y4.4515
G01 X35.4620 Y4.3389
G01 X35.4345 Y4.2284
G01 X35.4325 Y4.2218
G01 X35.3940 Y4.1147
G01 X35.3447 Y4.0102
G01 X35.3319 Y3.9884
G01 X35.5620 Y3.7583
G01 X35.6518 Y3.7942
G01 X35.7195 Y3.9209
G01 X35.8195 Y4.2156
G01 X35.8597 Y4.5208
G01 X35.8395 Y4.8280
G01 X35.7598 Y5.1254
G01 X35.6484 Y5.3512
G01 X35.5620 Y5.3857
G01 X35.3319 Y5.1556
G00 Z1.0000
G00 X35.4348 Y5.1397
G01 F60.00
G01 Z-0.0400
G01 F170.00
G01 X35.4716 Y5.0615
G01 X35.5116 Y4.9505
G01 X35.5159 Y4.9360
G01 X35.5436 Y4.8252
G01 X35.5457 Y4.8141
G01 X35.5628 Y4.6974
G01 X35.5690 Y4.5720
G01 X35.5628 Y4.4466
G01 X35.5457 Y4.3299
G01 X35.5436 Y4.3188
G01 X35.5159 Y4.2080
G01 X35.5116 Y4.1935
G01 X35.4716 Y4.0825
G01 X35.4348 Y4.0043
G01 X35.5822 Y3.8569
G01 X35.5922 Y3.8608
G01 X35.6422 Y3.9545
G01 X35.7373 Y4.2347
G01 X35.7753 Y4.5236
G01 X35.7562 Y4.8143
G01 X35.6808 Y5.0956
G01 X35.5873 Y5.2851
G01 X35.5822 Y5.2871
G01 X35.4348 Y5.1397
G00 Z1.0000
G00 X35.5361 Y5.1222
G01 F60.00
G01 Z-0.0400
G01 F170.00
G01 X35.5469 Y5.0990
G01 X35.5514 Y5.0882
G01 X35.5925 Y4.9732
G01 X35.5974 Y4.9564
G01 X35.6256 Y4.8436
G01 X35.6288 Y4.8264
G01 X35.6450 Y4.7172
G01 X35.6464 Y4.7056
G01 X35.6473 Y4.6939
G01 X35.6529 Y4.5778
G01 X35.6527 Y4.5603
G01 X35.6473 Y4.4501
G01 X35.6464 Y4.4384
G01 X35.6450 Y4.4268
G01 X35.6288 Y4.3176
G01 X35.6268 Y4.3061
G01 X35.6243 Y4.2947
G01 X35.5974 Y4.1876
G01 X35.5925 Y4.1708
G01 X35.5514 Y4.0558
G01 X35.5469 Y4.0450
G01 X35.5361 Y4.0218
G01 X35.5662 Y3.9917
G01 X35.6551 Y4.2539
G01 X35.6909 Y4.5263
G01 X35.6729 Y4.8005
G01 X35.6018 Y5.0659
G01 X35.5615 Y5.1476
G01 X35.5361 Y5.1222
G00 Z1.0000
G00 X34.8736 Y3.5301
G01 F60.00
G01 Z-0.0400
G01 F170.00
G01 X34.8518 Y3.5173
G01 X34.7473 Y3.4680
G01 X34.6402 Y3.4295
G01 X34.6336 Y3.4275
G01 X34.5231 Y3.4000
G01 X34.4105 Y3.3832
G01 X34.4037 Y3.3825
G01 X34.2900 Y3.3770
G01 X34.1763 Y3.3825
G01 X34.1695 Y3.3832
G01 X34.0569 Y3.4000
G01 X33.9464 Y3.4275
G01 X33.9398 Y3.4295
G01 X33.8327 Y3.4680
G01 X33.7282 Y3.5173
G01 X33.7064 Y3.5301
G01 X33.4763 Y3.3000
G01 X33.5122 Y3.2102
G01 X33.6389 Y3.1425
G01 X33.9336 Y3.0425
G01 X34.2388 Y3.0023
G01 X34.5460 Y3.0225
G01 X34.8434 Y3.1022
G01 X35.0692 Y3.2136
G01 X35.1037 Y3.3000
G01 X34.8736 Y3.5301
G00 Z1.0000
G00 X33.7223 Y3.4272
G01 F60.00
G01 Z-0.0400
G01 F170.00
G01 X33.5749 Y3.2798
G01 X33.5788 Y3.2698
G01 X33.6725 Y3.2198
G01 X33.9527 Y3.1247
G01 X34.2416 Y3.0867
G01 X34.5323 Y3.1058
G01 X34.8136 Y3.1812
G01 X35.0031 Y3.2747
G01 X35.0051 Y3.2798
G01 X34.8577 Y3.4272
G01 X34.7795 Y3.3904
G01 X34.6685 Y3.3504
G01 X34.6540 Y3.3461
G01 X34.5432 Y3.3184
G01 X34.5321 Y3.3163
G01 X34.4154 Y3.2992
G01 X34.2900 Y3.2930
G01 X34.1646 Y3.2992
G01 X34.0479 Y3.3163
G01 X34.0368 Y3.3184
G01 X33.9260 Y3.3461
G01 X33.9115 Y3.3504
G01 X33.8005 Y3.3904
G01 X33.7223 Y3.4272
G00 Z1.0000
G00 X33.7097 Y3.2958
G01 F60.00
G01 Z-0.0400
G01 F170.00
G01 X33.9719 Y3.2069
G01 X34.2443 Y3.1711
G01 X34.5185 Y3.1891
G01 X34.7839 Y3.2602
G01 X34.8656 Y3.3005
G01 X34.8402 Y3.3259
G01 X34.8170 Y3.3151
G01 X34.8062 Y3.3106
G01 X34.6912 Y3.2695
G01 X34.6744 Y3.2646
G01 X34.5616 Y3.2364
G01 X34.5444 Y3.2332
G01 X34.4352 Y3.2170
G01 X34.4236 Y3.2156
G01 X34.4119 Y3.2147
G01 X34.3017 Y3.2093
G01 X34.2900 Y3.2090
G01 X34.2783 Y3.2093
G01 X34.1681 Y3.2147
G01 X34.1564 Y3.2156
G01 X34.1448 Y3.2170
G01 X34.0356 Y3.2332
G01 X34.0184 Y3.2364
G01 X33.9056 Y3.2646
G01 X33.8888 Y3.2695
G01 X33.7738 Y3.3106
G01 X33.7630 Y3.3151
G01 X33.7398 Y3.3259
G01 X33.7097 Y3.2958
G00 Z1.0000
G00 X35.5673 Y7.1237
G01 F60.00
G01 Z-0.0400
G01 F170.00
G01 X35.5670 Y7.1120
G01 X35.5673 Y7.1003
G01 X35.5722 Y6.9999
G01 X35.5731 Y6.9882
G01 X35.5745 Y6.9766
G01 X35.5893 Y6.8771
G01 X35.5913 Y6.8656
G01 X35.5938 Y6.8542
G01 X35.6183 Y6.7566
G01 X35.6214 Y6.7454
G01 X35.6250 Y6.7343
G01 X35.6589 Y6.6396
G01 X35.6631 Y6.6287
G01 X35.6679 Y6.6180
G01 X35.7109 Y6.5271
G01 X35.7161 Y6.5166
G01 X35.7219 Y6.5065
G01 X35.7736 Y6.4202
G01 X35.7799 Y6.4103
G01 X35.7866 Y6.4008
G01 X35.8465 Y6.3200
G01 X35.8537 Y6.3108
G01 X35.8613 Y6.3019
G01 X35.9289 Y6.2274
G01 X35.9369 Y6.2189
G01 X35.9454 Y6.2109
G01 X36.0199 Y6.1433
G01 X36.0288 Y6.1357
G01 X36.0380 Y6.1285
G01 X36.1188 Y6.0686
G01 X36.1283 Y6.0619
G01 X36.1382 Y6.0556
G01 X36.2245 Y6.0039
G01 X36.2346 Y5.9981
G01 X36.2451 Y5.9929
G01 X36.3360 Y5.9499
G01 X36.3467 Y5.9451
G01 X36.3576 Y5.9409
G01 X36.4523 Y5.9070
G01 X36.4634 Y5.9034
G01 X36.4746 Y5.9003
G01 X36.5722 Y5.8758
G01 X36.5836 Y5.8733
G01 X36.5951 Y5.8713
G01 X36.6946 Y5.8565
G01 X36.7062 Y5.8551
G01 X36.7179 Y5.8542
G01 X36.8183 Y5.8493
G01 X36.8300 Y5.8490
G01 X36.8417 Y5.8493
G01 X36.9421 Y5.8542
G01 X36.9538 Y5.8551
G01 X36.9654 Y5.8565
G01 X37.0649 Y5.8713
G01 X37.0764 Y5.8733
G01 X37.0878 Y5.8758
G01 X37.1854 Y5.9003
G01 X37.1966 Y5.9034
G01 X37.2077 Y5.9070
G01 X37.3024 Y5.9409
G01 X37.3133 Y5.9451
G01 X37.3240 Y5.9499
G01 X37.4149 Y5.9929
G01 X37.4254 Y5.9981
G01 X37.4355 Y6.0039
G01 X37.5218 Y6.0556
G01 X37.5317 Y6.0619
G01 X37.5412 Y6.0686
G01 X37.6220 Y6.1285
G01 X37.6312 Y6.1357
G01 X37.6401 Y6.1433
G01 X37.7146 Y6.2109
G01 X37.7231 Y6.2189
G01 X37.7311 Y6.2274
G01 X37.7987 Y6.3019
G01 X37.8063 Y6.3108
G01 X37.8135 Y6.3200
G01 X37.8734 Y6.4008
G01 X37.8801 Y6.4103
G01 X37.8864 Y6.4202
G01 X37.9381 Y6.5065
G01 X37.9439 Y6.5166
G01 X37.9491 Y6.5271
G01 X37.9921 Y6.6180
G01 X37.9969 Y6.6287
G01 X38.0011 Y6.6396
G01 X38.0350 Y6.7343
G01 X38.0386 Y6.7454
G01 X38.0417 Y6.7566
G01 X38.0662 Y6.8542
G01 X38.0687 Y6.8656
G01 X38.0707 Y6.8771
G01 X38.0855 Y6.9766
G01 X38.0869 Y6.9882
G01 X38.0878 Y6.9999
G01 X38.0927 Y7.1003
G01 X38.0930 Y7.1120
G01 X38.0927 Y7.1237
G01 X38.0878 Y7.2241
G01 X38.0869 Y7.2358
G01 X38.0855 Y7.2474
G01 X38.0707 Y7.3469
G01 X38.0687 Y7.3584
G01 X38.0662 Y7.3698
G01 X38.0417 Y7.4674
G01 X38.0386 Y7.4786
G01 X38.0350 Y7.4897
G01 X38.0011 Y7.5844
G01 X37.9969 Y7.5953
G01 X37.9921 Y7.6060
G01 X37.9491 Y7.6969
G01 X37.9439 Y7.7074
G01 X37.9381 Y7.7175
G01 X37.8864 Y7.8038
G01 X37.8801 Y7.8137
G01 X37.8734 Y7.8232
G01 X37.8135 Y7.9040
G01 X37.8063 Y7.9132
G01 X37.7987 Y7.9221
G01 X37.7311 Y7.9966
G01 X37.7231 Y8.0051
G01 X37.7146 Y8.0131
G01 X37.6401 Y8.0807
G01 X37.6312 Y8.0883
G01 X37.6220 Y8.0955
G01 X37.5412 Y8.1554
G01 X37.5317 Y8.1621
G01 X37.5218 Y8.1684
G01 X37.4355 Y8.2201
G01 X37.4254 Y8.2259
G01 X37.4149 Y8.2311
G01 X37.3240 Y8.2741
G01 X37.3133 Y8.2789
G01 X37.3024 Y8.2831
G01 X37.2077 Y8.3170
G01 X37.1966 Y8.3206
G01 X37.1854 Y8.3237
G01 X37.0878 Y8.3482
G01 X37.0764 Y8.3507
G01 X37.0649 Y8.3527
G01 X36.9654 Y8.3675
G01 X36.9538 Y8.3689
G01 X36.9421 Y8.3698
G01 X36.8417 Y8.3747
G01 X36.8300 Y8.3750
G01 X36.8183 Y8.3747
G01 X36.7179 Y8.3698
G01 X36.7062 Y8.3689
G01 X36.6946 Y8.3675
G01 X36.5951 Y8.3527
G01 X36.5836 Y8.3507
G01 X36.5722 Y8.3482
G01 X36.4746 Y8.3237
G01 X36.4634 Y8.3206
G01 X36.4523 Y8.3170
G01 X36.3576 Y8.2831
G01 X36.3467 Y8.2789
G01 X36.3360 Y8.2741
G01 X36.2451 Y8.2311
G01 X36.2346 Y8.2259
G01 X36.2245 Y8.2201
G01 X36.1382 Y8.1684
G01 X36.1283 Y8.1621
G01 X36.1188 Y8.1554
G01 X36.0380 Y8.0955
G01 X36.0288 Y8.0883
G01 X36.0199 Y8.0807
G01 X35.9454 Y8.0131
G01 X35.9369 Y8.0051
G01 X35.9289 Y7.9966
G01 X35.8613 Y7.9221
G01 X35.8537 Y7.9132
G01 X35.8465 Y7.9040
G01 X35.7866 Y7.8232
G01 X35.7799 Y7.8137
G01 X35.7736 Y7.8038
G01 X35.7219 Y7.7175
G01 X35.7161 Y7.7074
G01 X35.7109 Y7.6969
G01 X35.6679 Y7.6060
