(G-CODE GENERATED BY FLATCAM v8.993 - www.flatcam.org - Version Date: 2020/06/05)

(Name: cutting_2mm)
(Type: G-code from Geometry)
(Units: MM)

(Created on Friday, 15 January 2021 at 18:39)

(This preprocessor is the default preprocessor used by FlatCAM.)
(It is made to work with MACH3 compatible motion controllers.)

(TOOL DIAMETER: 2.0 mm)
(Feedrate_XY: 120.0 mm/min)
(Feedrate_Z: 60.0 mm/min)
(Feedrate rapids 1500.0 mm/min)

(Z_Cut: -1.5 mm)
(DepthPerCut: 0.5 mm <=>3 passes)
(Z_Move: 1.0 mm)
(Z Start: None mm)
(Z End: 15.0 mm)
(Steps per circle: 64)
(Preprocessor Geometry: default)

(X range:   -1.0750 ...  145.8550  mm)
(Y range:   -1.0750 ...   89.9750  mm)

(Spindle Speed: 20000 RPM)
G21
G90
G94



G01 F120.00
G00 Z1.0000

M03 S20000
G4 P1.0
G00 X144.8550 Y-1.0750
G01 F60.00
G01 Z-0.5000
G01 F120.00
G01 X-0.0750 Y-1.0750
G01 X-0.1731 Y-1.0702
G01 X-0.2701 Y-1.0558
G01 X-0.3653 Y-1.0320
G01 X-0.4577 Y-0.9989
G01 X-0.5464 Y-0.9570
G01 X-0.6306 Y-0.9065
G01 X-0.7094 Y-0.8480
G01 X-0.7821 Y-0.7821
G01 X-0.8480 Y-0.7094
G01 X-0.9065 Y-0.6306
G01 X-0.9570 Y-0.5464
G01 X-0.9989 Y-0.4577
G01 X-1.0320 Y-0.3653
G01 X-1.0558 Y-0.2701
G01 X-1.0702 Y-0.1731
G01 X-1.0750 Y-0.0750
G01 X-1.0750 Y88.9750
G01 X-1.0702 Y89.0731
G01 X-1.0558 Y89.1701
G01 X-1.0320 Y89.2653
G01 X-0.9989 Y89.3577
G01 X-0.9570 Y89.4464
G01 X-0.9065 Y89.5306
G01 X-0.8480 Y89.6094
G01 X-0.7821 Y89.6821
G01 X-0.7094 Y89.7480
G01 X-0.6306 Y89.8065
G01 X-0.5464 Y89.8570
G01 X-0.4577 Y89.8989
G01 X-0.3653 Y89.9320
G01 X-0.2701 Y89.9558
G01 X-0.1731 Y89.9702
G01 X-0.0750 Y89.9750
G01 X144.8550 Y89.9750
G01 X144.9531 Y89.9702
G01 X145.0501 Y89.9558
G01 X145.1453 Y89.9320
G01 X145.2377 Y89.8989
G01 X145.3264 Y89.8570
G01 X145.4106 Y89.8065
G01 X145.4894 Y89.7480
G01 X145.5621 Y89.6821
G01 X145.6280 Y89.6094
G01 X145.6865 Y89.5306
G01 X145.7370 Y89.4464
G01 X145.7789 Y89.3577
G01 X145.8120 Y89.2653
G01 X145.8358 Y89.1701
G01 X145.8502 Y89.0731
G01 X145.8550 Y88.9750
G01 X145.8550 Y-0.0750
G01 X145.8502 Y-0.1731
G01 X145.8358 Y-0.2701
G01 X145.8120 Y-0.3653
G01 X145.7789 Y-0.4577
G01 X145.7370 Y-0.5464
G01 X145.6865 Y-0.6306
G01 X145.6280 Y-0.7094
G01 X145.5621 Y-0.7821
G01 X145.4894 Y-0.8480
G01 X145.4106 Y-0.9065
G01 X145.3264 Y-0.9570
G01 X145.2377 Y-0.9989
G01 X145.1453 Y-1.0320
G01 X145.0501 Y-1.0558
G01 X144.9531 Y-1.0702
G01 X144.8550 Y-1.0750
G00 X144.8550 Y-1.0750
G01 F60.00
G01 Z-1.0000
G01 F120.00
G01 X-0.0750 Y-1.0750
G01 X-0.1731 Y-1.0702
G01 X-0.2701 Y-1.0558
G01 X-0.3653 Y-1.0320
G01 X-0.4577 Y-0.9989
G01 X-0.5464 Y-0.9570
G01 X-0.6306 Y-0.9065
G01 X-0.7094 Y-0.8480
G01 X-0.7821 Y-0.7821
G01 X-0.8480 Y-0.7094
G01 X-0.9065 Y-0.6306
G01 X-0.9570 Y-0.5464
G01 X-0.9989 Y-0.4577
G01 X-1.0320 Y-0.3653
G01 X-1.0558 Y-0.2701
G01 X-1.0702 Y-0.1731
G01 X-1.0750 Y-0.0750
G01 X-1.0750 Y88.9750
G01 X-1.0702 Y89.0731
G01 X-1.0558 Y89.1701
G01 X-1.0320 Y89.2653
G01 X-0.9989 Y89.3577
G01 X-0.9570 Y89.4464
G01 X-0.9065 Y89.5306
G01 X-0.8480 Y89.6094
G01 X-0.7821 Y89.6821
G01 X-0.7094 Y89.7480
G01 X-0.6306 Y89.8065
G01 X-0.5464 Y89.8570
G01 X-0.4577 Y89.8989
G01 X-0.3653 Y89.9320
G01 X-0.2701 Y89.9558
G01 X-0.1731 Y89.9702
G01 X-0.0750 Y89.9750
G01 X144.8550 Y89.9750
G01 X144.9531 Y89.9702
G01 X145.0501 Y89.9558
G01 X145.1453 Y89.9320
G01 X145.2377 Y89.8989
G01 X145.3264 Y89.8570
G01 X145.4106 Y89.8065
G01 X145.4894 Y89.7480
G01 X145.5621 Y89.6821
G01 X145.6280 Y89.6094
G01 X145.6865 Y89.5306
G01 X145.7370 Y89.4464
G01 X145.7789 Y89.3577
G01 X145.8120 Y89.2653
G01 X145.8358 Y89.1701
G01 X145.8502 Y89.0731
G01 X145.8550 Y88.9750
G01 X145.8550 Y-0.0750
G01 X145.8502 Y-0.1731
G01 X145.8358 Y-0.2701
G01 X145.8120 Y-0.3653
G01 X145.7789 Y-0.4577
G01 X145.7370 Y-0.5464
G01 X145.6865 Y-0.6306
G01 X145.6280 Y-0.7094
G01 X145.5621 Y-0.7821
G01 X145.4894 Y-0.8480
G01 X145.4106 Y-0.9065
G01 X145.3264 Y-0.9570
G01 X145.2377 Y-0.9989
G01 X145.1453 Y-1.0320
G01 X145.0501 Y-1.0558
G01 X144.9531 Y-1.0702
G01 X144.8550 Y-1.0750
G00 X144.8550 Y-1.0750
G01 F60.00
G01 Z-1.5000
G01 F120.00
G01 X-0.0750 Y-1.0750
G01 X-0.1731 Y-1.0702
G01 X-0.2701 Y-1.0558
G01 X-0.3653 Y-1.0320
G01 X-0.4577 Y-0.9989
G01 X-0.5464 Y-0.9570
G01 X-0.6306 Y-0.9065
G01 X-0.7094 Y-0.8480
G01 X-0.7821 Y-0.7821
G01 X-0.8480 Y-0.7094
G01 X-0.9065 Y-0.6306
G01 X-0.9570 Y-0.5464
G01 X-0.9989 Y-0.4577
G01 X-1.0320 Y-0.3653
G01 X-1.0558 Y-0.2701
G01 X-1.0702 Y-0.1731
G01 X-1.0750 Y-0.0750
G01 X-1.0750 Y88.9750
G01 X-1.0702 Y89.0731
G01 X-1.0558 Y89.1701
G01 X-1.0320 Y89.2653
G01 X-0.9989 Y89.3577
G01 X-0.9570 Y89.4464
G01 X-0.9065 Y89.5306
G01 X-0.8480 Y89.6094
G01 X-0.7821 Y89.6821
G01 X-0.7094 Y89.7480
G01 X-0.6306 Y89.8065
G01 X-0.5464 Y89.8570
G01 X-0.4577 Y89.8989
G01 X-0.3653 Y89.9320
G01 X-0.2701 Y89.9558
G01 X-0.1731 Y89.9702
G01 X-0.0750 Y89.9750
G01 X144.8550 Y89.9750
G01 X144.9531 Y89.9702
G01 X145.0501 Y89.9558
G01 X145.1453 Y89.9320
G01 X145.2377 Y89.8989
G01 X145.3264 Y89.8570
G01 X145.4106 Y89.8065
G01 X145.4894 Y89.7480
G01 X145.5621 Y89.6821
G01 X145.6280 Y89.6094
G01 X145.6865 Y89.5306
G01 X145.7370 Y89.4464
G01 X145.7789 Y89.3577
G01 X145.8120 Y89.2653
G01 X145.8358 Y89.1701
G01 X145.8502 Y89.0731
G01 X145.8550 Y88.9750
G01 X145.8550 Y-0.0750
G01 X145.8502 Y-0.1731
G01 X145.8358 Y-0.2701
G01 X145.8120 Y-0.3653
G01 X145.7789 Y-0.4577
G01 X145.7370 Y-0.5464
G01 X145.6865 Y-0.6306
G01 X145.6280 Y-0.7094
G01 X145.5621 Y-0.7821
G01 X145.4894 Y-0.8480
G01 X145.4106 Y-0.9065
G01 X145.3264 Y-0.9570
G01 X145.2377 Y-0.9989
G01 X145.1453 Y-1.0320
G01 X145.0501 Y-1.0558
G01 X144.9531 Y-1.0702
G01 X144.8550 Y-1.0750
G00 Z1.0000
M05
G00 Z1.0000
G00 Z15.00

