(G-CODE GENERATED BY FLATCAM v8.993 - www.flatcam.org - Version Date: 2020/06/05)

(Name: drill_spotting_top_0_1mm)
(Type: G-code from Excellon)
(Units: MM)

(Created on Friday, 15 January 2021 at 18:56)

(This preprocessor is the default preprocessor used by FlatCAM.)
(It is made to work with MACH3 compatible motion controllers.)


(TOOLS DIAMETER: )
(Tool: 1 -> Dia: 0.308)
(Tool: 2 -> Dia: 0.4)
(Tool: 3 -> Dia: 1.0)
(Tool: 4 -> Dia: 1.5)
(Tool: 5 -> Dia: 1.7)
(Tool: 6 -> Dia: 3.2)

(FEEDRATE Z: )
(Tool: 1 -> Feedrate: 60.0)
(Tool: 2 -> Feedrate: 60.0)
(Tool: 3 -> Feedrate: 60.0)
(Tool: 4 -> Feedrate: 60.0)
(Tool: 5 -> Feedrate: 60.0)
(Tool: 6 -> Feedrate: 60.0)

(FEEDRATE RAPIDS: )
(Tool: 1 -> Feedrate Rapids: 1500)
(Tool: 2 -> Feedrate Rapids: 1500)
(Tool: 3 -> Feedrate Rapids: 1500)
(Tool: 4 -> Feedrate Rapids: 1500)
(Tool: 5 -> Feedrate Rapids: 1500)
(Tool: 6 -> Feedrate Rapids: 1500)

(Z_CUT: )
(Tool: 1 -> Z_Cut: -0.1)
(Tool: 2 -> Z_Cut: -0.1)
(Tool: 3 -> Z_Cut: -0.1)
(Tool: 4 -> Z_Cut: -0.1)
(Tool: 5 -> Z_Cut: -0.1)
(Tool: 6 -> Z_Cut: -0.1)

(Tools Offset: )
(Tool: 1 -> Offset Z: -0.0)
(Tool: 2 -> Offset Z: -0.0)
(Tool: 3 -> Offset Z: -0.0)
(Tool: 4 -> Offset Z: -0.0)
(Tool: 5 -> Offset Z: -0.0)
(Tool: 6 -> Offset Z: -0.0)

(Z_MOVE: )
(Tool: 1 -> Z_Move: 1.0)
(Tool: 2 -> Z_Move: 1.0)
(Tool: 3 -> Z_Move: 1.0)
(Tool: 4 -> Z_Move: 1.0)
(Tool: 5 -> Z_Move: 1.0)
(Tool: 6 -> Z_Move: 1.0)

(Z Start: None mm)
(Z End: 2.0 mm)
(Steps per circle: 64)
(Preprocessor Excellon: default)

(X range:    1.1970 ...  141.5510  mm)
(Y range:    1.3240 ...   87.4490  mm)

(Spindle Speed: 20000.0 RPM)
G21
G90
G94



G00 Z1.0000

G01 F60.00
M03 S20000
G4 P1
G00 X33.7820 Y21.5900
G01 Z-0.1000
G01 Z0
G00 Z1.0000
G00 X36.0680 Y20.5740
G01 Z-0.1000
G01 Z0
G00 Z1.0000
G00 X39.6240 Y20.5740
G01 Z-0.1000
G01 Z0
G00 Z1.0000
G00 X53.0860 Y21.5900
G01 Z-0.1000
G01 Z0
G00 Z1.0000
G00 X55.3720 Y20.5740
G01 Z-0.1000
G01 Z0
G00 Z1.0000
G00 X58.9280 Y20.5740
G01 Z-0.1000
G01 Z0
G00 Z1.0000
G00 X65.5320 Y22.6060
G01 Z-0.1000
G01 Z0
G00 Z1.0000
G00 X69.0880 Y22.6060
G01 Z-0.1000
G01 Z0
G00 Z1.0000
G00 X86.8680 Y34.2900
G01 Z-0.1000
G01 Z0
G00 Z1.0000
G00 X87.8840 Y36.5760
G01 Z-0.1000
G01 Z0
G00 Z1.0000
G00 X85.8520 Y36.5760
G01 Z-0.1000
G01 Z0
G00 Z1.0000
G00 X85.8520 Y40.1320
G01 Z-0.1000
G01 Z0
G00 Z1.0000
G00 X86.8680 Y42.4180
G01 Z-0.1000
G01 Z0
G00 Z1.0000
G00 X87.8840 Y40.1320
G01 Z-0.1000
G01 Z0
G00 Z1.0000
G00 X97.0280 Y40.1320
G01 Z-0.1000
G01 Z0
G00 Z1.0000
G00 X98.0440 Y42.4180
G01 Z-0.1000
G01 Z0
G00 Z1.0000
G00 X99.0600 Y40.1320
G01 Z-0.1000
G01 Z0
G00 Z1.0000
G00 X99.0600 Y36.5760
G01 Z-0.1000
G01 Z0
G00 Z1.0000
G00 X97.0280 Y36.5760
G01 Z-0.1000
G01 Z0
G00 Z1.0000
G00 X98.0440 Y34.2900
G01 Z-0.1000
G01 Z0
G00 Z1.0000
G00 X99.5680 Y22.6060
G01 Z-0.1000
G01 Z0
G00 Z1.0000
G00 X101.8540 Y21.5900
G01 Z-0.1000
G01 Z0
G00 Z1.0000
G00 X106.1720 Y22.6060
G01 Z-0.1000
G01 Z0
G00 Z1.0000
G00 X109.7280 Y22.6060
G01 Z-0.1000
G01 Z0
G00 Z1.0000
G00 X112.0140 Y21.5900
G01 Z-0.1000
G01 Z0
G00 Z1.0000
G00 X114.0460 Y21.5900
G01 Z-0.1000
G01 Z0
G00 Z1.0000
G00 X116.3320 Y20.5740
G01 Z-0.1000
G01 Z0
G00 Z1.0000
G00 X119.8880 Y20.5740
G01 Z-0.1000
G01 Z0
G00 Z1.0000
G00 X124.2060 Y21.5900
G01 Z-0.1000
G01 Z0
G00 Z1.0000
G00 X126.4920 Y20.5740
G01 Z-0.1000
G01 Z0
G00 Z1.0000
G00 X130.0480 Y20.5740
G01 Z-0.1000
G01 Z0
G00 Z1.0000
G00 X132.3340 Y21.5900
G01 Z-0.1000
G01 Z0
G00 Z1.0000
G00 X130.0480 Y22.6060
G01 Z-0.1000
G01 Z0
G00 Z1.0000
G00 X126.4920 Y22.6060
G01 Z-0.1000
G01 Z0
G00 Z1.0000
G00 X122.1740 Y21.5900
G01 Z-0.1000
G01 Z0
G00 Z1.0000
G00 X119.8880 Y22.6060
G01 Z-0.1000
G01 Z0
G00 Z1.0000
G00 X116.3320 Y22.6060
G01 Z-0.1000
G01 Z0
G00 Z1.0000
G00 X109.7280 Y20.5740
G01 Z-0.1000
G01 Z0
G00 Z1.0000
G00 X106.1720 Y20.5740
G01 Z-0.1000
G01 Z0
G00 Z1.0000
G00 X103.8860 Y21.5900
G01 Z-0.1000
G01 Z0
G00 Z1.0000
G00 X99.5680 Y20.5740
G01 Z-0.1000
G01 Z0
G00 Z1.0000
G00 X96.0120 Y20.5740
G01 Z-0.1000
G01 Z0
G00 Z1.0000
G00 X96.0120 Y22.6060
G01 Z-0.1000
G01 Z0
G00 Z1.0000
G00 X93.7260 Y21.5900
G01 Z-0.1000
G01 Z0
G00 Z1.0000
G00 X91.6940 Y21.5900
G01 Z-0.1000
G01 Z0
G00 Z1.0000
G00 X89.4080 Y22.6060
G01 Z-0.1000
G01 Z0
G00 Z1.0000
G00 X89.4080 Y20.5740
G01 Z-0.1000
G01 Z0
G00 Z1.0000
G00 X85.8520 Y20.5740
G01 Z-0.1000
G01 Z0
G00 Z1.0000
G00 X85.8520 Y22.6060
G01 Z-0.1000
G01 Z0
G00 Z1.0000
G00 X83.5660 Y21.5900
G01 Z-0.1000
G01 Z0
G00 Z1.0000
G00 X81.5340 Y21.5900
G01 Z-0.1000
G01 Z0
G00 Z1.0000
G00 X79.2480 Y20.5740
G01 Z-0.1000
G01 Z0
G00 Z1.0000
G00 X79.2480 Y22.6060
G01 Z-0.1000
G01 Z0
G00 Z1.0000
G00 X75.6920 Y22.6060
G01 Z-0.1000
G01 Z0
G00 Z1.0000
G00 X75.6920 Y20.5740
G01 Z-0.1000
G01 Z0
G00 Z1.0000
G00 X73.4060 Y21.5900
G01 Z-0.1000
G01 Z0
G00 Z1.0000
G00 X71.3740 Y21.5900
G01 Z-0.1000
G01 Z0
G00 Z1.0000
G00 X69.0880 Y20.5740
G01 Z-0.1000
G01 Z0
G00 Z1.0000
G00 X65.5320 Y20.5740
G01 Z-0.1000
G01 Z0
G00 Z1.0000
G00 X63.2460 Y21.5900
G01 Z-0.1000
G01 Z0
G00 Z1.0000
G00 X61.2140 Y21.5900
G01 Z-0.1000
G01 Z0
G00 Z1.0000
G00 X58.9280 Y22.6060
G01 Z-0.1000
G01 Z0
G00 Z1.0000
G00 X55.3720 Y22.6060
G01 Z-0.1000
G01 Z0
G00 Z1.0000
G00 X41.9100 Y21.5900
G01 Z-0.1000
G01 Z0
G00 Z1.0000
G00 X39.6240 Y22.6060
G01 Z-0.1000
G01 Z0
G00 Z1.0000
G00 X36.0680 Y22.6060
G01 Z-0.1000
G01 Z0
G00 Z1.0000
G01 F60.00
M03 S20000
G4 P1
G00 X1.3970 Y67.4370
G01 Z-0.1000
G01 Z0
G00 Z1.0000
G00 X7.2910 Y66.1150
G01 Z-0.1000
G01 Z0
G00 Z1.0000
G00 X8.3820 Y64.7700
G01 Z-0.1000
G01 Z0
G00 Z1.0000
G00 X11.4300 Y55.6260
G01 Z-0.1000
G01 Z0
G00 Z1.0000
G00 X10.3190 Y52.4170
G01 Z-0.1000
G01 Z0
G00 Z1.0000
G00 X10.4140 Y49.1490
G01 Z-0.1000
G01 Z0
G00 Z1.0000
G00 X10.2740 Y48.0220
G01 Z-0.1000
G01 Z0
G00 Z1.0000
G00 X9.9080 Y44.5510
G01 Z-0.1000
G01 Z0
G00 Z1.0000
G00 X11.6840 Y43.9420
G01 Z-0.1000
G01 Z0
G00 Z1.0000
G00 X10.0570 Y42.8150
G01 Z-0.1000
G01 Z0
G00 Z1.0000
G00 X9.9780 Y41.7280
G01 Z-0.1000
G01 Z0
G00 Z1.0000
G00 X12.1920 Y40.3860
G01 Z-0.1000
G01 Z0
G00 Z1.0000
G00 X22.7330 Y44.0690
G01 Z-0.1000
G01 Z0
G00 Z1.0000
G00 X23.4950 Y40.4500
G01 Z-0.1000
G01 Z0
G00 Z1.0000
G00 X29.7180 Y41.4020
G01 Z-0.1000
G01 Z0
G00 Z1.0000
G00 X32.0670 Y40.8940
G01 Z-0.1000
G01 Z0
G00 Z1.0000
G00 X34.0360 Y46.4820
G01 Z-0.1000
G01 Z0
G00 Z1.0000
G00 X41.4020 Y46.7360
G01 Z-0.1000
G01 Z0
G00 Z1.0000
G00 X43.4340 Y52.0700
G01 Z-0.1000
G01 Z0
G00 Z1.0000
G00 X50.5460 Y63.2460
G01 Z-0.1000
G01 Z0
G00 Z1.0000
G00 X51.0540 Y66.8020
G01 Z-0.1000
G01 Z0
G00 Z1.0000
G00 X54.7370 Y72.7710
G01 Z-0.1000
G01 Z0
G00 Z1.0000
G00 X59.6900 Y68.3260
G01 Z-0.1000
G01 Z0
G00 Z1.0000
G00 X58.1660 Y56.6420
G01 Z-0.1000
G01 Z0
G00 Z1.0000
G00 X57.9120 Y44.9580
G01 Z-0.1000
G01 Z0
G00 Z1.0000
G00 X49.4030 Y50.1650
G01 Z-0.1000
G01 Z0
G00 Z1.0000
G00 X44.3230 Y44.0690
G01 Z-0.1000
G01 Z0
G00 Z1.0000
G00 X42.6720 Y41.1480
G01 Z-0.1000
G01 Z0
G00 Z1.0000
G00 X42.6720 Y37.8460
G01 Z-0.1000
G01 Z0
G00 Z1.0000
G00 X42.6720 Y35.5600
G01 Z-0.1000
G01 Z0
G00 Z1.0000
G00 X42.9260 Y32.2580
G01 Z-0.1000
G01 Z0
G00 Z1.0000
G00 X32.2580 Y28.1940
G01 Z-0.1000
G01 Z0
G00 Z1.0000
G00 X28.1940 Y27.4320
G01 Z-0.1000
G01 Z0
G00 Z1.0000
G00 X29.9720 Y22.3520
G01 Z-0.1000
G01 Z0
G00 Z1.0000
G00 X32.0040 Y19.3040
G01 Z-0.1000
G01 Z0
G00 Z1.0000
G00 X31.4960 Y16.5100
G01 Z-0.1000
G01 Z0
G00 Z1.0000
G00 X30.9880 Y14.2240
G01 Z-0.1000
G01 Z0
G00 Z1.0000
G00 X30.9880 Y11.9380
G01 Z-0.1000
G01 Z0
G00 Z1.0000
G00 X26.9240 Y13.4620
G01 Z-0.1000
G01 Z0
G00 Z1.0000
G00 X26.9240 Y15.4940
G01 Z-0.1000
G01 Z0
G00 Z1.0000
G00 X26.9240 Y18.0340
G01 Z-0.1000
G01 Z0
G00 Z1.0000
G00 X25.4000 Y20.0660
G01 Z-0.1000
G01 Z0
G00 Z1.0000
G00 X25.4000 Y22.0980
G01 Z-0.1000
G01 Z0
G00 Z1.0000
G00 X20.5740 Y14.2240
G01 Z-0.1000
G01 Z0
G00 Z1.0000
G00 X8.3820 Y19.5580
G01 Z-0.1000
G01 Z0
G00 Z1.0000
G00 X1.3970 Y22.4790
G01 Z-0.1000
G01 Z0
G00 Z1.0000
G00 X1.5240 Y17.7800
G01 Z-0.1000
G01 Z0
G00 Z1.0000
G00 X2.2860 Y17.7800
G01 Z-0.1000
G01 Z0
G00 Z1.0000
G00 X1.5240 Y1.7780
G01 Z-0.1000
G01 Z0
G00 Z1.0000
G00 X2.5400 Y1.7780
G01 Z-0.1000
G01 Z0
G00 Z1.0000
G00 X12.1920 Y1.5240
G01 Z-0.1000
G01 Z0
G00 Z1.0000
G00 X13.2080 Y1.5240
G01 Z-0.1000
G01 Z0
G00 Z1.0000
G00 X29.4640 Y1.5240
G01 Z-0.1000
G01 Z0
G00 Z1.0000
G00 X30.4800 Y1.5240
G01 Z-0.1000
G01 Z0
G00 Z1.0000
G00 X54.6100 Y18.0340
G01 Z-0.1000
G01 Z0
G00 Z1.0000
G00 X54.9910 Y28.8290
G01 Z-0.1000
G01 Z0
G00 Z1.0000
G00 X58.2930 Y31.6230
G01 Z-0.1000
G01 Z0
G00 Z1.0000
G00 X69.7230 Y34.1630
G01 Z-0.1000
G01 Z0
G00 Z1.0000
G00 X81.4070 Y37.9730
G01 Z-0.1000
G01 Z0
G00 Z1.0000
G00 X91.9480 Y33.2740
G01 Z-0.1000
G01 Z0
G00 Z1.0000
G00 X92.9420 Y33.5060
G01 Z-0.1000
G01 Z0
G00 Z1.0000
G00 X93.4720 Y29.9720
G01 Z-0.1000
G01 Z0
G00 Z1.0000
G00 X92.2020 Y26.4160
G01 Z-0.1000
G01 Z0
G00 Z1.0000
G00 X104.5210 Y37.9730
G01 Z-0.1000
G01 Z0
G00 Z1.0000
G00 X109.3470 Y37.9730
G01 Z-0.1000
G01 Z0
G00 Z1.0000
G00 X110.6170 Y45.3390
G01 Z-0.1000
G01 Z0
G00 Z1.0000
G00 X106.2990 Y49.1490
G01 Z-0.1000
G01 Z0
G00 Z1.0000
G00 X123.3170 Y54.9910
G01 Z-0.1000
G01 Z0
G00 Z1.0000
G00 X123.9520 Y56.8960
G01 Z-0.1000
G01 Z0
G00 Z1.0000
G00 X127.3810 Y54.2290
G01 Z-0.1000
G01 Z0
G00 Z1.0000
G00 X123.1900 Y48.0060
G01 Z-0.1000
G01 Z0
G00 Z1.0000
G00 X117.8560 Y45.2120
G01 Z-0.1000
G01 Z0
G00 Z1.0000
G00 X117.2210 Y40.2590
G01 Z-0.1000
G01 Z0
G00 Z1.0000
G00 X118.1100 Y35.8140
G01 Z-0.1000
G01 Z0
G00 Z1.0000
G00 X122.3010 Y31.8770
G01 Z-0.1000
G01 Z0
G00 Z1.0000
G00 X123.1900 Y38.1000
G01 Z-0.1000
G01 Z0
G00 Z1.0000
G00 X133.0960 Y35.5600
G01 Z-0.1000
G01 Z0
G00 Z1.0000
G00 X133.3500 Y38.1000
G01 Z-0.1000
G01 Z0
G00 Z1.0000
G00 X133.0960 Y40.6400
G01 Z-0.1000
G01 Z0
G00 Z1.0000
G00 X132.5880 Y45.4660
G01 Z-0.1000
G01 Z0
G00 Z1.0000
G00 X133.3500 Y48.0060
G01 Z-0.1000
G01 Z0
G00 Z1.0000
G00 X132.5880 Y50.5460
G01 Z-0.1000
G01 Z0
G00 Z1.0000
G00 X135.5090 Y51.4350
G01 Z-0.1000
G01 Z0
G00 Z1.0000
G00 X141.3510 Y52.7050
G01 Z-0.1000
G01 Z0
G00 Z1.0000
G00 X136.2710 Y56.5150
G01 Z-0.1000
G01 Z0
G00 Z1.0000
G00 X132.0020 Y59.9820
G01 Z-0.1000
G01 Z0
G00 Z1.0000
G00 X135.5090 Y68.7070
G01 Z-0.1000
G01 Z0
G00 Z1.0000
G00 X131.4450 Y74.2950
G01 Z-0.1000
G01 Z0
G00 Z1.0000
G00 X124.8410 Y87.2490
G01 Z-0.1000
G01 Z0
G00 Z1.0000
G00 X121.2850 Y85.2170
G01 Z-0.1000
G01 Z0
G00 Z1.0000
G00 X97.4090 Y85.2170
G01 Z-0.1000
G01 Z0
G00 Z1.0000
G00 X98.1710 Y79.1210
G01 Z-0.1000
G01 Z0
G00 Z1.0000
G00 X94.7420 Y79.2480
G01 Z-0.1000
G01 Z0
G00 Z1.0000
G00 X92.2020 Y79.2480
G01 Z-0.1000
G01 Z0
G00 Z1.0000
G00 X90.2970 Y78.3590
G01 Z-0.1000
G01 Z0
G00 Z1.0000
G00 X90.2970 Y63.8810
G01 Z-0.1000
G01 Z0
G00 Z1.0000
G00 X99.6950 Y58.5470
G01 Z-0.1000
G01 Z0
G00 Z1.0000
G00 X92.0750 Y52.1970
G01 Z-0.1000
G01 Z0
G00 Z1.0000
G00 X88.2650 Y47.1170
G01 Z-0.1000
G01 Z0
G00 Z1.0000
G00 X79.6290 Y49.4030
G01 Z-0.1000
G01 Z0
G00 Z1.0000
G00 X72.2630 Y48.1330
G01 Z-0.1000
G01 Z0
G00 Z1.0000
G00 X74.4220 Y57.6580
G01 Z-0.1000
G01 Z0
G00 Z1.0000
G00 X59.7980 Y77.0700
G01 Z-0.1000
G01 Z0
G00 Z1.0000
G00 X59.1630 Y80.5370
G01 Z-0.1000
G01 Z0
G00 Z1.0000
G00 X56.5150 Y78.6130
G01 Z-0.1000
G01 Z0
G00 Z1.0000
G00 X49.2760 Y82.5500
G01 Z-0.1000
G01 Z0
G00 Z1.0000
G00 X38.8620 Y82.5500
G01 Z-0.1000
G01 Z0
G00 Z1.0000
G00 X30.9880 Y82.5500
G01 Z-0.1000
G01 Z0
G00 Z1.0000
G00 X31.1150 Y75.5650
G01 Z-0.1000
G01 Z0
G00 Z1.0000
G00 X34.4170 Y70.2310
G01 Z-0.1000
G01 Z0
G00 Z1.0000
G00 X39.2430 Y69.2150
G01 Z-0.1000
G01 Z0
G00 Z1.0000
G00 X33.5280 Y62.4840
G01 Z-0.1000
G01 Z0
G00 Z1.0000
G00 X32.7660 Y55.3720
G01 Z-0.1000
G01 Z0
G00 Z1.0000
G00 X24.6380 Y56.6420
G01 Z-0.1000
G01 Z0
G00 Z1.0000
G00 X20.9550 Y63.3730
G01 Z-0.1000
G01 Z0
G00 Z1.0000
G00 X23.8760 Y66.0400
G01 Z-0.1000
G01 Z0
G00 Z1.0000
G00 X19.5580 Y69.3420
G01 Z-0.1000
G01 Z0
G00 Z1.0000
G00 X19.6850 Y80.1370
G01 Z-0.1000
G01 Z0
G00 Z1.0000
G00 X19.4310 Y87.2490
G01 Z-0.1000
G01 Z0
G00 Z1.0000
G01 F60.00
M03 S20000
G4 P1
G00 X6.0960 Y51.0540
G01 Z-0.1000
G01 Z0
G00 Z1.0000
G00 X6.0960 Y48.5140
G01 Z-0.1000
G01 Z0
G00 Z1.0000
G00 X63.5000 Y73.6600
G01 Z-0.1000
G01 Z0
G00 Z1.0000
G00 X63.5000 Y76.2000
G01 Z-0.1000
G01 Z0
G00 Z1.0000
G00 X63.5000 Y78.7400
G01 Z-0.1000
G01 Z0
G00 Z1.0000
G00 X63.5000 Y81.2800
G01 Z-0.1000
G01 Z0
G00 Z1.0000
G00 X63.5000 Y83.8200
G01 Z-0.1000
G01 Z0
G00 Z1.0000
G00 X66.0400 Y83.8200
G01 Z-0.1000
G01 Z0
G00 Z1.0000
G00 X66.0400 Y81.2800
G01 Z-0.1000
G01 Z0
G00 Z1.0000
G00 X66.0400 Y78.7400
G01 Z-0.1000
G01 Z0
G00 Z1.0000
G00 X68.5800 Y78.7400
G01 Z-0.1000
G01 Z0
G00 Z1.0000
G00 X68.5800 Y81.2800
G01 Z-0.1000
G01 Z0
G00 Z1.0000
G00 X68.5800 Y83.8200
G01 Z-0.1000
G01 Z0
G00 Z1.0000
G00 X71.1200 Y83.8200
G01 Z-0.1000
G01 Z0
G00 Z1.0000
G00 X71.1200 Y81.2800
G01 Z-0.1000
G01 Z0
G00 Z1.0000
G00 X71.1200 Y78.7400
G01 Z-0.1000
G01 Z0
G00 Z1.0000
G00 X73.6600 Y78.7400
G01 Z-0.1000
G01 Z0
G00 Z1.0000
G00 X73.6600 Y81.2800
G01 Z-0.1000
G01 Z0
G00 Z1.0000
G00 X73.6600 Y83.8200
G01 Z-0.1000
G01 Z0
G00 Z1.0000
G00 X76.2000 Y83.8200
G01 Z-0.1000
G01 Z0
G00 Z1.0000
G00 X76.2000 Y81.2800
G01 Z-0.1000
G01 Z0
G00 Z1.0000
G00 X76.2000 Y78.7400
G01 Z-0.1000
G01 Z0
G00 Z1.0000
G00 X78.7400 Y78.7400
G01 Z-0.1000
G01 Z0
G00 Z1.0000
G00 X78.7400 Y81.2800
G01 Z-0.1000
G01 Z0
G00 Z1.0000
G00 X78.7400 Y83.8200
G01 Z-0.1000
G01 Z0
G00 Z1.0000
G00 X81.2800 Y83.8200
G01 Z-0.1000
G01 Z0
G00 Z1.0000
G00 X81.2800 Y81.2800
G01 Z-0.1000
G01 Z0
G00 Z1.0000
G00 X81.2800 Y78.7400
G01 Z-0.1000
G01 Z0
G00 Z1.0000
G00 X83.8200 Y78.7400
G01 Z-0.1000
G01 Z0
G00 Z1.0000
G00 X83.8200 Y81.2800
G01 Z-0.1000
G01 Z0
G00 Z1.0000
G00 X83.8200 Y83.8200
G01 Z-0.1000
G01 Z0
G00 Z1.0000
G00 X86.3600 Y83.8200
G01 Z-0.1000
G01 Z0
G00 Z1.0000
G00 X86.3600 Y81.2800
G01 Z-0.1000
G01 Z0
G00 Z1.0000
G00 X86.3600 Y78.7400
G01 Z-0.1000
G01 Z0
G00 Z1.0000
G00 X102.3620 Y83.8200
G01 Z-0.1000
G01 Z0
G00 Z1.0000
G00 X104.9020 Y83.8200
G01 Z-0.1000
G01 Z0
G00 Z1.0000
G00 X107.4420 Y83.8200
G01 Z-0.1000
G01 Z0
G00 Z1.0000
G00 X109.9820 Y83.8200
G01 Z-0.1000
G01 Z0
G00 Z1.0000
G00 X115.0620 Y76.7080
G01 Z-0.1000
G01 Z0
G00 Z1.0000
G00 X117.6020 Y76.7080
G01 Z-0.1000
G01 Z0
G00 Z1.0000
G00 X120.1420 Y76.7080
G01 Z-0.1000
G01 Z0
G00 Z1.0000
G00 X122.6820 Y76.7080
G01 Z-0.1000
G01 Z0
G00 Z1.0000
G00 X125.2220 Y76.7080
G01 Z-0.1000
G01 Z0
G00 Z1.0000
G00 X127.7620 Y76.7080
G01 Z-0.1000
G01 Z0
G00 Z1.0000
G00 X135.6360 Y74.4220
G01 Z-0.1000
G01 Z0
G00 Z1.0000
G00 X135.6360 Y71.8820
G01 Z-0.1000
G01 Z0
G00 Z1.0000
G00 X135.6360 Y64.0080
G01 Z-0.1000
G01 Z0
G00 Z1.0000
G00 X135.6360 Y61.4680
G01 Z-0.1000
G01 Z0
G00 Z1.0000
G00 X138.6840 Y43.9420
G01 Z-0.1000
G01 Z0
G00 Z1.0000
G00 X138.6840 Y46.4820
G01 Z-0.1000
G01 Z0
G00 Z1.0000
G00 X127.7620 Y61.4680
G01 Z-0.1000
G01 Z0
G00 Z1.0000
G00 X125.2220 Y61.4680
G01 Z-0.1000
G01 Z0
G00 Z1.0000
G00 X122.6820 Y61.4680
G01 Z-0.1000
G01 Z0
G00 Z1.0000
G00 X120.1420 Y61.4680
G01 Z-0.1000
G01 Z0
G00 Z1.0000
G00 X117.6020 Y61.4680
G01 Z-0.1000
G01 Z0
G00 Z1.0000
G00 X120.1420 Y54.8640
G01 Z-0.1000
G01 Z0
G00 Z1.0000
G00 X117.6020 Y54.8640
G01 Z-0.1000
G01 Z0
G00 Z1.0000
G00 X115.0620 Y54.8640
G01 Z-0.1000
G01 Z0
G00 Z1.0000
G00 X112.5220 Y54.8640
G01 Z-0.1000
G01 Z0
G00 Z1.0000
G00 X109.9820 Y54.8640
G01 Z-0.1000
G01 Z0
G00 Z1.0000
G00 X107.4420 Y54.8640
G01 Z-0.1000
G01 Z0
G00 Z1.0000
G00 X104.9020 Y54.8640
G01 Z-0.1000
G01 Z0
G00 Z1.0000
G00 X102.3620 Y54.8640
G01 Z-0.1000
G01 Z0
G00 Z1.0000
G00 X97.7900 Y54.8640
G01 Z-0.1000
G01 Z0
G00 Z1.0000
G00 X95.2500 Y54.8640
G01 Z-0.1000
G01 Z0
G00 Z1.0000
G00 X92.7100 Y54.8640
G01 Z-0.1000
G01 Z0
G00 Z1.0000
G00 X92.2020 Y61.4680
G01 Z-0.1000
G01 Z0
G00 Z1.0000
G00 X94.7420 Y61.4680
G01 Z-0.1000
G01 Z0
G00 Z1.0000
G00 X97.2820 Y61.4680
G01 Z-0.1000
G01 Z0
G00 Z1.0000
G00 X99.8220 Y61.4680
G01 Z-0.1000
G01 Z0
G00 Z1.0000
G00 X102.3620 Y61.4680
G01 Z-0.1000
G01 Z0
G00 Z1.0000
G00 X104.9020 Y61.4680
G01 Z-0.1000
G01 Z0
G00 Z1.0000
G00 X107.4420 Y61.4680
G01 Z-0.1000
G01 Z0
G00 Z1.0000
G00 X109.9820 Y61.4680
G01 Z-0.1000
G01 Z0
G00 Z1.0000
G00 X112.5220 Y61.4680
G01 Z-0.1000
G01 Z0
G00 Z1.0000
G00 X115.0620 Y61.4680
G01 Z-0.1000
G01 Z0
G00 Z1.0000
G00 X112.5220 Y76.7080
G01 Z-0.1000
G01 Z0
G00 Z1.0000
G00 X109.9820 Y76.7080
G01 Z-0.1000
G01 Z0
G00 Z1.0000
G00 X107.4420 Y76.7080
G01 Z-0.1000
G01 Z0
G00 Z1.0000
G00 X104.9020 Y76.7080
G01 Z-0.1000
G01 Z0
G00 Z1.0000
G00 X102.3620 Y76.7080
G01 Z-0.1000
G01 Z0
G00 Z1.0000
G00 X99.8220 Y76.7080
G01 Z-0.1000
G01 Z0
G00 Z1.0000
G00 X97.2820 Y76.7080
G01 Z-0.1000
G01 Z0
G00 Z1.0000
G00 X94.7420 Y76.7080
G01 Z-0.1000
G01 Z0
G00 Z1.0000
G00 X92.2020 Y76.7080
G01 Z-0.1000
G01 Z0
G00 Z1.0000
G00 X86.3600 Y76.2000
G01 Z-0.1000
G01 Z0
G00 Z1.0000
G00 X83.8200 Y76.2000
G01 Z-0.1000
G01 Z0
G00 Z1.0000
G00 X81.2800 Y76.2000
G01 Z-0.1000
G01 Z0
G00 Z1.0000
G00 X78.7400 Y76.2000
G01 Z-0.1000
G01 Z0
G00 Z1.0000
G00 X76.2000 Y76.2000
G01 Z-0.1000
G01 Z0
G00 Z1.0000
G00 X73.6600 Y76.2000
G01 Z-0.1000
G01 Z0
G00 Z1.0000
G00 X71.1200 Y76.2000
G01 Z-0.1000
G01 Z0
G00 Z1.0000
G00 X68.5800 Y76.2000
G01 Z-0.1000
G01 Z0
G00 Z1.0000
G00 X66.0400 Y76.2000
G01 Z-0.1000
G01 Z0
G00 Z1.0000
G00 X66.0400 Y73.6600
G01 Z-0.1000
G01 Z0
G00 Z1.0000
G00 X68.5800 Y73.6600
G01 Z-0.1000
G01 Z0
G00 Z1.0000
G00 X71.1200 Y73.6600
G01 Z-0.1000
G01 Z0
G00 Z1.0000
G00 X73.6600 Y73.6600
G01 Z-0.1000
G01 Z0
G00 Z1.0000
G00 X76.2000 Y73.6600
G01 Z-0.1000
G01 Z0
G00 Z1.0000
G00 X78.7400 Y73.6600
G01 Z-0.1000
G01 Z0
G00 Z1.0000
G00 X81.2800 Y73.6600
G01 Z-0.1000
G01 Z0
G00 Z1.0000
G00 X83.8200 Y73.6600
G01 Z-0.1000
G01 Z0
G00 Z1.0000
G00 X86.3600 Y73.6600
G01 Z-0.1000
G01 Z0
G00 Z1.0000
G00 X86.3600 Y71.1200
G01 Z-0.1000
G01 Z0
G00 Z1.0000
G00 X86.3600 Y68.5800
G01 Z-0.1000
G01 Z0
G00 Z1.0000
G00 X86.3600 Y66.0400
G01 Z-0.1000
G01 Z0
G00 Z1.0000
G00 X86.3600 Y63.5000
G01 Z-0.1000
G01 Z0
G00 Z1.0000
G00 X86.3600 Y60.9600
G01 Z-0.1000
G01 Z0
G00 Z1.0000
G00 X83.8200 Y60.9600
G01 Z-0.1000
G01 Z0
G00 Z1.0000
G00 X83.8200 Y63.5000
G01 Z-0.1000
G01 Z0
G00 Z1.0000
G00 X83.8200 Y66.0400
G01 Z-0.1000
G01 Z0
G00 Z1.0000
G00 X83.8200 Y68.5800
G01 Z-0.1000
G01 Z0
G00 Z1.0000
G00 X83.8200 Y71.1200
G01 Z-0.1000
G01 Z0
G00 Z1.0000
G00 X81.2800 Y71.1200
G01 Z-0.1000
G01 Z0
G00 Z1.0000
G00 X81.2800 Y68.5800
G01 Z-0.1000
G01 Z0
G00 Z1.0000
G00 X81.2800 Y66.0400
G01 Z-0.1000
G01 Z0
G00 Z1.0000
G00 X81.2800 Y63.5000
G01 Z-0.1000
G01 Z0
G00 Z1.0000
G00 X81.2800 Y60.9600
G01 Z-0.1000
G01 Z0
G00 Z1.0000
G00 X78.7400 Y60.9600
G01 Z-0.1000
G01 Z0
G00 Z1.0000
G00 X78.7400 Y63.5000
G01 Z-0.1000
G01 Z0
G00 Z1.0000
G00 X78.7400 Y66.0400
G01 Z-0.1000
G01 Z0
G00 Z1.0000
G00 X78.7400 Y68.5800
G01 Z-0.1000
G01 Z0
G00 Z1.0000
G00 X78.7400 Y71.1200
G01 Z-0.1000
G01 Z0
G00 Z1.0000
G00 X76.2000 Y71.1200
G01 Z-0.1000
G01 Z0
G00 Z1.0000
G00 X76.2000 Y68.5800
G01 Z-0.1000
G01 Z0
G00 Z1.0000
G00 X76.2000 Y66.0400
G01 Z-0.1000
G01 Z0
G00 Z1.0000
G00 X76.2000 Y63.5000
G01 Z-0.1000
G01 Z0
G00 Z1.0000
G00 X76.2000 Y60.9600
G01 Z-0.1000
G01 Z0
G00 Z1.0000
G00 X73.6600 Y60.9600
G01 Z-0.1000
G01 Z0
G00 Z1.0000
G00 X73.6600 Y63.5000
G01 Z-0.1000
G01 Z0
G00 Z1.0000
G00 X73.6600 Y66.0400
G01 Z-0.1000
G01 Z0
G00 Z1.0000
G00 X73.6600 Y68.5800
G01 Z-0.1000
G01 Z0
G00 Z1.0000
G00 X73.6600 Y71.1200
G01 Z-0.1000
G01 Z0
G00 Z1.0000
G00 X71.1200 Y71.1200
G01 Z-0.1000
G01 Z0
G00 Z1.0000
G00 X71.1200 Y68.5800
G01 Z-0.1000
G01 Z0
G00 Z1.0000
G00 X71.1200 Y66.0400
G01 Z-0.1000
G01 Z0
G00 Z1.0000
G00 X71.1200 Y63.5000
G01 Z-0.1000
G01 Z0
G00 Z1.0000
G00 X71.1200 Y60.9600
G01 Z-0.1000
G01 Z0
G00 Z1.0000
G00 X68.5800 Y63.5000
G01 Z-0.1000
G01 Z0
G00 Z1.0000
G00 X68.5800 Y66.0400
G01 Z-0.1000
G01 Z0
G00 Z1.0000
G00 X68.5800 Y68.5800
G01 Z-0.1000
G01 Z0
G00 Z1.0000
G00 X68.5800 Y71.1200
G01 Z-0.1000
G01 Z0
G00 Z1.0000
G00 X66.0400 Y71.1200
G01 Z-0.1000
G01 Z0
G00 Z1.0000
G01 F60.00
M03 S20000
G4 P1
G00 X28.9560 Y7.3660
G01 Z-0.1000
G01 Z0
G00 Z1.0000
G00 X42.6720 Y7.1120
G01 Z-0.1000
G01 Z0
G00 Z1.0000
G00 X57.1500 Y7.1120
G01 Z-0.1000
G01 Z0
G00 Z1.0000
G00 X67.3100 Y7.1120
G01 Z-0.1000
G01 Z0
G00 Z1.0000
G00 X128.2700 Y7.3660
G01 Z-0.1000
G01 Z0
G00 Z1.0000
G00 X118.1100 Y7.3660
G01 Z-0.1000
G01 Z0
G00 Z1.0000
G00 X107.9500 Y7.1120
G01 Z-0.1000
G01 Z0
G00 Z1.0000
G00 X97.7900 Y7.1120
G01 Z-0.1000
G01 Z0
G00 Z1.0000
G00 X87.6300 Y7.1120
G01 Z-0.1000
G01 Z0
G00 Z1.0000
G00 X77.4700 Y7.1120
G01 Z-0.1000
G01 Z0
G00 Z1.0000
G01 F60.00
M03 S20000
G4 P1
G00 X26.4160 Y9.9060
G01 Z-0.1000
G01 Z0
G00 Z1.0000
G00 X26.4160 Y4.8260
G01 Z-0.1000
G01 Z0
G00 Z1.0000
G00 X31.4960 Y4.8260
G01 Z-0.1000
G01 Z0
G00 Z1.0000
G00 X40.1320 Y4.5720
G01 Z-0.1000
G01 Z0
G00 Z1.0000
G00 X45.2120 Y4.5720
G01 Z-0.1000
G01 Z0
G00 Z1.0000
G00 X54.6100 Y4.5720
G01 Z-0.1000
G01 Z0
G00 Z1.0000
G00 X59.6900 Y4.5720
G01 Z-0.1000
G01 Z0
G00 Z1.0000
G00 X64.7700 Y4.5720
G01 Z-0.1000
G01 Z0
G00 Z1.0000
G00 X69.8500 Y4.5720
G01 Z-0.1000
G01 Z0
G00 Z1.0000
G00 X74.9300 Y4.5720
G01 Z-0.1000
G01 Z0
G00 Z1.0000
G00 X80.0100 Y4.5720
G01 Z-0.1000
G01 Z0
G00 Z1.0000
G00 X85.0900 Y4.5720
G01 Z-0.1000
G01 Z0
G00 Z1.0000
G00 X90.1700 Y4.5720
G01 Z-0.1000
G01 Z0
G00 Z1.0000
G00 X95.2500 Y4.5720
G01 Z-0.1000
G01 Z0
G00 Z1.0000
G00 X100.3300 Y4.5720
G01 Z-0.1000
G01 Z0
G00 Z1.0000
G00 X105.4100 Y4.5720
G01 Z-0.1000
G01 Z0
G00 Z1.0000
G00 X110.4900 Y4.5720
G01 Z-0.1000
G01 Z0
G00 Z1.0000
G00 X115.5700 Y4.8260
G01 Z-0.1000
G01 Z0
G00 Z1.0000
G00 X120.6500 Y4.8260
G01 Z-0.1000
G01 Z0
G00 Z1.0000
G00 X125.7300 Y4.8260
G01 Z-0.1000
G01 Z0
G00 Z1.0000
G00 X130.8100 Y4.8260
G01 Z-0.1000
G01 Z0
G00 Z1.0000
G00 X130.8100 Y9.9060
G01 Z-0.1000
G01 Z0
G00 Z1.0000
G00 X125.7300 Y9.9060
G01 Z-0.1000
G01 Z0
G00 Z1.0000
G00 X120.6500 Y9.9060
G01 Z-0.1000
G01 Z0
G00 Z1.0000
G00 X115.5700 Y9.9060
G01 Z-0.1000
G01 Z0
G00 Z1.0000
G00 X110.4900 Y9.6520
G01 Z-0.1000
G01 Z0
G00 Z1.0000
G00 X105.4100 Y9.6520
G01 Z-0.1000
G01 Z0
G00 Z1.0000
G00 X100.3300 Y9.6520
G01 Z-0.1000
G01 Z0
G00 Z1.0000
G00 X95.2500 Y9.6520
G01 Z-0.1000
G01 Z0
G00 Z1.0000
G00 X90.1700 Y9.6520
G01 Z-0.1000
G01 Z0
G00 Z1.0000
G00 X85.0900 Y9.6520
G01 Z-0.1000
G01 Z0
G00 Z1.0000
G00 X80.0100 Y9.6520
G01 Z-0.1000
G01 Z0
G00 Z1.0000
G00 X74.9300 Y9.6520
G01 Z-0.1000
G01 Z0
G00 Z1.0000
G00 X69.8500 Y9.6520
G01 Z-0.1000
G01 Z0
G00 Z1.0000
G00 X64.7700 Y9.6520
G01 Z-0.1000
G01 Z0
G00 Z1.0000
G00 X59.6900 Y9.6520
G01 Z-0.1000
G01 Z0
G00 Z1.0000
G00 X54.6100 Y9.6520
G01 Z-0.1000
G01 Z0
G00 Z1.0000
G00 X45.2120 Y9.6520
G01 Z-0.1000
G01 Z0
G00 Z1.0000
G00 X40.1320 Y9.6520
G01 Z-0.1000
G01 Z0
G00 Z1.0000
G00 X31.4960 Y9.9060
G01 Z-0.1000
G01 Z0
G00 Z1.0000
G01 F60.00
M03 S20000
G4 P1
G00 X5.0800 Y81.2800
G01 Z-0.1000
G01 Z0
G00 Z1.0000
G00 X5.0800 Y7.6200
G01 Z-0.1000
G01 Z0
G00 Z1.0000
G00 X139.7000 Y5.0800
G01 Z-0.1000
G01 Z0
G00 Z1.0000
G00 X139.7000 Y81.2800
G01 Z-0.1000
G01 Z0
G00 Z1.0000
M05
G00 Z2.00

