(G-CODE GENERATED BY FLATCAM v8.993 - www.flatcam.org - Version Date: 2020/06/05)

(Name: drilling_top_03mm)
(Type: G-code from Excellon)
(Units: MM)

(Created on Friday, 15 January 2021 at 18:57)

(This preprocessor is the default preprocessor used by FlatCAM.)
(It is made to work with MACH3 compatible motion controllers.)


(TOOLS DIAMETER: )
(Tool: 1 -> Dia: 0.308)
(Tool: 2 -> Dia: 0.4)
(Tool: 3 -> Dia: 1.0)
(Tool: 4 -> Dia: 1.5)
(Tool: 5 -> Dia: 1.7)
(Tool: 6 -> Dia: 3.2)

(FEEDRATE Z: )
(Tool: 1 -> Feedrate: 60.0)
(Tool: 2 -> Feedrate: 60.0)
(Tool: 3 -> Feedrate: 60.0)
(Tool: 4 -> Feedrate: 60.0)
(Tool: 5 -> Feedrate: 60.0)
(Tool: 6 -> Feedrate: 60.0)

(FEEDRATE RAPIDS: )
(Tool: 1 -> Feedrate Rapids: 1500)
(Tool: 2 -> Feedrate Rapids: 1500)
(Tool: 3 -> Feedrate Rapids: 1500)
(Tool: 4 -> Feedrate Rapids: 1500)
(Tool: 5 -> Feedrate Rapids: 1500)
(Tool: 6 -> Feedrate Rapids: 1500)

(Z_CUT: )
(Tool: 1 -> Z_Cut: -2.0)
(Tool: 2 -> Z_Cut: -0.1)
(Tool: 3 -> Z_Cut: -0.1)
(Tool: 4 -> Z_Cut: -0.1)
(Tool: 5 -> Z_Cut: -0.1)
(Tool: 6 -> Z_Cut: -0.1)

(Tools Offset: )
(Tool: 1 -> Offset Z: -0.0)

(Z_MOVE: )
(Tool: 1 -> Z_Move: 1.0)
(Tool: 2 -> Z_Move: 1.0)
(Tool: 3 -> Z_Move: 1.0)
(Tool: 4 -> Z_Move: 1.0)
(Tool: 5 -> Z_Move: 1.0)
(Tool: 6 -> Z_Move: 1.0)

(Z Start: None mm)
(Z End: 2.0 mm)
(Steps per circle: 64)
(Preprocessor Excellon: default)

(X range:    1.1970 ...  141.5510  mm)
(Y range:    1.3240 ...   87.4490  mm)

(Spindle Speed: 20000.0 RPM)
G21
G90
G94



G00 Z1.0000

G01 F60.00
M03 S20000
G4 P1.0
G00 X33.7820 Y21.5900
G01 Z-2.0000
G01 Z0
G00 Z1.0000
G00 X36.0680 Y20.5740
G01 Z-2.0000
G01 Z0
G00 Z1.0000
G00 X39.6240 Y20.5740
G01 Z-2.0000
G01 Z0
G00 Z1.0000
G00 X53.0860 Y21.5900
G01 Z-2.0000
G01 Z0
G00 Z1.0000
G00 X55.3720 Y20.5740
G01 Z-2.0000
G01 Z0
G00 Z1.0000
G00 X58.9280 Y20.5740
G01 Z-2.0000
G01 Z0
G00 Z1.0000
G00 X65.5320 Y22.6060
G01 Z-2.0000
G01 Z0
G00 Z1.0000
G00 X69.0880 Y22.6060
G01 Z-2.0000
G01 Z0
G00 Z1.0000
G00 X86.8680 Y34.2900
G01 Z-2.0000
G01 Z0
G00 Z1.0000
G00 X87.8840 Y36.5760
G01 Z-2.0000
G01 Z0
G00 Z1.0000
G00 X85.8520 Y36.5760
G01 Z-2.0000
G01 Z0
G00 Z1.0000
G00 X85.8520 Y40.1320
G01 Z-2.0000
G01 Z0
G00 Z1.0000
G00 X86.8680 Y42.4180
G01 Z-2.0000
G01 Z0
G00 Z1.0000
G00 X87.8840 Y40.1320
G01 Z-2.0000
G01 Z0
G00 Z1.0000
G00 X97.0280 Y40.1320
G01 Z-2.0000
G01 Z0
G00 Z1.0000
G00 X98.0440 Y42.4180
G01 Z-2.0000
G01 Z0
G00 Z1.0000
G00 X99.0600 Y40.1320
G01 Z-2.0000
G01 Z0
G00 Z1.0000
G00 X99.0600 Y36.5760
G01 Z-2.0000
G01 Z0
G00 Z1.0000
G00 X97.0280 Y36.5760
G01 Z-2.0000
G01 Z0
G00 Z1.0000
G00 X98.0440 Y34.2900
G01 Z-2.0000
G01 Z0
G00 Z1.0000
G00 X99.5680 Y22.6060
G01 Z-2.0000
G01 Z0
G00 Z1.0000
G00 X101.8540 Y21.5900
G01 Z-2.0000
G01 Z0
G00 Z1.0000
G00 X106.1720 Y22.6060
G01 Z-2.0000
G01 Z0
G00 Z1.0000
G00 X109.7280 Y22.6060
G01 Z-2.0000
G01 Z0
G00 Z1.0000
G00 X112.0140 Y21.5900
G01 Z-2.0000
G01 Z0
G00 Z1.0000
G00 X114.0460 Y21.5900
G01 Z-2.0000
G01 Z0
G00 Z1.0000
G00 X116.3320 Y20.5740
G01 Z-2.0000
G01 Z0
G00 Z1.0000
G00 X119.8880 Y20.5740
G01 Z-2.0000
G01 Z0
G00 Z1.0000
G00 X124.2060 Y21.5900
G01 Z-2.0000
G01 Z0
G00 Z1.0000
G00 X126.4920 Y20.5740
G01 Z-2.0000
G01 Z0
G00 Z1.0000
G00 X130.0480 Y20.5740
G01 Z-2.0000
G01 Z0
G00 Z1.0000
G00 X132.3340 Y21.5900
G01 Z-2.0000
G01 Z0
G00 Z1.0000
G00 X130.0480 Y22.6060
G01 Z-2.0000
G01 Z0
G00 Z1.0000
G00 X126.4920 Y22.6060
G01 Z-2.0000
G01 Z0
G00 Z1.0000
G00 X122.1740 Y21.5900
G01 Z-2.0000
G01 Z0
G00 Z1.0000
G00 X119.8880 Y22.6060
G01 Z-2.0000
G01 Z0
G00 Z1.0000
G00 X116.3320 Y22.6060
G01 Z-2.0000
G01 Z0
G00 Z1.0000
G00 X109.7280 Y20.5740
G01 Z-2.0000
G01 Z0
G00 Z1.0000
G00 X106.1720 Y20.5740
G01 Z-2.0000
G01 Z0
G00 Z1.0000
G00 X103.8860 Y21.5900
G01 Z-2.0000
G01 Z0
G00 Z1.0000
G00 X99.5680 Y20.5740
G01 Z-2.0000
G01 Z0
G00 Z1.0000
G00 X96.0120 Y20.5740
G01 Z-2.0000
G01 Z0
G00 Z1.0000
G00 X96.0120 Y22.6060
G01 Z-2.0000
G01 Z0
G00 Z1.0000
G00 X93.7260 Y21.5900
G01 Z-2.0000
G01 Z0
G00 Z1.0000
G00 X91.6940 Y21.5900
G01 Z-2.0000
G01 Z0
G00 Z1.0000
G00 X89.4080 Y22.6060
G01 Z-2.0000
G01 Z0
G00 Z1.0000
G00 X89.4080 Y20.5740
G01 Z-2.0000
G01 Z0
G00 Z1.0000
G00 X85.8520 Y20.5740
G01 Z-2.0000
G01 Z0
G00 Z1.0000
G00 X85.8520 Y22.6060
G01 Z-2.0000
G01 Z0
G00 Z1.0000
G00 X83.5660 Y21.5900
G01 Z-2.0000
G01 Z0
G00 Z1.0000
G00 X81.5340 Y21.5900
G01 Z-2.0000
G01 Z0
G00 Z1.0000
G00 X79.2480 Y20.5740
G01 Z-2.0000
G01 Z0
G00 Z1.0000
G00 X79.2480 Y22.6060
G01 Z-2.0000
G01 Z0
G00 Z1.0000
G00 X75.6920 Y22.6060
G01 Z-2.0000
G01 Z0
G00 Z1.0000
G00 X75.6920 Y20.5740
G01 Z-2.0000
G01 Z0
G00 Z1.0000
G00 X73.4060 Y21.5900
G01 Z-2.0000
G01 Z0
G00 Z1.0000
G00 X71.3740 Y21.5900
G01 Z-2.0000
G01 Z0
G00 Z1.0000
G00 X69.0880 Y20.5740
G01 Z-2.0000
G01 Z0
G00 Z1.0000
G00 X65.5320 Y20.5740
G01 Z-2.0000
G01 Z0
G00 Z1.0000
G00 X63.2460 Y21.5900
G01 Z-2.0000
G01 Z0
G00 Z1.0000
G00 X61.2140 Y21.5900
G01 Z-2.0000
G01 Z0
G00 Z1.0000
G00 X58.9280 Y22.6060
G01 Z-2.0000
G01 Z0
G00 Z1.0000
G00 X55.3720 Y22.6060
G01 Z-2.0000
G01 Z0
G00 Z1.0000
G00 X41.9100 Y21.5900
G01 Z-2.0000
G01 Z0
G00 Z1.0000
G00 X39.6240 Y22.6060
G01 Z-2.0000
G01 Z0
G00 Z1.0000
G00 X36.0680 Y22.6060
G01 Z-2.0000
G01 Z0
G00 Z1.0000
M05
G00 Z2.00

