(G-CODE GENERATED BY FLATCAM v8.993 - www.flatcam.org - Version Date: 2020/06/05)

(Name: drilling_top_1_7mm)
(Type: G-code from Excellon)
(Units: MM)

(Created on Friday, 15 January 2021 at 19:00)

(This preprocessor is the default preprocessor used by FlatCAM.)
(It is made to work with MACH3 compatible motion controllers.)


(TOOLS DIAMETER: )
(Tool: 1 -> Dia: 0.308)
(Tool: 2 -> Dia: 0.4)
(Tool: 3 -> Dia: 1.0)
(Tool: 4 -> Dia: 1.5)
(Tool: 5 -> Dia: 1.7)
(Tool: 6 -> Dia: 3.2)

(FEEDRATE Z: )
(Tool: 1 -> Feedrate: 60.0)
(Tool: 2 -> Feedrate: 60.0)
(Tool: 3 -> Feedrate: 60.0)
(Tool: 4 -> Feedrate: 60.0)
(Tool: 5 -> Feedrate: 60.0)
(Tool: 6 -> Feedrate: 60.0)

(FEEDRATE RAPIDS: )
(Tool: 1 -> Feedrate Rapids: 1500)
(Tool: 2 -> Feedrate Rapids: 1500)
(Tool: 3 -> Feedrate Rapids: 1500)
(Tool: 4 -> Feedrate Rapids: 1500)
(Tool: 5 -> Feedrate Rapids: 1500)
(Tool: 6 -> Feedrate Rapids: 1500)

(Z_CUT: )
(Tool: 1 -> Z_Cut: -2.0)
(Tool: 2 -> Z_Cut: -2.0)
(Tool: 3 -> Z_Cut: -2.0)
(Tool: 4 -> Z_Cut: -2.0)
(Tool: 5 -> Z_Cut: -2.0)
(Tool: 6 -> Z_Cut: -2.0)

(Tools Offset: )
(Tool: 5 -> Offset Z: -0.0)

(Z_MOVE: )
(Tool: 1 -> Z_Move: 1.0)
(Tool: 2 -> Z_Move: 1.0)
(Tool: 3 -> Z_Move: 1.0)
(Tool: 4 -> Z_Move: 1.0)
(Tool: 5 -> Z_Move: 1.0)
(Tool: 6 -> Z_Move: 1.0)

(Z Start: None mm)
(Z End: 2.0 mm)
(Steps per circle: 64)
(Preprocessor Excellon: default)

(X range:    1.1970 ...  141.5510  mm)
(Y range:    1.3240 ...   87.4490  mm)

(Spindle Speed: 20000.0 RPM)
G21
G90
G94



G00 Z1.0000

G01 F60.00
M03 S20000
G4 P1
G00 X26.4160 Y9.9060
G01 Z-2.0000
G01 Z0
G00 Z1.0000
G00 X26.4160 Y4.8260
G01 Z-2.0000
G01 Z0
G00 Z1.0000
G00 X31.4960 Y4.8260
G01 Z-2.0000
G01 Z0
G00 Z1.0000
G00 X40.1320 Y4.5720
G01 Z-2.0000
G01 Z0
G00 Z1.0000
G00 X45.2120 Y4.5720
G01 Z-2.0000
G01 Z0
G00 Z1.0000
G00 X54.6100 Y4.5720
G01 Z-2.0000
G01 Z0
G00 Z1.0000
G00 X59.6900 Y4.5720
G01 Z-2.0000
G01 Z0
G00 Z1.0000
G00 X64.7700 Y4.5720
G01 Z-2.0000
G01 Z0
G00 Z1.0000
G00 X69.8500 Y4.5720
G01 Z-2.0000
G01 Z0
G00 Z1.0000
G00 X74.9300 Y4.5720
G01 Z-2.0000
G01 Z0
G00 Z1.0000
G00 X80.0100 Y4.5720
G01 Z-2.0000
G01 Z0
G00 Z1.0000
G00 X85.0900 Y4.5720
G01 Z-2.0000
G01 Z0
G00 Z1.0000
G00 X90.1700 Y4.5720
G01 Z-2.0000
G01 Z0
G00 Z1.0000
G00 X95.2500 Y4.5720
G01 Z-2.0000
G01 Z0
G00 Z1.0000
G00 X100.3300 Y4.5720
G01 Z-2.0000
G01 Z0
G00 Z1.0000
G00 X105.4100 Y4.5720
G01 Z-2.0000
G01 Z0
G00 Z1.0000
G00 X110.4900 Y4.5720
G01 Z-2.0000
G01 Z0
G00 Z1.0000
G00 X115.5700 Y4.8260
G01 Z-2.0000
G01 Z0
G00 Z1.0000
G00 X120.6500 Y4.8260
G01 Z-2.0000
G01 Z0
G00 Z1.0000
G00 X125.7300 Y4.8260
G01 Z-2.0000
G01 Z0
G00 Z1.0000
G00 X130.8100 Y4.8260
G01 Z-2.0000
G01 Z0
G00 Z1.0000
G00 X130.8100 Y9.9060
G01 Z-2.0000
G01 Z0
G00 Z1.0000
G00 X125.7300 Y9.9060
G01 Z-2.0000
G01 Z0
G00 Z1.0000
G00 X120.6500 Y9.9060
G01 Z-2.0000
G01 Z0
G00 Z1.0000
G00 X115.5700 Y9.9060
G01 Z-2.0000
G01 Z0
G00 Z1.0000
G00 X110.4900 Y9.6520
G01 Z-2.0000
G01 Z0
G00 Z1.0000
G00 X105.4100 Y9.6520
G01 Z-2.0000
G01 Z0
G00 Z1.0000
G00 X100.3300 Y9.6520
G01 Z-2.0000
G01 Z0
G00 Z1.0000
G00 X95.2500 Y9.6520
G01 Z-2.0000
G01 Z0
G00 Z1.0000
G00 X90.1700 Y9.6520
G01 Z-2.0000
G01 Z0
G00 Z1.0000
G00 X85.0900 Y9.6520
G01 Z-2.0000
G01 Z0
G00 Z1.0000
G00 X80.0100 Y9.6520
G01 Z-2.0000
G01 Z0
G00 Z1.0000
G00 X74.9300 Y9.6520
G01 Z-2.0000
G01 Z0
G00 Z1.0000
G00 X69.8500 Y9.6520
G01 Z-2.0000
G01 Z0
G00 Z1.0000
G00 X64.7700 Y9.6520
G01 Z-2.0000
G01 Z0
G00 Z1.0000
G00 X59.6900 Y9.6520
G01 Z-2.0000
G01 Z0
G00 Z1.0000
G00 X54.6100 Y9.6520
G01 Z-2.0000
G01 Z0
G00 Z1.0000
G00 X45.2120 Y9.6520
G01 Z-2.0000
G01 Z0
G00 Z1.0000
G00 X40.1320 Y9.6520
G01 Z-2.0000
G01 Z0
G00 Z1.0000
G00 X31.4960 Y9.9060
G01 Z-2.0000
G01 Z0
G00 Z1.0000
M05
G00 Z2.00

