(G-CODE GENERATED BY FLATCAM v8.993 - www.flatcam.org - Version Date: 2020/06/05)

(Name: drilling_top_04mm)
(Type: G-code from Excellon)
(Units: MM)

(Created on Friday, 15 January 2021 at 18:58)

(This preprocessor is the default preprocessor used by FlatCAM.)
(It is made to work with MACH3 compatible motion controllers.)


(TOOLS DIAMETER: )
(Tool: 1 -> Dia: 0.308)
(Tool: 2 -> Dia: 0.4)
(Tool: 3 -> Dia: 1.0)
(Tool: 4 -> Dia: 1.5)
(Tool: 5 -> Dia: 1.7)
(Tool: 6 -> Dia: 3.2)

(FEEDRATE Z: )
(Tool: 1 -> Feedrate: 60.0)
(Tool: 2 -> Feedrate: 60.0)
(Tool: 3 -> Feedrate: 60.0)
(Tool: 4 -> Feedrate: 60.0)
(Tool: 5 -> Feedrate: 60.0)
(Tool: 6 -> Feedrate: 60.0)

(FEEDRATE RAPIDS: )
(Tool: 1 -> Feedrate Rapids: 1500)
(Tool: 2 -> Feedrate Rapids: 1500)
(Tool: 3 -> Feedrate Rapids: 1500)
(Tool: 4 -> Feedrate Rapids: 1500)
(Tool: 5 -> Feedrate Rapids: 1500)
(Tool: 6 -> Feedrate Rapids: 1500)

(Z_CUT: )
(Tool: 1 -> Z_Cut: -2.0)
(Tool: 2 -> Z_Cut: -2.0)
(Tool: 3 -> Z_Cut: -2.0)
(Tool: 4 -> Z_Cut: -2.0)
(Tool: 5 -> Z_Cut: -2.0)
(Tool: 6 -> Z_Cut: -2.0)

(Tools Offset: )
(Tool: 2 -> Offset Z: -0.0)

(Z_MOVE: )
(Tool: 1 -> Z_Move: 1.0)
(Tool: 2 -> Z_Move: 1.0)
(Tool: 3 -> Z_Move: 1.0)
(Tool: 4 -> Z_Move: 1.0)
(Tool: 5 -> Z_Move: 1.0)
(Tool: 6 -> Z_Move: 1.0)

(Z Start: None mm)
(Z End: 2.0 mm)
(Steps per circle: 64)
(Preprocessor Excellon: default)

(X range:    1.1970 ...  141.5510  mm)
(Y range:    1.3240 ...   87.4490  mm)

(Spindle Speed: 20000.0 RPM)
G21
G90
G94



G00 Z1.0000

G01 F60.00
M03 S20000
G4 P1
G00 X1.3970 Y67.4370
G01 Z-2.0000
G01 Z0
G00 Z1.0000
G00 X7.2910 Y66.1150
G01 Z-2.0000
G01 Z0
G00 Z1.0000
G00 X8.3820 Y64.7700
G01 Z-2.0000
G01 Z0
G00 Z1.0000
G00 X11.4300 Y55.6260
G01 Z-2.0000
G01 Z0
G00 Z1.0000
G00 X10.3190 Y52.4170
G01 Z-2.0000
G01 Z0
G00 Z1.0000
G00 X10.4140 Y49.1490
G01 Z-2.0000
G01 Z0
G00 Z1.0000
G00 X10.2740 Y48.0220
G01 Z-2.0000
G01 Z0
G00 Z1.0000
G00 X9.9080 Y44.5510
G01 Z-2.0000
G01 Z0
G00 Z1.0000
G00 X11.6840 Y43.9420
G01 Z-2.0000
G01 Z0
G00 Z1.0000
G00 X10.0570 Y42.8150
G01 Z-2.0000
G01 Z0
G00 Z1.0000
G00 X9.9780 Y41.7280
G01 Z-2.0000
G01 Z0
G00 Z1.0000
G00 X12.1920 Y40.3860
G01 Z-2.0000
G01 Z0
G00 Z1.0000
G00 X22.7330 Y44.0690
G01 Z-2.0000
G01 Z0
G00 Z1.0000
G00 X23.4950 Y40.4500
G01 Z-2.0000
G01 Z0
G00 Z1.0000
G00 X29.7180 Y41.4020
G01 Z-2.0000
G01 Z0
G00 Z1.0000
G00 X32.0670 Y40.8940
G01 Z-2.0000
G01 Z0
G00 Z1.0000
G00 X34.0360 Y46.4820
G01 Z-2.0000
G01 Z0
G00 Z1.0000
G00 X41.4020 Y46.7360
G01 Z-2.0000
G01 Z0
G00 Z1.0000
G00 X43.4340 Y52.0700
G01 Z-2.0000
G01 Z0
G00 Z1.0000
G00 X50.5460 Y63.2460
G01 Z-2.0000
G01 Z0
G00 Z1.0000
G00 X51.0540 Y66.8020
G01 Z-2.0000
G01 Z0
G00 Z1.0000
G00 X54.7370 Y72.7710
G01 Z-2.0000
G01 Z0
G00 Z1.0000
G00 X59.6900 Y68.3260
G01 Z-2.0000
G01 Z0
G00 Z1.0000
G00 X58.1660 Y56.6420
G01 Z-2.0000
G01 Z0
G00 Z1.0000
G00 X57.9120 Y44.9580
G01 Z-2.0000
G01 Z0
G00 Z1.0000
G00 X49.4030 Y50.1650
G01 Z-2.0000
G01 Z0
G00 Z1.0000
G00 X44.3230 Y44.0690
G01 Z-2.0000
G01 Z0
G00 Z1.0000
G00 X42.6720 Y41.1480
G01 Z-2.0000
G01 Z0
G00 Z1.0000
G00 X42.6720 Y37.8460
G01 Z-2.0000
G01 Z0
G00 Z1.0000
G00 X42.6720 Y35.5600
G01 Z-2.0000
G01 Z0
G00 Z1.0000
G00 X42.9260 Y32.2580
G01 Z-2.0000
G01 Z0
G00 Z1.0000
G00 X32.2580 Y28.1940
G01 Z-2.0000
G01 Z0
G00 Z1.0000
G00 X28.1940 Y27.4320
G01 Z-2.0000
G01 Z0
G00 Z1.0000
G00 X29.9720 Y22.3520
G01 Z-2.0000
G01 Z0
G00 Z1.0000
G00 X32.0040 Y19.3040
G01 Z-2.0000
G01 Z0
G00 Z1.0000
G00 X31.4960 Y16.5100
G01 Z-2.0000
G01 Z0
G00 Z1.0000
G00 X30.9880 Y14.2240
G01 Z-2.0000
G01 Z0
G00 Z1.0000
G00 X30.9880 Y11.9380
G01 Z-2.0000
G01 Z0
G00 Z1.0000
G00 X26.9240 Y13.4620
G01 Z-2.0000
G01 Z0
G00 Z1.0000
G00 X26.9240 Y15.4940
G01 Z-2.0000
G01 Z0
G00 Z1.0000
G00 X26.9240 Y18.0340
G01 Z-2.0000
G01 Z0
G00 Z1.0000
G00 X25.4000 Y20.0660
G01 Z-2.0000
G01 Z0
G00 Z1.0000
G00 X25.4000 Y22.0980
G01 Z-2.0000
G01 Z0
G00 Z1.0000
G00 X20.5740 Y14.2240
G01 Z-2.0000
G01 Z0
G00 Z1.0000
G00 X8.3820 Y19.5580
G01 Z-2.0000
G01 Z0
G00 Z1.0000
G00 X1.3970 Y22.4790
G01 Z-2.0000
G01 Z0
G00 Z1.0000
G00 X1.5240 Y17.7800
G01 Z-2.0000
G01 Z0
G00 Z1.0000
G00 X2.2860 Y17.7800
G01 Z-2.0000
G01 Z0
G00 Z1.0000
G00 X1.5240 Y1.7780
G01 Z-2.0000
G01 Z0
G00 Z1.0000
G00 X2.5400 Y1.7780
G01 Z-2.0000
G01 Z0
G00 Z1.0000
G00 X12.1920 Y1.5240
G01 Z-2.0000
G01 Z0
G00 Z1.0000
G00 X13.2080 Y1.5240
G01 Z-2.0000
G01 Z0
G00 Z1.0000
G00 X29.4640 Y1.5240
G01 Z-2.0000
G01 Z0
G00 Z1.0000
G00 X30.4800 Y1.5240
G01 Z-2.0000
G01 Z0
G00 Z1.0000
G00 X54.6100 Y18.0340
G01 Z-2.0000
G01 Z0
G00 Z1.0000
G00 X54.9910 Y28.8290
G01 Z-2.0000
G01 Z0
G00 Z1.0000
G00 X58.2930 Y31.6230
G01 Z-2.0000
G01 Z0
G00 Z1.0000
G00 X69.7230 Y34.1630
G01 Z-2.0000
G01 Z0
G00 Z1.0000
G00 X81.4070 Y37.9730
G01 Z-2.0000
G01 Z0
G00 Z1.0000
G00 X91.9480 Y33.2740
G01 Z-2.0000
G01 Z0
G00 Z1.0000
G00 X92.9420 Y33.5060
G01 Z-2.0000
G01 Z0
G00 Z1.0000
G00 X93.4720 Y29.9720
G01 Z-2.0000
G01 Z0
G00 Z1.0000
G00 X92.2020 Y26.4160
G01 Z-2.0000
G01 Z0
G00 Z1.0000
G00 X104.5210 Y37.9730
G01 Z-2.0000
G01 Z0
G00 Z1.0000
G00 X109.3470 Y37.9730
G01 Z-2.0000
G01 Z0
G00 Z1.0000
G00 X110.6170 Y45.3390
G01 Z-2.0000
G01 Z0
G00 Z1.0000
G00 X106.2990 Y49.1490
G01 Z-2.0000
G01 Z0
G00 Z1.0000
G00 X123.3170 Y54.9910
G01 Z-2.0000
G01 Z0
G00 Z1.0000
G00 X123.9520 Y56.8960
G01 Z-2.0000
G01 Z0
G00 Z1.0000
G00 X127.3810 Y54.2290
G01 Z-2.0000
G01 Z0
G00 Z1.0000
G00 X123.1900 Y48.0060
G01 Z-2.0000
G01 Z0
G00 Z1.0000
G00 X117.8560 Y45.2120
G01 Z-2.0000
G01 Z0
G00 Z1.0000
G00 X117.2210 Y40.2590
G01 Z-2.0000
G01 Z0
G00 Z1.0000
G00 X118.1100 Y35.8140
G01 Z-2.0000
G01 Z0
G00 Z1.0000
G00 X122.3010 Y31.8770
G01 Z-2.0000
G01 Z0
G00 Z1.0000
G00 X123.1900 Y38.1000
G01 Z-2.0000
G01 Z0
G00 Z1.0000
G00 X133.0960 Y35.5600
G01 Z-2.0000
G01 Z0
G00 Z1.0000
G00 X133.3500 Y38.1000
G01 Z-2.0000
G01 Z0
G00 Z1.0000
G00 X133.0960 Y40.6400
G01 Z-2.0000
G01 Z0
G00 Z1.0000
G00 X132.5880 Y45.4660
G01 Z-2.0000
G01 Z0
G00 Z1.0000
G00 X133.3500 Y48.0060
G01 Z-2.0000
G01 Z0
G00 Z1.0000
G00 X132.5880 Y50.5460
G01 Z-2.0000
G01 Z0
G00 Z1.0000
G00 X135.5090 Y51.4350
G01 Z-2.0000
G01 Z0
G00 Z1.0000
G00 X141.3510 Y52.7050
G01 Z-2.0000
G01 Z0
G00 Z1.0000
G00 X136.2710 Y56.5150
G01 Z-2.0000
G01 Z0
G00 Z1.0000
G00 X132.0020 Y59.9820
G01 Z-2.0000
G01 Z0
G00 Z1.0000
G00 X135.5090 Y68.7070
G01 Z-2.0000
G01 Z0
G00 Z1.0000
G00 X131.4450 Y74.2950
G01 Z-2.0000
G01 Z0
G00 Z1.0000
G00 X124.8410 Y87.2490
G01 Z-2.0000
G01 Z0
G00 Z1.0000
G00 X121.2850 Y85.2170
G01 Z-2.0000
G01 Z0
G00 Z1.0000
G00 X97.4090 Y85.2170
G01 Z-2.0000
G01 Z0
G00 Z1.0000
G00 X98.1710 Y79.1210
G01 Z-2.0000
G01 Z0
G00 Z1.0000
G00 X94.7420 Y79.2480
G01 Z-2.0000
G01 Z0
G00 Z1.0000
G00 X92.2020 Y79.2480
G01 Z-2.0000
G01 Z0
G00 Z1.0000
G00 X90.2970 Y78.3590
G01 Z-2.0000
G01 Z0
G00 Z1.0000
G00 X90.2970 Y63.8810
G01 Z-2.0000
G01 Z0
G00 Z1.0000
G00 X99.6950 Y58.5470
G01 Z-2.0000
G01 Z0
G00 Z1.0000
G00 X92.0750 Y52.1970
G01 Z-2.0000
G01 Z0
G00 Z1.0000
G00 X88.2650 Y47.1170
G01 Z-2.0000
G01 Z0
G00 Z1.0000
G00 X79.6290 Y49.4030
G01 Z-2.0000
G01 Z0
G00 Z1.0000
G00 X72.2630 Y48.1330
G01 Z-2.0000
G01 Z0
G00 Z1.0000
G00 X74.4220 Y57.6580
G01 Z-2.0000
G01 Z0
G00 Z1.0000
G00 X59.7980 Y77.0700
G01 Z-2.0000
G01 Z0
G00 Z1.0000
G00 X59.1630 Y80.5370
G01 Z-2.0000
G01 Z0
G00 Z1.0000
G00 X56.5150 Y78.6130
G01 Z-2.0000
G01 Z0
G00 Z1.0000
G00 X49.2760 Y82.5500
G01 Z-2.0000
G01 Z0
G00 Z1.0000
G00 X38.8620 Y82.5500
G01 Z-2.0000
G01 Z0
G00 Z1.0000
G00 X30.9880 Y82.5500
G01 Z-2.0000
G01 Z0
G00 Z1.0000
G00 X31.1150 Y75.5650
G01 Z-2.0000
G01 Z0
G00 Z1.0000
G00 X34.4170 Y70.2310
G01 Z-2.0000
G01 Z0
G00 Z1.0000
G00 X39.2430 Y69.2150
G01 Z-2.0000
G01 Z0
G00 Z1.0000
G00 X33.5280 Y62.4840
G01 Z-2.0000
G01 Z0
G00 Z1.0000
G00 X32.7660 Y55.3720
G01 Z-2.0000
G01 Z0
G00 Z1.0000
G00 X24.6380 Y56.6420
G01 Z-2.0000
G01 Z0
G00 Z1.0000
G00 X20.9550 Y63.3730
G01 Z-2.0000
G01 Z0
G00 Z1.0000
G00 X23.8760 Y66.0400
G01 Z-2.0000
G01 Z0
G00 Z1.0000
G00 X19.5580 Y69.3420
G01 Z-2.0000
G01 Z0
G00 Z1.0000
G00 X19.6850 Y80.1370
G01 Z-2.0000
G01 Z0
G00 Z1.0000
G00 X19.4310 Y87.2490
G01 Z-2.0000
G01 Z0
G00 Z1.0000
M05
G00 Z2.00

