(G-CODE GENERATED BY FLATCAM v8.993 - www.flatcam.org - Version Date: 2020/06/05)

(Name: mill_mounting_holes_2mm)
(Type: G-code from Geometry)
(Units: MM)

(Created on Friday, 15 January 2021 at 19:02)

(This preprocessor is the default preprocessor used by FlatCAM.)
(It is made to work with MACH3 compatible motion controllers.)

(TOOL DIAMETER: 2.0 mm)
(Feedrate_XY: 120.0 mm/min)
(Feedrate_Z: 60.0 mm/min)
(Feedrate rapids 1500.0 mm/min)

(Z_Cut: -2.0 mm)
(Z_Move: 1.0 mm)
(Z Start: None mm)
(Z End: 15.0 mm)
(Steps per circle: 64)
(Preprocessor Geometry: default)

(X range:    4.4800 ...  140.3000  mm)
(Y range:    4.4800 ...   81.8800  mm)

(Spindle Speed: 20000 RPM)
G21
G90
G94



G01 F120.00
G00 Z1.0000

M03 S20000
G4 P1.0
G00 X5.6800 Y7.6200
G01 F60.00
G01 Z-2.0000
G01 F120.00
G01 X5.6771 Y7.5612
G01 X5.6685 Y7.5029
G01 X5.6542 Y7.4458
G01 X5.6343 Y7.3904
G01 X5.6092 Y7.3372
G01 X5.5789 Y7.2867
G01 X5.5438 Y7.2394
G01 X5.5043 Y7.1957
G01 X5.4606 Y7.1562
G01 X5.4133 Y7.1211
G01 X5.3628 Y7.0908
G01 X5.3096 Y7.0657
G01 X5.2542 Y7.0458
G01 X5.1971 Y7.0315
G01 X5.1388 Y7.0229
G01 X5.0800 Y7.0200
G01 X5.0212 Y7.0229
G01 X4.9629 Y7.0315
G01 X4.9058 Y7.0458
G01 X4.8504 Y7.0657
G01 X4.7972 Y7.0908
G01 X4.7467 Y7.1211
G01 X4.6994 Y7.1562
G01 X4.6557 Y7.1957
G01 X4.6162 Y7.2394
G01 X4.5811 Y7.2867
G01 X4.5508 Y7.3372
G01 X4.5257 Y7.3904
G01 X4.5058 Y7.4458
G01 X4.4915 Y7.5029
G01 X4.4829 Y7.5612
G01 X4.4800 Y7.6200
G01 X4.4829 Y7.6788
G01 X4.4915 Y7.7371
G01 X4.5058 Y7.7942
G01 X4.5257 Y7.8496
G01 X4.5508 Y7.9028
G01 X4.5811 Y7.9533
G01 X4.6162 Y8.0006
G01 X4.6557 Y8.0443
G01 X4.6994 Y8.0838
G01 X4.7467 Y8.1189
G01 X4.7972 Y8.1492
G01 X4.8504 Y8.1743
G01 X4.9058 Y8.1942
G01 X4.9629 Y8.2085
G01 X5.0212 Y8.2171
G01 X5.0800 Y8.2200
G01 X5.1388 Y8.2171
G01 X5.1971 Y8.2085
G01 X5.2542 Y8.1942
G01 X5.3096 Y8.1743
G01 X5.3628 Y8.1492
G01 X5.4133 Y8.1189
G01 X5.4606 Y8.0838
G01 X5.5043 Y8.0443
G01 X5.5438 Y8.0006
G01 X5.5789 Y7.9533
G01 X5.6092 Y7.9028
G01 X5.6343 Y7.8496
G01 X5.6542 Y7.7942
G01 X5.6685 Y7.7371
G01 X5.6771 Y7.6788
G01 X5.6800 Y7.6200
G00 Z1.0000
G00 X5.6800 Y81.2800
G01 F60.00
G01 Z-2.0000
G01 F120.00
G01 X5.6771 Y81.2212
G01 X5.6685 Y81.1629
G01 X5.6542 Y81.1058
G01 X5.6343 Y81.0504
G01 X5.6092 Y80.9972
G01 X5.5789 Y80.9467
G01 X5.5438 Y80.8994
G01 X5.5043 Y80.8557
G01 X5.4606 Y80.8162
G01 X5.4133 Y80.7811
G01 X5.3628 Y80.7508
G01 X5.3096 Y80.7257
G01 X5.2542 Y80.7058
G01 X5.1971 Y80.6915
G01 X5.1388 Y80.6829
G01 X5.0800 Y80.6800
G01 X5.0212 Y80.6829
G01 X4.9629 Y80.6915
G01 X4.9058 Y80.7058
G01 X4.8504 Y80.7257
G01 X4.7972 Y80.7508
G01 X4.7467 Y80.7811
G01 X4.6994 Y80.8162
G01 X4.6557 Y80.8557
G01 X4.6162 Y80.8994
G01 X4.5811 Y80.9467
G01 X4.5508 Y80.9972
G01 X4.5257 Y81.0504
G01 X4.5058 Y81.1058
G01 X4.4915 Y81.1629
G01 X4.4829 Y81.2212
G01 X4.4800 Y81.2800
G01 X4.4829 Y81.3388
G01 X4.4915 Y81.3971
G01 X4.5058 Y81.4542
G01 X4.5257 Y81.5096
G01 X4.5508 Y81.5628
G01 X4.5811 Y81.6133
G01 X4.6162 Y81.6606
G01 X4.6557 Y81.7043
G01 X4.6994 Y81.7438
G01 X4.7467 Y81.7789
G01 X4.7972 Y81.8092
G01 X4.8504 Y81.8343
G01 X4.9058 Y81.8542
G01 X4.9629 Y81.8685
G01 X5.0212 Y81.8771
G01 X5.0800 Y81.8800
G01 X5.1388 Y81.8771
G01 X5.1971 Y81.8685
G01 X5.2542 Y81.8542
G01 X5.3096 Y81.8343
G01 X5.3628 Y81.8092
G01 X5.4133 Y81.7789
G01 X5.4606 Y81.7438
G01 X5.5043 Y81.7043
G01 X5.5438 Y81.6606
G01 X5.5789 Y81.6133
G01 X5.6092 Y81.5628
G01 X5.6343 Y81.5096
G01 X5.6542 Y81.4542
G01 X5.6685 Y81.3971
G01 X5.6771 Y81.3388
G01 X5.6800 Y81.2800
G00 Z1.0000
G00 X140.3000 Y81.2800
G01 F60.00
G01 Z-2.0000
G01 F120.00
G01 X140.2971 Y81.2212
G01 X140.2885 Y81.1629
G01 X140.2742 Y81.1058
G01 X140.2543 Y81.0504
G01 X140.2292 Y80.9972
G01 X140.1989 Y80.9467
G01 X140.1638 Y80.8994
G01 X140.1243 Y80.8557
G01 X140.0806 Y80.8162
G01 X140.0333 Y80.7811
G01 X139.9828 Y80.7508
G01 X139.9296 Y80.7257
G01 X139.8742 Y80.7058
G01 X139.8171 Y80.6915
G01 X139.7588 Y80.6829
G01 X139.7000 Y80.6800
G01 X139.6412 Y80.6829
G01 X139.5829 Y80.6915
G01 X139.5258 Y80.7058
G01 X139.4704 Y80.7257
G01 X139.4172 Y80.7508
G01 X139.3667 Y80.7811
G01 X139.3194 Y80.8162
G01 X139.2757 Y80.8557
G01 X139.2362 Y80.8994
G01 X139.2011 Y80.9467
G01 X139.1708 Y80.9972
G01 X139.1457 Y81.0504
G01 X139.1258 Y81.1058
G01 X139.1115 Y81.1629
G01 X139.1029 Y81.2212
G01 X139.1000 Y81.2800
G01 X139.1029 Y81.3388
G01 X139.1115 Y81.3971
G01 X139.1258 Y81.4542
G01 X139.1457 Y81.5096
G01 X139.1708 Y81.5628
G01 X139.2011 Y81.6133
G01 X139.2362 Y81.6606
G01 X139.2757 Y81.7043
G01 X139.3194 Y81.7438
G01 X139.3667 Y81.7789
G01 X139.4172 Y81.8092
G01 X139.4704 Y81.8343
G01 X139.5258 Y81.8542
G01 X139.5829 Y81.8685
G01 X139.6412 Y81.8771
G01 X139.7000 Y81.8800
G01 X139.7588 Y81.8771
G01 X139.8171 Y81.8685
G01 X139.8742 Y81.8542
G01 X139.9296 Y81.8343
G01 X139.9828 Y81.8092
G01 X140.0333 Y81.7789
G01 X140.0806 Y81.7438
G01 X140.1243 Y81.7043
G01 X140.1638 Y81.6606
G01 X140.1989 Y81.6133
G01 X140.2292 Y81.5628
G01 X140.2543 Y81.5096
G01 X140.2742 Y81.4542
G01 X140.2885 Y81.3971
G01 X140.2971 Y81.3388
G01 X140.3000 Y81.2800
G00 Z1.0000
G00 X140.3000 Y5.0800
G01 F60.00
G01 Z-2.0000
G01 F120.00
G01 X140.2971 Y5.0212
G01 X140.2885 Y4.9629
G01 X140.2742 Y4.9058
G01 X140.2543 Y4.8504
G01 X140.2292 Y4.7972
G01 X140.1989 Y4.7467
G01 X140.1638 Y4.6994
G01 X140.1243 Y4.6557
G01 X140.0806 Y4.6162
G01 X140.0333 Y4.5811
G01 X139.9828 Y4.5508
G01 X139.9296 Y4.5257
G01 X139.8742 Y4.5058
G01 X139.8171 Y4.4915
G01 X139.7588 Y4.4829
G01 X139.7000 Y4.4800
G01 X139.6412 Y4.4829
G01 X139.5829 Y4.4915
G01 X139.5258 Y4.5058
G01 X139.4704 Y4.5257
G01 X139.4172 Y4.5508
G01 X139.3667 Y4.5811
G01 X139.3194 Y4.6162
G01 X139.2757 Y4.6557
G01 X139.2362 Y4.6994
G01 X139.2011 Y4.7467
G01 X139.1708 Y4.7972
G01 X139.1457 Y4.8504
G01 X139.1258 Y4.9058
G01 X139.1115 Y4.9629
G01 X139.1029 Y5.0212
G01 X139.1000 Y5.0800
G01 X139.1029 Y5.1388
G01 X139.1115 Y5.1971
G01 X139.1258 Y5.2542
G01 X139.1457 Y5.3096
G01 X139.1708 Y5.3628
G01 X139.2011 Y5.4133
G01 X139.2362 Y5.4606
G01 X139.2757 Y5.5043
G01 X139.3194 Y5.5438
G01 X139.3667 Y5.5789
G01 X139.4172 Y5.6092
G01 X139.4704 Y5.6343
G01 X139.5258 Y5.6542
G01 X139.5829 Y5.6685
G01 X139.6412 Y5.6771
G01 X139.7000 Y5.6800
G01 X139.7588 Y5.6771
G01 X139.8171 Y5.6685
G01 X139.8742 Y5.6542
G01 X139.9296 Y5.6343
G01 X139.9828 Y5.6092
G01 X140.0333 Y5.5789
G01 X140.0806 Y5.5438
G01 X140.1243 Y5.5043
G01 X140.1638 Y5.4606
G01 X140.1989 Y5.4133
G01 X140.2292 Y5.3628
G01 X140.2543 Y5.3096
G01 X140.2742 Y5.2542
G01 X140.2885 Y5.1971
G01 X140.2971 Y5.1388
G01 X140.3000 Y5.0800
G00 Z1.0000
M05
G00 Z1.0000
G00 Z15.00

