(G-CODE GENERATED BY FLATCAM v8.993 - www.flatcam.org - Version Date: 2020/06/05)

(Name: mill_mmic_holes_2mm)
(Type: G-code from Geometry)
(Units: MM)

(Created on Friday, 15 January 2021 at 18:46)

(This preprocessor is the default preprocessor used by FlatCAM.)
(It is made to work with MACH3 compatible motion controllers.)

(TOOL DIAMETER: 2.0 mm)
(Feedrate_XY: 120.0 mm/min)
(Feedrate_Z: 60.0 mm/min)
(Feedrate rapids 1500.0 mm/min)

(Z_Cut: -2.0 mm)
(DepthPerCut: 0.6 mm <=>4 passes)
(Z_Move: 1.0 mm)
(Z Start: None mm)
(Z End: 15.0 mm)
(Steps per circle: 64)
(Preprocessor Geometry: default)

(X range:   37.5760 ...  128.5400  mm)
(Y range:   21.3200 ...   38.6240  mm)

(Spindle Speed: 20000 RPM)
G21
G90
G94



G01 F120.00
G00 Z1.0000

M03 S20000
G4 P1.0
G00 X38.1160 Y21.5900
G01 F60.00
G01 Z-0.6000
G01 F120.00
G01 X38.1147 Y21.5635
G01 X38.1108 Y21.5373
G01 X38.1044 Y21.5116
G01 X38.0954 Y21.4867
G01 X38.0841 Y21.4627
G01 X38.0705 Y21.4400
G01 X38.0547 Y21.4187
G01 X38.0369 Y21.3991
G01 X38.0173 Y21.3813
G01 X37.9960 Y21.3655
G01 X37.9733 Y21.3519
G01 X37.9493 Y21.3406
G01 X37.9244 Y21.3316
G01 X37.8987 Y21.3252
G01 X37.8725 Y21.3213
G01 X37.8460 Y21.3200
G01 X37.8195 Y21.3213
G01 X37.7933 Y21.3252
G01 X37.7676 Y21.3316
G01 X37.7427 Y21.3406
G01 X37.7187 Y21.3519
G01 X37.6960 Y21.3655
G01 X37.6747 Y21.3813
G01 X37.6551 Y21.3991
G01 X37.6373 Y21.4187
G01 X37.6215 Y21.4400
G01 X37.6079 Y21.4627
G01 X37.5966 Y21.4867
G01 X37.5876 Y21.5116
G01 X37.5812 Y21.5373
G01 X37.5773 Y21.5635
G01 X37.5760 Y21.5900
G01 X37.5773 Y21.6165
G01 X37.5812 Y21.6427
G01 X37.5876 Y21.6684
G01 X37.5966 Y21.6933
G01 X37.6079 Y21.7173
G01 X37.6215 Y21.7400
G01 X37.6373 Y21.7613
G01 X37.6551 Y21.7809
G01 X37.6747 Y21.7987
G01 X37.6960 Y21.8145
G01 X37.7187 Y21.8281
G01 X37.7427 Y21.8394
G01 X37.7676 Y21.8484
G01 X37.7933 Y21.8548
G01 X37.8195 Y21.8587
G01 X37.8460 Y21.8600
G01 X37.8725 Y21.8587
G01 X37.8987 Y21.8548
G01 X37.9244 Y21.8484
G01 X37.9493 Y21.8394
G01 X37.9733 Y21.8281
G01 X37.9960 Y21.8145
G01 X38.0173 Y21.7987
G01 X38.0369 Y21.7809
G01 X38.0547 Y21.7613
G01 X38.0705 Y21.7400
G01 X38.0841 Y21.7173
G01 X38.0954 Y21.6933
G01 X38.1044 Y21.6684
G01 X38.1108 Y21.6427
G01 X38.1147 Y21.6165
G01 X38.1160 Y21.5900
G00 X38.1160 Y21.5900
G01 F60.00
G01 Z-1.2000
G01 F120.00
G01 X38.1147 Y21.5635
G01 X38.1108 Y21.5373
G01 X38.1044 Y21.5116
G01 X38.0954 Y21.4867
G01 X38.0841 Y21.4627
G01 X38.0705 Y21.4400
G01 X38.0547 Y21.4187
G01 X38.0369 Y21.3991
G01 X38.0173 Y21.3813
G01 X37.9960 Y21.3655
G01 X37.9733 Y21.3519
G01 X37.9493 Y21.3406
G01 X37.9244 Y21.3316
G01 X37.8987 Y21.3252
G01 X37.8725 Y21.3213
G01 X37.8460 Y21.3200
G01 X37.8195 Y21.3213
G01 X37.7933 Y21.3252
G01 X37.7676 Y21.3316
G01 X37.7427 Y21.3406
G01 X37.7187 Y21.3519
G01 X37.6960 Y21.3655
G01 X37.6747 Y21.3813
G01 X37.6551 Y21.3991
G01 X37.6373 Y21.4187
G01 X37.6215 Y21.4400
G01 X37.6079 Y21.4627
G01 X37.5966 Y21.4867
G01 X37.5876 Y21.5116
G01 X37.5812 Y21.5373
G01 X37.5773 Y21.5635
G01 X37.5760 Y21.5900
G01 X37.5773 Y21.6165
G01 X37.5812 Y21.6427
G01 X37.5876 Y21.6684
G01 X37.5966 Y21.6933
G01 X37.6079 Y21.7173
G01 X37.6215 Y21.7400
G01 X37.6373 Y21.7613
G01 X37.6551 Y21.7809
G01 X37.6747 Y21.7987
G01 X37.6960 Y21.8145
G01 X37.7187 Y21.8281
G01 X37.7427 Y21.8394
G01 X37.7676 Y21.8484
G01 X37.7933 Y21.8548
G01 X37.8195 Y21.8587
G01 X37.8460 Y21.8600
G01 X37.8725 Y21.8587
G01 X37.8987 Y21.8548
G01 X37.9244 Y21.8484
G01 X37.9493 Y21.8394
G01 X37.9733 Y21.8281
G01 X37.9960 Y21.8145
G01 X38.0173 Y21.7987
G01 X38.0369 Y21.7809
G01 X38.0547 Y21.7613
G01 X38.0705 Y21.7400
G01 X38.0841 Y21.7173
G01 X38.0954 Y21.6933
G01 X38.1044 Y21.6684
G01 X38.1108 Y21.6427
G01 X38.1147 Y21.6165
G01 X38.1160 Y21.5900
G00 X38.1160 Y21.5900
G01 F60.00
G01 Z-1.8000
G01 F120.00
G01 X38.1147 Y21.5635
G01 X38.1108 Y21.5373
G01 X38.1044 Y21.5116
G01 X38.0954 Y21.4867
G01 X38.0841 Y21.4627
G01 X38.0705 Y21.4400
G01 X38.0547 Y21.4187
G01 X38.0369 Y21.3991
G01 X38.0173 Y21.3813
G01 X37.9960 Y21.3655
G01 X37.9733 Y21.3519
G01 X37.9493 Y21.3406
G01 X37.9244 Y21.3316
G01 X37.8987 Y21.3252
G01 X37.8725 Y21.3213
G01 X37.8460 Y21.3200
G01 X37.8195 Y21.3213
G01 X37.7933 Y21.3252
G01 X37.7676 Y21.3316
G01 X37.7427 Y21.3406
G01 X37.7187 Y21.3519
G01 X37.6960 Y21.3655
G01 X37.6747 Y21.3813
G01 X37.6551 Y21.3991
G01 X37.6373 Y21.4187
G01 X37.6215 Y21.4400
G01 X37.6079 Y21.4627
G01 X37.5966 Y21.4867
G01 X37.5876 Y21.5116
G01 X37.5812 Y21.5373
G01 X37.5773 Y21.5635
G01 X37.5760 Y21.5900
G01 X37.5773 Y21.6165
G01 X37.5812 Y21.6427
G01 X37.5876 Y21.6684
G01 X37.5966 Y21.6933
G01 X37.6079 Y21.7173
G01 X37.6215 Y21.7400
G01 X37.6373 Y21.7613
G01 X37.6551 Y21.7809
G01 X37.6747 Y21.7987
G01 X37.6960 Y21.8145
G01 X37.7187 Y21.8281
G01 X37.7427 Y21.8394
G01 X37.7676 Y21.8484
G01 X37.7933 Y21.8548
G01 X37.8195 Y21.8587
G01 X37.8460 Y21.8600
G01 X37.8725 Y21.8587
G01 X37.8987 Y21.8548
G01 X37.9244 Y21.8484
G01 X37.9493 Y21.8394
G01 X37.9733 Y21.8281
G01 X37.9960 Y21.8145
G01 X38.0173 Y21.7987
G01 X38.0369 Y21.7809
G01 X38.0547 Y21.7613
G01 X38.0705 Y21.7400
G01 X38.0841 Y21.7173
G01 X38.0954 Y21.6933
G01 X38.1044 Y21.6684
G01 X38.1108 Y21.6427
G01 X38.1147 Y21.6165
G01 X38.1160 Y21.5900
G00 X38.1160 Y21.5900
G01 F60.00
G01 Z-2.0000
G01 F120.00
G01 X38.1147 Y21.5635
G01 X38.1108 Y21.5373
G01 X38.1044 Y21.5116
G01 X38.0954 Y21.4867
G01 X38.0841 Y21.4627
G01 X38.0705 Y21.4400
G01 X38.0547 Y21.4187
G01 X38.0369 Y21.3991
G01 X38.0173 Y21.3813
G01 X37.9960 Y21.3655
G01 X37.9733 Y21.3519
G01 X37.9493 Y21.3406
G01 X37.9244 Y21.3316
G01 X37.8987 Y21.3252
G01 X37.8725 Y21.3213
G01 X37.8460 Y21.3200
G01 X37.8195 Y21.3213
G01 X37.7933 Y21.3252
G01 X37.7676 Y21.3316
G01 X37.7427 Y21.3406
G01 X37.7187 Y21.3519
G01 X37.6960 Y21.3655
G01 X37.6747 Y21.3813
G01 X37.6551 Y21.3991
G01 X37.6373 Y21.4187
G01 X37.6215 Y21.4400
G01 X37.6079 Y21.4627
G01 X37.5966 Y21.4867
G01 X37.5876 Y21.5116
G01 X37.5812 Y21.5373
G01 X37.5773 Y21.5635
G01 X37.5760 Y21.5900
G01 X37.5773 Y21.6165
G01 X37.5812 Y21.6427
G01 X37.5876 Y21.6684
G01 X37.5966 Y21.6933
G01 X37.6079 Y21.7173
G01 X37.6215 Y21.7400
G01 X37.6373 Y21.7613
G01 X37.6551 Y21.7809
G01 X37.6747 Y21.7987
G01 X37.6960 Y21.8145
G01 X37.7187 Y21.8281
G01 X37.7427 Y21.8394
G01 X37.7676 Y21.8484
G01 X37.7933 Y21.8548
G01 X37.8195 Y21.8587
G01 X37.8460 Y21.8600
G01 X37.8725 Y21.8587
G01 X37.8987 Y21.8548
G01 X37.9244 Y21.8484
G01 X37.9493 Y21.8394
G01 X37.9733 Y21.8281
G01 X37.9960 Y21.8145
G01 X38.0173 Y21.7987
G01 X38.0369 Y21.7809
G01 X38.0547 Y21.7613
G01 X38.0705 Y21.7400
G01 X38.0841 Y21.7173
G01 X38.0954 Y21.6933
G01 X38.1044 Y21.6684
G01 X38.1108 Y21.6427
G01 X38.1147 Y21.6165
G01 X38.1160 Y21.5900
G00 Z1.0000
G00 X57.4200 Y21.5900
G01 F60.00
G01 Z-0.6000
G01 F120.00
G01 X57.4187 Y21.5635
G01 X57.4148 Y21.5373
G01 X57.4084 Y21.5116
G01 X57.3994 Y21.4867
G01 X57.3881 Y21.4627
G01 X57.3745 Y21.4400
G01 X57.3587 Y21.4187
G01 X57.3409 Y21.3991
G01 X57.3213 Y21.3813
G01 X57.3000 Y21.3655
G01 X57.2773 Y21.3519
G01 X57.2533 Y21.3406
G01 X57.2284 Y21.3316
G01 X57.2027 Y21.3252
G01 X57.1765 Y21.3213
G01 X57.1500 Y21.3200
G01 X57.1235 Y21.3213
G01 X57.0973 Y21.3252
G01 X57.0716 Y21.3316
G01 X57.0467 Y21.3406
G01 X57.0227 Y21.3519
G01 X57.0000 Y21.3655
G01 X56.9787 Y21.3813
G01 X56.9591 Y21.3991
G01 X56.9413 Y21.4187
G01 X56.9255 Y21.4400
G01 X56.9119 Y21.4627
G01 X56.9006 Y21.4867
G01 X56.8916 Y21.5116
G01 X56.8852 Y21.5373
G01 X56.8813 Y21.5635
G01 X56.8800 Y21.5900
G01 X56.8813 Y21.6165
G01 X56.8852 Y21.6427
G01 X56.8916 Y21.6684
G01 X56.9006 Y21.6933
G01 X56.9119 Y21.7173
G01 X56.9255 Y21.7400
G01 X56.9413 Y21.7613
G01 X56.9591 Y21.7809
G01 X56.9787 Y21.7987
G01 X57.0000 Y21.8145
G01 X57.0227 Y21.8281
G01 X57.0467 Y21.8394
G01 X57.0716 Y21.8484
G01 X57.0973 Y21.8548
G01 X57.1235 Y21.8587
G01 X57.1500 Y21.8600
G01 X57.1765 Y21.8587
G01 X57.2027 Y21.8548
G01 X57.2284 Y21.8484
G01 X57.2533 Y21.8394
G01 X57.2773 Y21.8281
G01 X57.3000 Y21.8145
G01 X57.3213 Y21.7987
G01 X57.3409 Y21.7809
G01 X57.3587 Y21.7613
G01 X57.3745 Y21.7400
G01 X57.3881 Y21.7173
G01 X57.3994 Y21.6933
G01 X57.4084 Y21.6684
G01 X57.4148 Y21.6427
G01 X57.4187 Y21.6165
G01 X57.4200 Y21.5900
G00 X57.4200 Y21.5900
G01 F60.00
G01 Z-1.2000
G01 F120.00
G01 X57.4187 Y21.5635
G01 X57.4148 Y21.5373
G01 X57.4084 Y21.5116
G01 X57.3994 Y21.4867
G01 X57.3881 Y21.4627
G01 X57.3745 Y21.4400
G01 X57.3587 Y21.4187
G01 X57.3409 Y21.3991
G01 X57.3213 Y21.3813
G01 X57.3000 Y21.3655
G01 X57.2773 Y21.3519
G01 X57.2533 Y21.3406
G01 X57.2284 Y21.3316
G01 X57.2027 Y21.3252
G01 X57.1765 Y21.3213
G01 X57.1500 Y21.3200
G01 X57.1235 Y21.3213
G01 X57.0973 Y21.3252
G01 X57.0716 Y21.3316
G01 X57.0467 Y21.3406
G01 X57.0227 Y21.3519
G01 X57.0000 Y21.3655
G01 X56.9787 Y21.3813
G01 X56.9591 Y21.3991
G01 X56.9413 Y21.4187
G01 X56.9255 Y21.4400
G01 X56.9119 Y21.4627
G01 X56.9006 Y21.4867
G01 X56.8916 Y21.5116
G01 X56.8852 Y21.5373
G01 X56.8813 Y21.5635
G01 X56.8800 Y21.5900
G01 X56.8813 Y21.6165
G01 X56.8852 Y21.6427
G01 X56.8916 Y21.6684
G01 X56.9006 Y21.6933
G01 X56.9119 Y21.7173
G01 X56.9255 Y21.7400
G01 X56.9413 Y21.7613
G01 X56.9591 Y21.7809
G01 X56.9787 Y21.7987
G01 X57.0000 Y21.8145
G01 X57.0227 Y21.8281
G01 X57.0467 Y21.8394
G01 X57.0716 Y21.8484
G01 X57.0973 Y21.8548
G01 X57.1235 Y21.8587
G01 X57.1500 Y21.8600
G01 X57.1765 Y21.8587
G01 X57.2027 Y21.8548
G01 X57.2284 Y21.8484
G01 X57.2533 Y21.8394
G01 X57.2773 Y21.8281
G01 X57.3000 Y21.8145
G01 X57.3213 Y21.7987
G01 X57.3409 Y21.7809
G01 X57.3587 Y21.7613
G01 X57.3745 Y21.7400
G01 X57.3881 Y21.7173
G01 X57.3994 Y21.6933
G01 X57.4084 Y21.6684
G01 X57.4148 Y21.6427
G01 X57.4187 Y21.6165
G01 X57.4200 Y21.5900
G00 X57.4200 Y21.5900
G01 F60.00
G01 Z-1.8000
G01 F120.00
G01 X57.4187 Y21.5635
G01 X57.4148 Y21.5373
G01 X57.4084 Y21.5116
G01 X57.3994 Y21.4867
G01 X57.3881 Y21.4627
G01 X57.3745 Y21.4400
G01 X57.3587 Y21.4187
G01 X57.3409 Y21.3991
G01 X57.3213 Y21.3813
G01 X57.3000 Y21.3655
G01 X57.2773 Y21.3519
G01 X57.2533 Y21.3406
G01 X57.2284 Y21.3316
G01 X57.2027 Y21.3252
G01 X57.1765 Y21.3213
G01 X57.1500 Y21.3200
G01 X57.1235 Y21.3213
G01 X57.0973 Y21.3252
G01 X57.0716 Y21.3316
G01 X57.0467 Y21.3406
G01 X57.0227 Y21.3519
G01 X57.0000 Y21.3655
G01 X56.9787 Y21.3813
G01 X56.9591 Y21.3991
G01 X56.9413 Y21.4187
G01 X56.9255 Y21.4400
G01 X56.9119 Y21.4627
G01 X56.9006 Y21.4867
G01 X56.8916 Y21.5116
G01 X56.8852 Y21.5373
G01 X56.8813 Y21.5635
G01 X56.8800 Y21.5900
G01 X56.8813 Y21.6165
G01 X56.8852 Y21.6427
G01 X56.8916 Y21.6684
G01 X56.9006 Y21.6933
G01 X56.9119 Y21.7173
G01 X56.9255 Y21.7400
G01 X56.9413 Y21.7613
G01 X56.9591 Y21.7809
G01 X56.9787 Y21.7987
G01 X57.0000 Y21.8145
G01 X57.0227 Y21.8281
G01 X57.0467 Y21.8394
G01 X57.0716 Y21.8484
G01 X57.0973 Y21.8548
G01 X57.1235 Y21.8587
G01 X57.1500 Y21.8600
G01 X57.1765 Y21.8587
G01 X57.2027 Y21.8548
G01 X57.2284 Y21.8484
G01 X57.2533 Y21.8394
G01 X57.2773 Y21.8281
G01 X57.3000 Y21.8145
G01 X57.3213 Y21.7987
G01 X57.3409 Y21.7809
G01 X57.3587 Y21.7613
G01 X57.3745 Y21.7400
G01 X57.3881 Y21.7173
G01 X57.3994 Y21.6933
G01 X57.4084 Y21.6684
G01 X57.4148 Y21.6427
G01 X57.4187 Y21.6165
G01 X57.4200 Y21.5900
G00 X57.4200 Y21.5900
G01 F60.00
G01 Z-2.0000
G01 F120.00
G01 X57.4187 Y21.5635
G01 X57.4148 Y21.5373
G01 X57.4084 Y21.5116
G01 X57.3994 Y21.4867
G01 X57.3881 Y21.4627
G01 X57.3745 Y21.4400
G01 X57.3587 Y21.4187
G01 X57.3409 Y21.3991
G01 X57.3213 Y21.3813
G01 X57.3000 Y21.3655
G01 X57.2773 Y21.3519
G01 X57.2533 Y21.3406
G01 X57.2284 Y21.3316
G01 X57.2027 Y21.3252
G01 X57.1765 Y21.3213
G01 X57.1500 Y21.3200
G01 X57.1235 Y21.3213
G01 X57.0973 Y21.3252
G01 X57.0716 Y21.3316
G01 X57.0467 Y21.3406
G01 X57.0227 Y21.3519
G01 X57.0000 Y21.3655
G01 X56.9787 Y21.3813
G01 X56.9591 Y21.3991
G01 X56.9413 Y21.4187
G01 X56.9255 Y21.4400
G01 X56.9119 Y21.4627
G01 X56.9006 Y21.4867
G01 X56.8916 Y21.5116
G01 X56.8852 Y21.5373
G01 X56.8813 Y21.5635
G01 X56.8800 Y21.5900
G01 X56.8813 Y21.6165
G01 X56.8852 Y21.6427
G01 X56.8916 Y21.6684
G01 X56.9006 Y21.6933
G01 X56.9119 Y21.7173
G01 X56.9255 Y21.7400
G01 X56.9413 Y21.7613
G01 X56.9591 Y21.7809
G01 X56.9787 Y21.7987
G01 X57.0000 Y21.8145
G01 X57.0227 Y21.8281
G01 X57.0467 Y21.8394
G01 X57.0716 Y21.8484
G01 X57.0973 Y21.8548
G01 X57.1235 Y21.8587
G01 X57.1500 Y21.8600
G01 X57.1765 Y21.8587
G01 X57.2027 Y21.8548
G01 X57.2284 Y21.8484
G01 X57.2533 Y21.8394
G01 X57.2773 Y21.8281
G01 X57.3000 Y21.8145
G01 X57.3213 Y21.7987
G01 X57.3409 Y21.7809
G01 X57.3587 Y21.7613
G01 X57.3745 Y21.7400
G01 X57.3881 Y21.7173
G01 X57.3994 Y21.6933
G01 X57.4084 Y21.6684
G01 X57.4148 Y21.6427
G01 X57.4187 Y21.6165
G01 X57.4200 Y21.5900
G00 Z1.0000
G00 X67.5800 Y21.5900
G01 F60.00
G01 Z-0.6000
G01 F120.00
G01 X67.5787 Y21.5635
G01 X67.5748 Y21.5373
G01 X67.5684 Y21.5116
G01 X67.5594 Y21.4867
G01 X67.5481 Y21.4627
G01 X67.5345 Y21.4400
G01 X67.5187 Y21.4187
G01 X67.5009 Y21.3991
G01 X67.4813 Y21.3813
G01 X67.4600 Y21.3655
G01 X67.4373 Y21.3519
G01 X67.4133 Y21.3406
G01 X67.3884 Y21.3316
G01 X67.3627 Y21.3252
G01 X67.3365 Y21.3213
G01 X67.3100 Y21.3200
G01 X67.2835 Y21.3213
G01 X67.2573 Y21.3252
G01 X67.2316 Y21.3316
G01 X67.2067 Y21.3406
G01 X67.1827 Y21.3519
G01 X67.1600 Y21.3655
G01 X67.1387 Y21.3813
G01 X67.1191 Y21.3991
G01 X67.1013 Y21.4187
G01 X67.0855 Y21.4400
G01 X67.0719 Y21.4627
G01 X67.0606 Y21.4867
G01 X67.0516 Y21.5116
G01 X67.0452 Y21.5373
G01 X67.0413 Y21.5635
G01 X67.0400 Y21.5900
G01 X67.0413 Y21.6165
G01 X67.0452 Y21.6427
G01 X67.0516 Y21.6684
G01 X67.0606 Y21.6933
G01 X67.0719 Y21.7173
G01 X67.0855 Y21.7400
G01 X67.1013 Y21.7613
G01 X67.1191 Y21.7809
G01 X67.1387 Y21.7987
G01 X67.1600 Y21.8145
G01 X67.1827 Y21.8281
G01 X67.2067 Y21.8394
G01 X67.2316 Y21.8484
G01 X67.2573 Y21.8548
G01 X67.2835 Y21.8587
G01 X67.3100 Y21.8600
G01 X67.3365 Y21.8587
G01 X67.3627 Y21.8548
G01 X67.3884 Y21.8484
G01 X67.4133 Y21.8394
G01 X67.4373 Y21.8281
G01 X67.4600 Y21.8145
G01 X67.4813 Y21.7987
G01 X67.5009 Y21.7809
G01 X67.5187 Y21.7613
G01 X67.5345 Y21.7400
G01 X67.5481 Y21.7173
G01 X67.5594 Y21.6933
G01 X67.5684 Y21.6684
G01 X67.5748 Y21.6427
G01 X67.5787 Y21.6165
G01 X67.5800 Y21.5900
G00 X67.5800 Y21.5900
G01 F60.00
G01 Z-1.2000
G01 F120.00
G01 X67.5787 Y21.5635
G01 X67.5748 Y21.5373
G01 X67.5684 Y21.5116
G01 X67.5594 Y21.4867
G01 X67.5481 Y21.4627
G01 X67.5345 Y21.4400
G01 X67.5187 Y21.4187
G01 X67.5009 Y21.3991
G01 X67.4813 Y21.3813
G01 X67.4600 Y21.3655
G01 X67.4373 Y21.3519
G01 X67.4133 Y21.3406
G01 X67.3884 Y21.3316
G01 X67.3627 Y21.3252
G01 X67.3365 Y21.3213
G01 X67.3100 Y21.3200
G01 X67.2835 Y21.3213
G01 X67.2573 Y21.3252
G01 X67.2316 Y21.3316
G01 X67.2067 Y21.3406
G01 X67.1827 Y21.3519
G01 X67.1600 Y21.3655
G01 X67.1387 Y21.3813
G01 X67.1191 Y21.3991
G01 X67.1013 Y21.4187
G01 X67.0855 Y21.4400
G01 X67.0719 Y21.4627
G01 X67.0606 Y21.4867
G01 X67.0516 Y21.5116
G01 X67.0452 Y21.5373
G01 X67.0413 Y21.5635
G01 X67.0400 Y21.5900
G01 X67.0413 Y21.6165
G01 X67.0452 Y21.6427
G01 X67.0516 Y21.6684
G01 X67.0606 Y21.6933
G01 X67.0719 Y21.7173
G01 X67.0855 Y21.7400
G01 X67.1013 Y21.7613
G01 X67.1191 Y21.7809
G01 X67.1387 Y21.7987
G01 X67.1600 Y21.8145
G01 X67.1827 Y21.8281
G01 X67.2067 Y21.8394
G01 X67.2316 Y21.8484
G01 X67.2573 Y21.8548
G01 X67.2835 Y21.8587
G01 X67.3100 Y21.8600
G01 X67.3365 Y21.8587
G01 X67.3627 Y21.8548
G01 X67.3884 Y21.8484
G01 X67.4133 Y21.8394
G01 X67.4373 Y21.8281
G01 X67.4600 Y21.8145
G01 X67.4813 Y21.7987
G01 X67.5009 Y21.7809
G01 X67.5187 Y21.7613
G01 X67.5345 Y21.7400
G01 X67.5481 Y21.7173
G01 X67.5594 Y21.6933
G01 X67.5684 Y21.6684
G01 X67.5748 Y21.6427
G01 X67.5787 Y21.6165
G01 X67.5800 Y21.5900
G00 X67.5800 Y21.5900
G01 F60.00
G01 Z-1.8000
G01 F120.00
G01 X67.5787 Y21.5635
G01 X67.5748 Y21.5373
G01 X67.5684 Y21.5116
G01 X67.5594 Y21.4867
G01 X67.5481 Y21.4627
G01 X67.5345 Y21.4400
G01 X67.5187 Y21.4187
G01 X67.5009 Y21.3991
G01 X67.4813 Y21.3813
G01 X67.4600 Y21.3655
G01 X67.4373 Y21.3519
G01 X67.4133 Y21.3406
G01 X67.3884 Y21.3316
G01 X67.3627 Y21.3252
G01 X67.3365 Y21.3213
G01 X67.3100 Y21.3200
G01 X67.2835 Y21.3213
G01 X67.2573 Y21.3252
G01 X67.2316 Y21.3316
G01 X67.2067 Y21.3406
G01 X67.1827 Y21.3519
G01 X67.1600 Y21.3655
G01 X67.1387 Y21.3813
G01 X67.1191 Y21.3991
G01 X67.1013 Y21.4187
G01 X67.0855 Y21.4400
G01 X67.0719 Y21.4627
G01 X67.0606 Y21.4867
G01 X67.0516 Y21.5116
G01 X67.0452 Y21.5373
G01 X67.0413 Y21.5635
G01 X67.0400 Y21.5900
G01 X67.0413 Y21.6165
G01 X67.0452 Y21.6427
G01 X67.0516 Y21.6684
G01 X67.0606 Y21.6933
G01 X67.0719 Y21.7173
G01 X67.0855 Y21.7400
G01 X67.1013 Y21.7613
G01 X67.1191 Y21.7809
G01 X67.1387 Y21.7987
G01 X67.1600 Y21.8145
G01 X67.1827 Y21.8281
G01 X67.2067 Y21.8394
G01 X67.2316 Y21.8484
G01 X67.2573 Y21.8548
G01 X67.2835 Y21.8587
G01 X67.3100 Y21.8600
G01 X67.3365 Y21.8587
G01 X67.3627 Y21.8548
G01 X67.3884 Y21.8484
G01 X67.4133 Y21.8394
G01 X67.4373 Y21.8281
G01 X67.4600 Y21.8145
G01 X67.4813 Y21.7987
G01 X67.5009 Y21.7809
G01 X67.5187 Y21.7613
G01 X67.5345 Y21.7400
G01 X67.5481 Y21.7173
G01 X67.5594 Y21.6933
G01 X67.5684 Y21.6684
G01 X67.5748 Y21.6427
G01 X67.5787 Y21.6165
G01 X67.5800 Y21.5900
G00 X67.5800 Y21.5900
G01 F60.00
G01 Z-2.0000
G01 F120.00
G01 X67.5787 Y21.5635
G01 X67.5748 Y21.5373
G01 X67.5684 Y21.5116
G01 X67.5594 Y21.4867
G01 X67.5481 Y21.4627
G01 X67.5345 Y21.4400
G01 X67.5187 Y21.4187
G01 X67.5009 Y21.3991
G01 X67.4813 Y21.3813
G01 X67.4600 Y21.3655
G01 X67.4373 Y21.3519
G01 X67.4133 Y21.3406
G01 X67.3884 Y21.3316
G01 X67.3627 Y21.3252
G01 X67.3365 Y21.3213
G01 X67.3100 Y21.3200
G01 X67.2835 Y21.3213
G01 X67.2573 Y21.3252
G01 X67.2316 Y21.3316
G01 X67.2067 Y21.3406
G01 X67.1827 Y21.3519
G01 X67.1600 Y21.3655
G01 X67.1387 Y21.3813
G01 X67.1191 Y21.3991
G01 X67.1013 Y21.4187
G01 X67.0855 Y21.4400
G01 X67.0719 Y21.4627
G01 X67.0606 Y21.4867
G01 X67.0516 Y21.5116
G01 X67.0452 Y21.5373
G01 X67.0413 Y21.5635
G01 X67.0400 Y21.5900
G01 X67.0413 Y21.6165
G01 X67.0452 Y21.6427
G01 X67.0516 Y21.6684
G01 X67.0606 Y21.6933
G01 X67.0719 Y21.7173
G01 X67.0855 Y21.7400
G01 X67.1013 Y21.7613
G01 X67.1191 Y21.7809
G01 X67.1387 Y21.7987
G01 X67.1600 Y21.8145
G01 X67.1827 Y21.8281
G01 X67.2067 Y21.8394
G01 X67.2316 Y21.8484
G01 X67.2573 Y21.8548
G01 X67.2835 Y21.8587
G01 X67.3100 Y21.8600
G01 X67.3365 Y21.8587
G01 X67.3627 Y21.8548
G01 X67.3884 Y21.8484
G01 X67.4133 Y21.8394
G01 X67.4373 Y21.8281
G01 X67.4600 Y21.8145
G01 X67.4813 Y21.7987
G01 X67.5009 Y21.7809
G01 X67.5187 Y21.7613
G01 X67.5345 Y21.7400
G01 X67.5481 Y21.7173
G01 X67.5594 Y21.6933
G01 X67.5684 Y21.6684
G01 X67.5748 Y21.6427
G01 X67.5787 Y21.6165
G01 X67.5800 Y21.5900
G00 Z1.0000
G00 X77.7400 Y21.5900
G01 F60.00
G01 Z-0.6000
G01 F120.00
G01 X77.7387 Y21.5635
G01 X77.7348 Y21.5373
G01 X77.7284 Y21.5116
G01 X77.7194 Y21.4867
G01 X77.7081 Y21.4627
G01 X77.6945 Y21.4400
G01 X77.6787 Y21.4187
G01 X77.6609 Y21.3991
G01 X77.6413 Y21.3813
G01 X77.6200 Y21.3655
G01 X77.5973 Y21.3519
G01 X77.5733 Y21.3406
G01 X77.5484 Y21.3316
G01 X77.5227 Y21.3252
G01 X77.4965 Y21.3213
G01 X77.4700 Y21.3200
G01 X77.4435 Y21.3213
G01 X77.4173 Y21.3252
G01 X77.3916 Y21.3316
G01 X77.3667 Y21.3406
G01 X77.3427 Y21.3519
G01 X77.3200 Y21.3655
G01 X77.2987 Y21.3813
G01 X77.2791 Y21.3991
G01 X77.2613 Y21.4187
G01 X77.2455 Y21.4400
G01 X77.2319 Y21.4627
G01 X77.2206 Y21.4867
G01 X77.2116 Y21.5116
G01 X77.2052 Y21.5373
G01 X77.2013 Y21.5635
G01 X77.2000 Y21.5900
G01 X77.2013 Y21.6165
G01 X77.2052 Y21.6427
G01 X77.2116 Y21.6684
G01 X77.2206 Y21.6933
G01 X77.2319 Y21.7173
G01 X77.2455 Y21.7400
G01 X77.2613 Y21.7613
G01 X77.2791 Y21.7809
G01 X77.2987 Y21.7987
G01 X77.3200 Y21.8145
G01 X77.3427 Y21.8281
G01 X77.3667 Y21.8394
G01 X77.3916 Y21.8484
G01 X77.4173 Y21.8548
G01 X77.4435 Y21.8587
G01 X77.4700 Y21.8600
G01 X77.4965 Y21.8587
G01 X77.5227 Y21.8548
G01 X77.5484 Y21.8484
G01 X77.5733 Y21.8394
G01 X77.5973 Y21.8281
G01 X77.6200 Y21.8145
G01 X77.6413 Y21.7987
G01 X77.6609 Y21.7809
G01 X77.6787 Y21.7613
G01 X77.6945 Y21.7400
G01 X77.7081 Y21.7173
G01 X77.7194 Y21.6933
G01 X77.7284 Y21.6684
G01 X77.7348 Y21.6427
G01 X77.7387 Y21.6165
G01 X77.7400 Y21.5900
G00 X77.7400 Y21.5900
G01 F60.00
G01 Z-1.2000
G01 F120.00
G01 X77.7387 Y21.5635
G01 X77.7348 Y21.5373
G01 X77.7284 Y21.5116
G01 X77.7194 Y21.4867
G01 X77.7081 Y21.4627
G01 X77.6945 Y21.4400
G01 X77.6787 Y21.4187
G01 X77.6609 Y21.3991
G01 X77.6413 Y21.3813
G01 X77.6200 Y21.3655
G01 X77.5973 Y21.3519
G01 X77.5733 Y21.3406
G01 X77.5484 Y21.3316
G01 X77.5227 Y21.3252
G01 X77.4965 Y21.3213
G01 X77.4700 Y21.3200
G01 X77.4435 Y21.3213
G01 X77.4173 Y21.3252
G01 X77.3916 Y21.3316
G01 X77.3667 Y21.3406
G01 X77.3427 Y21.3519
G01 X77.3200 Y21.3655
G01 X77.2987 Y21.3813
G01 X77.2791 Y21.3991
G01 X77.2613 Y21.4187
G01 X77.2455 Y21.4400
G01 X77.2319 Y21.4627
G01 X77.2206 Y21.4867
G01 X77.2116 Y21.5116
G01 X77.2052 Y21.5373
G01 X77.2013 Y21.5635
G01 X77.2000 Y21.5900
G01 X77.2013 Y21.6165
G01 X77.2052 Y21.6427
G01 X77.2116 Y21.6684
G01 X77.2206 Y21.6933
G01 X77.2319 Y21.7173
G01 X77.2455 Y21.7400
G01 X77.2613 Y21.7613
G01 X77.2791 Y21.7809
G01 X77.2987 Y21.7987
G01 X77.3200 Y21.8145
G01 X77.3427 Y21.8281
G01 X77.3667 Y21.8394
G01 X77.3916 Y21.8484
G01 X77.4173 Y21.8548
G01 X77.4435 Y21.8587
G01 X77.4700 Y21.8600
G01 X77.4965 Y21.8587
G01 X77.5227 Y21.8548
G01 X77.5484 Y21.8484
G01 X77.5733 Y21.8394
G01 X77.5973 Y21.8281
G01 X77.6200 Y21.8145
G01 X77.6413 Y21.7987
G01 X77.6609 Y21.7809
G01 X77.6787 Y21.7613
G01 X77.6945 Y21.7400
G01 X77.7081 Y21.7173
G01 X77.7194 Y21.6933
G01 X77.7284 Y21.6684
G01 X77.7348 Y21.6427
G01 X77.7387 Y21.6165
G01 X77.7400 Y21.5900
G00 X77.7400 Y21.5900
G01 F60.00
G01 Z-1.8000
G01 F120.00
G01 X77.7387 Y21.5635
G01 X77.7348 Y21.5373
G01 X77.7284 Y21.5116
G01 X77.7194 Y21.4867
G01 X77.7081 Y21.4627
G01 X77.6945 Y21.4400
G01 X77.6787 Y21.4187
G01 X77.6609 Y21.3991
G01 X77.6413 Y21.3813
G01 X77.6200 Y21.3655
G01 X77.5973 Y21.3519
G01 X77.5733 Y21.3406
G01 X77.5484 Y21.3316
G01 X77.5227 Y21.3252
G01 X77.4965 Y21.3213
G01 X77.4700 Y21.3200
G01 X77.4435 Y21.3213
G01 X77.4173 Y21.3252
G01 X77.3916 Y21.3316
G01 X77.3667 Y21.3406
G01 X77.3427 Y21.3519
G01 X77.3200 Y21.3655
G01 X77.2987 Y21.3813
G01 X77.2791 Y21.3991
G01 X77.2613 Y21.4187
G01 X77.2455 Y21.4400
G01 X77.2319 Y21.4627
G01 X77.2206 Y21.4867
G01 X77.2116 Y21.5116
G01 X77.2052 Y21.5373
G01 X77.2013 Y21.5635
G01 X77.2000 Y21.5900
G01 X77.2013 Y21.6165
G01 X77.2052 Y21.6427
G01 X77.2116 Y21.6684
G01 X77.2206 Y21.6933
G01 X77.2319 Y21.7173
G01 X77.2455 Y21.7400
G01 X77.2613 Y21.7613
G01 X77.2791 Y21.7809
G01 X77.2987 Y21.7987
G01 X77.3200 Y21.8145
G01 X77.3427 Y21.8281
G01 X77.3667 Y21.8394
G01 X77.3916 Y21.8484
G01 X77.4173 Y21.8548
G01 X77.4435 Y21.8587
G01 X77.4700 Y21.8600
G01 X77.4965 Y21.8587
G01 X77.5227 Y21.8548
G01 X77.5484 Y21.8484
G01 X77.5733 Y21.8394
G01 X77.5973 Y21.8281
G01 X77.6200 Y21.8145
G01 X77.6413 Y21.7987
G01 X77.6609 Y21.7809
G01 X77.6787 Y21.7613
G01 X77.6945 Y21.7400
G01 X77.7081 Y21.7173
G01 X77.7194 Y21.6933
G01 X77.7284 Y21.6684
G01 X77.7348 Y21.6427
G01 X77.7387 Y21.6165
G01 X77.7400 Y21.5900
G00 X77.7400 Y21.5900
G01 F60.00
G01 Z-2.0000
G01 F120.00
G01 X77.7387 Y21.5635
G01 X77.7348 Y21.5373
G01 X77.7284 Y21.5116
G01 X77.7194 Y21.4867
G01 X77.7081 Y21.4627
G01 X77.6945 Y21.4400
G01 X77.6787 Y21.4187
G01 X77.6609 Y21.3991
G01 X77.6413 Y21.3813
G01 X77.6200 Y21.3655
G01 X77.5973 Y21.3519
G01 X77.5733 Y21.3406
G01 X77.5484 Y21.3316
G01 X77.5227 Y21.3252
G01 X77.4965 Y21.3213
G01 X77.4700 Y21.3200
G01 X77.4435 Y21.3213
G01 X77.4173 Y21.3252
G01 X77.3916 Y21.3316
G01 X77.3667 Y21.3406
G01 X77.3427 Y21.3519
G01 X77.3200 Y21.3655
G01 X77.2987 Y21.3813
G01 X77.2791 Y21.3991
G01 X77.2613 Y21.4187
G01 X77.2455 Y21.4400
G01 X77.2319 Y21.4627
G01 X77.2206 Y21.4867
G01 X77.2116 Y21.5116
G01 X77.2052 Y21.5373
G01 X77.2013 Y21.5635
G01 X77.2000 Y21.5900
G01 X77.2013 Y21.6165
G01 X77.2052 Y21.6427
G01 X77.2116 Y21.6684
G01 X77.2206 Y21.6933
G01 X77.2319 Y21.7173
G01 X77.2455 Y21.7400
G01 X77.2613 Y21.7613
G01 X77.2791 Y21.7809
G01 X77.2987 Y21.7987
G01 X77.3200 Y21.8145
G01 X77.3427 Y21.8281
G01 X77.3667 Y21.8394
G01 X77.3916 Y21.8484
G01 X77.4173 Y21.8548
G01 X77.4435 Y21.8587
G01 X77.4700 Y21.8600
G01 X77.4965 Y21.8587
G01 X77.5227 Y21.8548
G01 X77.5484 Y21.8484
G01 X77.5733 Y21.8394
G01 X77.5973 Y21.8281
G01 X77.6200 Y21.8145
G01 X77.6413 Y21.7987
G01 X77.6609 Y21.7809
G01 X77.6787 Y21.7613
G01 X77.6945 Y21.7400
G01 X77.7081 Y21.7173
G01 X77.7194 Y21.6933
G01 X77.7284 Y21.6684
G01 X77.7348 Y21.6427
G01 X77.7387 Y21.6165
G01 X77.7400 Y21.5900
G00 Z1.0000
G00 X87.9000 Y21.5900
G01 F60.00
G01 Z-0.6000
G01 F120.00
G01 X87.8987 Y21.5635
G01 X87.8948 Y21.5373
G01 X87.8884 Y21.5116
G01 X87.8794 Y21.4867
G01 X87.8681 Y21.4627
G01 X87.8545 Y21.4400
G01 X87.8387 Y21.4187
G01 X87.8209 Y21.3991
G01 X87.8013 Y21.3813
G01 X87.7800 Y21.3655
G01 X87.7573 Y21.3519
G01 X87.7333 Y21.3406
G01 X87.7084 Y21.3316
G01 X87.6827 Y21.3252
G01 X87.6565 Y21.3213
G01 X87.6300 Y21.3200
G01 X87.6035 Y21.3213
G01 X87.5773 Y21.3252
G01 X87.5516 Y21.3316
G01 X87.5267 Y21.3406
G01 X87.5027 Y21.3519
G01 X87.4800 Y21.3655
G01 X87.4587 Y21.3813
G01 X87.4391 Y21.3991
G01 X87.4213 Y21.4187
G01 X87.4055 Y21.4400
G01 X87.3919 Y21.4627
G01 X87.3806 Y21.4867
G01 X87.3716 Y21.5116
G01 X87.3652 Y21.5373
G01 X87.3613 Y21.5635
G01 X87.3600 Y21.5900
G01 X87.3613 Y21.6165
G01 X87.3652 Y21.6427
G01 X87.3716 Y21.6684
G01 X87.3806 Y21.6933
G01 X87.3919 Y21.7173
G01 X87.4055 Y21.7400
G01 X87.4213 Y21.7613
G01 X87.4391 Y21.7809
G01 X87.4587 Y21.7987
G01 X87.4800 Y21.8145
G01 X87.5027 Y21.8281
G01 X87.5267 Y21.8394
G01 X87.5516 Y21.8484
G01 X87.5773 Y21.8548
G01 X87.6035 Y21.8587
G01 X87.6300 Y21.8600
G01 X87.6565 Y21.8587
G01 X87.6827 Y21.8548
G01 X87.7084 Y21.8484
G01 X87.7333 Y21.8394
G01 X87.7573 Y21.8281
G01 X87.7800 Y21.8145
G01 X87.8013 Y21.7987
G01 X87.8209 Y21.7809
G01 X87.8387 Y21.7613
G01 X87.8545 Y21.7400
G01 X87.8681 Y21.7173
G01 X87.8794 Y21.6933
G01 X87.8884 Y21.6684
G01 X87.8948 Y21.6427
G01 X87.8987 Y21.6165
G01 X87.9000 Y21.5900
G00 X87.9000 Y21.5900
G01 F60.00
G01 Z-1.2000
G01 F120.00
G01 X87.8987 Y21.5635
G01 X87.8948 Y21.5373
G01 X87.8884 Y21.5116
G01 X87.8794 Y21.4867
G01 X87.8681 Y21.4627
G01 X87.8545 Y21.4400
G01 X87.8387 Y21.4187
G01 X87.8209 Y21.3991
G01 X87.8013 Y21.3813
G01 X87.7800 Y21.3655
G01 X87.7573 Y21.3519
G01 X87.7333 Y21.3406
G01 X87.7084 Y21.3316
G01 X87.6827 Y21.3252
G01 X87.6565 Y21.3213
G01 X87.6300 Y21.3200
G01 X87.6035 Y21.3213
G01 X87.5773 Y21.3252
G01 X87.5516 Y21.3316
G01 X87.5267 Y21.3406
G01 X87.5027 Y21.3519
G01 X87.4800 Y21.3655
G01 X87.4587 Y21.3813
G01 X87.4391 Y21.3991
G01 X87.4213 Y21.4187
G01 X87.4055 Y21.4400
G01 X87.3919 Y21.4627
G01 X87.3806 Y21.4867
G01 X87.3716 Y21.5116
G01 X87.3652 Y21.5373
G01 X87.3613 Y21.5635
G01 X87.3600 Y21.5900
G01 X87.3613 Y21.6165
G01 X87.3652 Y21.6427
G01 X87.3716 Y21.6684
G01 X87.3806 Y21.6933
G01 X87.3919 Y21.7173
G01 X87.4055 Y21.7400
G01 X87.4213 Y21.7613
G01 X87.4391 Y21.7809
G01 X87.4587 Y21.7987
G01 X87.4800 Y21.8145
G01 X87.5027 Y21.8281
G01 X87.5267 Y21.8394
G01 X87.5516 Y21.8484
G01 X87.5773 Y21.8548
G01 X87.6035 Y21.8587
G01 X87.6300 Y21.8600
G01 X87.6565 Y21.8587
G01 X87.6827 Y21.8548
G01 X87.7084 Y21.8484
G01 X87.7333 Y21.8394
G01 X87.7573 Y21.8281
G01 X87.7800 Y21.8145
G01 X87.8013 Y21.7987
G01 X87.8209 Y21.7809
G01 X87.8387 Y21.7613
G01 X87.8545 Y21.7400
G01 X87.8681 Y21.7173
G01 X87.8794 Y21.6933
G01 X87.8884 Y21.6684
G01 X87.8948 Y21.6427
G01 X87.8987 Y21.6165
G01 X87.9000 Y21.5900
G00 X87.9000 Y21.5900
G01 F60.00
G01 Z-1.8000
G01 F120.00
G01 X87.8987 Y21.5635
G01 X87.8948 Y21.5373
G01 X87.8884 Y21.5116
G01 X87.8794 Y21.4867
G01 X87.8681 Y21.4627
G01 X87.8545 Y21.4400
G01 X87.8387 Y21.4187
G01 X87.8209 Y21.3991
G01 X87.8013 Y21.3813
G01 X87.7800 Y21.3655
G01 X87.7573 Y21.3519
G01 X87.7333 Y21.3406
G01 X87.7084 Y21.3316
G01 X87.6827 Y21.3252
G01 X87.6565 Y21.3213
G01 X87.6300 Y21.3200
G01 X87.6035 Y21.3213
G01 X87.5773 Y21.3252
G01 X87.5516 Y21.3316
G01 X87.5267 Y21.3406
G01 X87.5027 Y21.3519
G01 X87.4800 Y21.3655
G01 X87.4587 Y21.3813
G01 X87.4391 Y21.3991
G01 X87.4213 Y21.4187
G01 X87.4055 Y21.4400
G01 X87.3919 Y21.4627
G01 X87.3806 Y21.4867
G01 X87.3716 Y21.5116
G01 X87.3652 Y21.5373
G01 X87.3613 Y21.5635
G01 X87.3600 Y21.5900
G01 X87.3613 Y21.6165
G01 X87.3652 Y21.6427
G01 X87.3716 Y21.6684
G01 X87.3806 Y21.6933
G01 X87.3919 Y21.7173
G01 X87.4055 Y21.7400
G01 X87.4213 Y21.7613
G01 X87.4391 Y21.7809
G01 X87.4587 Y21.7987
G01 X87.4800 Y21.8145
G01 X87.5027 Y21.8281
G01 X87.5267 Y21.8394
G01 X87.5516 Y21.8484
G01 X87.5773 Y21.8548
G01 X87.6035 Y21.8587
G01 X87.6300 Y21.8600
G01 X87.6565 Y21.8587
G01 X87.6827 Y21.8548
G01 X87.7084 Y21.8484
G01 X87.7333 Y21.8394
G01 X87.7573 Y21.8281
G01 X87.7800 Y21.8145
G01 X87.8013 Y21.7987
G01 X87.8209 Y21.7809
G01 X87.8387 Y21.7613
G01 X87.8545 Y21.7400
G01 X87.8681 Y21.7173
G01 X87.8794 Y21.6933
G01 X87.8884 Y21.6684
G01 X87.8948 Y21.6427
G01 X87.8987 Y21.6165
G01 X87.9000 Y21.5900
G00 X87.9000 Y21.5900
G01 F60.00
G01 Z-2.0000
G01 F120.00
G01 X87.8987 Y21.5635
G01 X87.8948 Y21.5373
G01 X87.8884 Y21.5116
G01 X87.8794 Y21.4867
G01 X87.8681 Y21.4627
G01 X87.8545 Y21.4400
G01 X87.8387 Y21.4187
G01 X87.8209 Y21.3991
G01 X87.8013 Y21.3813
G01 X87.7800 Y21.3655
G01 X87.7573 Y21.3519
G01 X87.7333 Y21.3406
G01 X87.7084 Y21.3316
G01 X87.6827 Y21.3252
G01 X87.6565 Y21.3213
G01 X87.6300 Y21.3200
G01 X87.6035 Y21.3213
G01 X87.5773 Y21.3252
G01 X87.5516 Y21.3316
G01 X87.5267 Y21.3406
G01 X87.5027 Y21.3519
G01 X87.4800 Y21.3655
G01 X87.4587 Y21.3813
G01 X87.4391 Y21.3991
G01 X87.4213 Y21.4187
G01 X87.4055 Y21.4400
G01 X87.3919 Y21.4627
G01 X87.3806 Y21.4867
G01 X87.3716 Y21.5116
G01 X87.3652 Y21.5373
G01 X87.3613 Y21.5635
G01 X87.3600 Y21.5900
G01 X87.3613 Y21.6165
G01 X87.3652 Y21.6427
G01 X87.3716 Y21.6684
G01 X87.3806 Y21.6933
G01 X87.3919 Y21.7173
G01 X87.4055 Y21.7400
G01 X87.4213 Y21.7613
G01 X87.4391 Y21.7809
G01 X87.4587 Y21.7987
G01 X87.4800 Y21.8145
G01 X87.5027 Y21.8281
G01 X87.5267 Y21.8394
G01 X87.5516 Y21.8484
G01 X87.5773 Y21.8548
G01 X87.6035 Y21.8587
G01 X87.6300 Y21.8600
G01 X87.6565 Y21.8587
G01 X87.6827 Y21.8548
G01 X87.7084 Y21.8484
G01 X87.7333 Y21.8394
G01 X87.7573 Y21.8281
G01 X87.7800 Y21.8145
G01 X87.8013 Y21.7987
G01 X87.8209 Y21.7809
G01 X87.8387 Y21.7613
G01 X87.8545 Y21.7400
G01 X87.8681 Y21.7173
G01 X87.8794 Y21.6933
G01 X87.8884 Y21.6684
G01 X87.8948 Y21.6427
G01 X87.8987 Y21.6165
G01 X87.9000 Y21.5900
G00 Z1.0000
G00 X98.0600 Y21.5900
G01 F60.00
G01 Z-0.6000
G01 F120.00
G01 X98.0587 Y21.5635
G01 X98.0548 Y21.5373
G01 X98.0484 Y21.5116
G01 X98.0394 Y21.4867
G01 X98.0281 Y21.4627
G01 X98.0145 Y21.4400
G01 X97.9987 Y21.4187
G01 X97.9809 Y21.3991
G01 X97.9613 Y21.3813
G01 X97.9400 Y21.3655
G01 X97.9173 Y21.3519
G01 X97.8933 Y21.3406
G01 X97.8684 Y21.3316
G01 X97.8427 Y21.3252
G01 X97.8165 Y21.3213
G01 X97.7900 Y21.3200
G01 X97.7635 Y21.3213
G01 X97.7373 Y21.3252
G01 X97.7116 Y21.3316
G01 X97.6867 Y21.3406
G01 X97.6627 Y21.3519
G01 X97.6400 Y21.3655
G01 X97.6187 Y21.3813
G01 X97.5991 Y21.3991
G01 X97.5813 Y21.4187
G01 X97.5655 Y21.4400
G01 X97.5519 Y21.4627
G01 X97.5406 Y21.4867
G01 X97.5316 Y21.5116
G01 X97.5252 Y21.5373
G01 X97.5213 Y21.5635
G01 X97.5200 Y21.5900
G01 X97.5213 Y21.6165
G01 X97.5252 Y21.6427
G01 X97.5316 Y21.6684
G01 X97.5406 Y21.6933
G01 X97.5519 Y21.7173
G01 X97.5655 Y21.7400
G01 X97.5813 Y21.7613
G01 X97.5991 Y21.7809
G01 X97.6187 Y21.7987
G01 X97.6400 Y21.8145
G01 X97.6627 Y21.8281
G01 X97.6867 Y21.8394
G01 X97.7116 Y21.8484
G01 X97.7373 Y21.8548
G01 X97.7635 Y21.8587
G01 X97.7900 Y21.8600
G01 X97.8165 Y21.8587
G01 X97.8427 Y21.8548
G01 X97.8684 Y21.8484
G01 X97.8933 Y21.8394
G01 X97.9173 Y21.8281
G01 X97.9400 Y21.8145
G01 X97.9613 Y21.7987
G01 X97.9809 Y21.7809
G01 X97.9987 Y21.7613
G01 X98.0145 Y21.7400
G01 X98.0281 Y21.7173
G01 X98.0394 Y21.6933
G01 X98.0484 Y21.6684
G01 X98.0548 Y21.6427
G01 X98.0587 Y21.6165
G01 X98.0600 Y21.5900
G00 X98.0600 Y21.5900
G01 F60.00
G01 Z-1.2000
G01 F120.00
G01 X98.0587 Y21.5635
G01 X98.0548 Y21.5373
G01 X98.0484 Y21.5116
G01 X98.0394 Y21.4867
G01 X98.0281 Y21.4627
G01 X98.0145 Y21.4400
G01 X97.9987 Y21.4187
G01 X97.9809 Y21.3991
G01 X97.9613 Y21.3813
G01 X97.9400 Y21.3655
G01 X97.9173 Y21.3519
G01 X97.8933 Y21.3406
G01 X97.8684 Y21.3316
G01 X97.8427 Y21.3252
G01 X97.8165 Y21.3213
G01 X97.7900 Y21.3200
G01 X97.7635 Y21.3213
G01 X97.7373 Y21.3252
G01 X97.7116 Y21.3316
G01 X97.6867 Y21.3406
G01 X97.6627 Y21.3519
G01 X97.6400 Y21.3655
G01 X97.6187 Y21.3813
G01 X97.5991 Y21.3991
G01 X97.5813 Y21.4187
G01 X97.5655 Y21.4400
G01 X97.5519 Y21.4627
G01 X97.5406 Y21.4867
G01 X97.5316 Y21.5116
G01 X97.5252 Y21.5373
G01 X97.5213 Y21.5635
G01 X97.5200 Y21.5900
G01 X97.5213 Y21.6165
G01 X97.5252 Y21.6427
G01 X97.5316 Y21.6684
G01 X97.5406 Y21.6933
G01 X97.5519 Y21.7173
G01 X97.5655 Y21.7400
G01 X97.5813 Y21.7613
G01 X97.5991 Y21.7809
G01 X97.6187 Y21.7987
G01 X97.6400 Y21.8145
G01 X97.6627 Y21.8281
G01 X97.6867 Y21.8394
G01 X97.7116 Y21.8484
G01 X97.7373 Y21.8548
G01 X97.7635 Y21.8587
G01 X97.7900 Y21.8600
G01 X97.8165 Y21.8587
G01 X97.8427 Y21.8548
G01 X97.8684 Y21.8484
G01 X97.8933 Y21.8394
G01 X97.9173 Y21.8281
G01 X97.9400 Y21.8145
G01 X97.9613 Y21.7987
G01 X97.9809 Y21.7809
G01 X97.9987 Y21.7613
G01 X98.0145 Y21.7400
G01 X98.0281 Y21.7173
G01 X98.0394 Y21.6933
G01 X98.0484 Y21.6684
G01 X98.0548 Y21.6427
G01 X98.0587 Y21.6165
G01 X98.0600 Y21.5900
G00 X98.0600 Y21.5900
G01 F60.00
G01 Z-1.8000
G01 F120.00
G01 X98.0587 Y21.5635
G01 X98.0548 Y21.5373
G01 X98.0484 Y21.5116
G01 X98.0394 Y21.4867
G01 X98.0281 Y21.4627
G01 X98.0145 Y21.4400
G01 X97.9987 Y21.4187
G01 X97.9809 Y21.3991
G01 X97.9613 Y21.3813
G01 X97.9400 Y21.3655
G01 X97.9173 Y21.3519
G01 X97.8933 Y21.3406
G01 X97.8684 Y21.3316
G01 X97.8427 Y21.3252
G01 X97.8165 Y21.3213
G01 X97.7900 Y21.3200
G01 X97.7635 Y21.3213
G01 X97.7373 Y21.3252
G01 X97.7116 Y21.3316
G01 X97.6867 Y21.3406
G01 X97.6627 Y21.3519
G01 X97.6400 Y21.3655
G01 X97.6187 Y21.3813
G01 X97.5991 Y21.3991
G01 X97.5813 Y21.4187
G01 X97.5655 Y21.4400
G01 X97.5519 Y21.4627
G01 X97.5406 Y21.4867
G01 X97.5316 Y21.5116
G01 X97.5252 Y21.5373
G01 X97.5213 Y21.5635
G01 X97.5200 Y21.5900
G01 X97.5213 Y21.6165
G01 X97.5252 Y21.6427
G01 X97.5316 Y21.6684
G01 X97.5406 Y21.6933
G01 X97.5519 Y21.7173
G01 X97.5655 Y21.7400
G01 X97.5813 Y21.7613
G01 X97.5991 Y21.7809
G01 X97.6187 Y21.7987
G01 X97.6400 Y21.8145
G01 X97.6627 Y21.8281
G01 X97.6867 Y21.8394
G01 X97.7116 Y21.8484
G01 X97.7373 Y21.8548
G01 X97.7635 Y21.8587
G01 X97.7900 Y21.8600
G01 X97.8165 Y21.8587
G01 X97.8427 Y21.8548
G01 X97.8684 Y21.8484
G01 X97.8933 Y21.8394
G01 X97.9173 Y21.8281
G01 X97.9400 Y21.8145
G01 X97.9613 Y21.7987
G01 X97.9809 Y21.7809
G01 X97.9987 Y21.7613
G01 X98.0145 Y21.7400
G01 X98.0281 Y21.7173
G01 X98.0394 Y21.6933
G01 X98.0484 Y21.6684
G01 X98.0548 Y21.6427
G01 X98.0587 Y21.6165
G01 X98.0600 Y21.5900
G00 X98.0600 Y21.5900
G01 F60.00
G01 Z-2.0000
G01 F120.00
G01 X98.0587 Y21.5635
G01 X98.0548 Y21.5373
G01 X98.0484 Y21.5116
G01 X98.0394 Y21.4867
G01 X98.0281 Y21.4627
G01 X98.0145 Y21.4400
G01 X97.9987 Y21.4187
G01 X97.9809 Y21.3991
G01 X97.9613 Y21.3813
G01 X97.9400 Y21.3655
G01 X97.9173 Y21.3519
G01 X97.8933 Y21.3406
G01 X97.8684 Y21.3316
G01 X97.8427 Y21.3252
G01 X97.8165 Y21.3213
G01 X97.7900 Y21.3200
G01 X97.7635 Y21.3213
G01 X97.7373 Y21.3252
G01 X97.7116 Y21.3316
G01 X97.6867 Y21.3406
G01 X97.6627 Y21.3519
G01 X97.6400 Y21.3655
G01 X97.6187 Y21.3813
G01 X97.5991 Y21.3991
G01 X97.5813 Y21.4187
G01 X97.5655 Y21.4400
G01 X97.5519 Y21.4627
G01 X97.5406 Y21.4867
G01 X97.5316 Y21.5116
G01 X97.5252 Y21.5373
G01 X97.5213 Y21.5635
G01 X97.5200 Y21.5900
G01 X97.5213 Y21.6165
G01 X97.5252 Y21.6427
G01 X97.5316 Y21.6684
G01 X97.5406 Y21.6933
G01 X97.5519 Y21.7173
G01 X97.5655 Y21.7400
G01 X97.5813 Y21.7613
G01 X97.5991 Y21.7809
G01 X97.6187 Y21.7987
G01 X97.6400 Y21.8145
G01 X97.6627 Y21.8281
G01 X97.6867 Y21.8394
G01 X97.7116 Y21.8484
G01 X97.7373 Y21.8548
G01 X97.7635 Y21.8587
G01 X97.7900 Y21.8600
G01 X97.8165 Y21.8587
G01 X97.8427 Y21.8548
G01 X97.8684 Y21.8484
G01 X97.8933 Y21.8394
G01 X97.9173 Y21.8281
G01 X97.9400 Y21.8145
G01 X97.9613 Y21.7987
G01 X97.9809 Y21.7809
G01 X97.9987 Y21.7613
G01 X98.0145 Y21.7400
G01 X98.0281 Y21.7173
G01 X98.0394 Y21.6933
G01 X98.0484 Y21.6684
G01 X98.0548 Y21.6427
G01 X98.0587 Y21.6165
G01 X98.0600 Y21.5900
G00 Z1.0000
G00 X108.2200 Y21.5900
G01 F60.00
G01 Z-0.6000
G01 F120.00
G01 X108.2187 Y21.5635
G01 X108.2148 Y21.5373
G01 X108.2084 Y21.5116
G01 X108.1994 Y21.4867
G01 X108.1881 Y21.4627
G01 X108.1745 Y21.4400
G01 X108.1587 Y21.4187
G01 X108.1409 Y21.3991
G01 X108.1213 Y21.3813
G01 X108.1000 Y21.3655
G01 X108.0773 Y21.3519
G01 X108.0533 Y21.3406
G01 X108.0284 Y21.3316
G01 X108.0027 Y21.3252
G01 X107.9765 Y21.3213
G01 X107.9500 Y21.3200
G01 X107.9235 Y21.3213
G01 X107.8973 Y21.3252
G01 X107.8716 Y21.3316
G01 X107.8467 Y21.3406
G01 X107.8227 Y21.3519
G01 X107.8000 Y21.3655
G01 X107.7787 Y21.3813
G01 X107.7591 Y21.3991
G01 X107.7413 Y21.4187
G01 X107.7255 Y21.4400
G01 X107.7119 Y21.4627
G01 X107.7006 Y21.4867
G01 X107.6916 Y21.5116
G01 X107.6852 Y21.5373
G01 X107.6813 Y21.5635
G01 X107.6800 Y21.5900
G01 X107.6813 Y21.6165
G01 X107.6852 Y21.6427
G01 X107.6916 Y21.6684
G01 X107.7006 Y21.6933
G01 X107.7119 Y21.7173
G01 X107.7255 Y21.7400
G01 X107.7413 Y21.7613
G01 X107.7591 Y21.7809
G01 X107.7787 Y21.7987
G01 X107.8000 Y21.8145
G01 X107.8227 Y21.8281
G01 X107.8467 Y21.8394
G01 X107.8716 Y21.8484
G01 X107.8973 Y21.8548
G01 X107.9235 Y21.8587
G01 X107.9500 Y21.8600
G01 X107.9765 Y21.8587
G01 X108.0027 Y21.8548
G01 X108.0284 Y21.8484
G01 X108.0533 Y21.8394
G01 X108.0773 Y21.8281
G01 X108.1000 Y21.8145
G01 X108.1213 Y21.7987
G01 X108.1409 Y21.7809
G01 X108.1587 Y21.7613
G01 X108.1745 Y21.7400
G01 X108.1881 Y21.7173
G01 X108.1994 Y21.6933
G01 X108.2084 Y21.6684
G01 X108.2148 Y21.6427
G01 X108.2187 Y21.6165
G01 X108.2200 Y21.5900
G00 X108.2200 Y21.5900
G01 F60.00
G01 Z-1.2000
G01 F120.00
G01 X108.2187 Y21.5635
G01 X108.2148 Y21.5373
G01 X108.2084 Y21.5116
G01 X108.1994 Y21.4867
G01 X108.1881 Y21.4627
G01 X108.1745 Y21.4400
G01 X108.1587 Y21.4187
G01 X108.1409 Y21.3991
G01 X108.1213 Y21.3813
G01 X108.1000 Y21.3655
G01 X108.0773 Y21.3519
G01 X108.0533 Y21.3406
G01 X108.0284 Y21.3316
G01 X108.0027 Y21.3252
G01 X107.9765 Y21.3213
G01 X107.9500 Y21.3200
G01 X107.9235 Y21.3213
G01 X107.8973 Y21.3252
G01 X107.8716 Y21.3316
G01 X107.8467 Y21.3406
G01 X107.8227 Y21.3519
G01 X107.8000 Y21.3655
G01 X107.7787 Y21.3813
G01 X107.7591 Y21.3991
G01 X107.7413 Y21.4187
G01 X107.7255 Y21.4400
G01 X107.7119 Y21.4627
G01 X107.7006 Y21.4867
G01 X107.6916 Y21.5116
G01 X107.6852 Y21.5373
G01 X107.6813 Y21.5635
G01 X107.6800 Y21.5900
G01 X107.6813 Y21.6165
G01 X107.6852 Y21.6427
G01 X107.6916 Y21.6684
G01 X107.7006 Y21.6933
G01 X107.7119 Y21.7173
G01 X107.7255 Y21.7400
G01 X107.7413 Y21.7613
G01 X107.7591 Y21.7809
G01 X107.7787 Y21.7987
G01 X107.8000 Y21.8145
G01 X107.8227 Y21.8281
G01 X107.8467 Y21.8394
G01 X107.8716 Y21.8484
G01 X107.8973 Y21.8548
G01 X107.9235 Y21.8587
G01 X107.9500 Y21.8600
G01 X107.9765 Y21.8587
G01 X108.0027 Y21.8548
G01 X108.0284 Y21.8484
G01 X108.0533 Y21.8394
G01 X108.0773 Y21.8281
G01 X108.1000 Y21.8145
G01 X108.1213 Y21.7987
G01 X108.1409 Y21.7809
G01 X108.1587 Y21.7613
G01 X108.1745 Y21.7400
G01 X108.1881 Y21.7173
G01 X108.1994 Y21.6933
G01 X108.2084 Y21.6684
G01 X108.2148 Y21.6427
G01 X108.2187 Y21.6165
G01 X108.2200 Y21.5900
G00 X108.2200 Y21.5900
G01 F60.00
G01 Z-1.8000
G01 F120.00
G01 X108.2187 Y21.5635
G01 X108.2148 Y21.5373
G01 X108.2084 Y21.5116
G01 X108.1994 Y21.4867
G01 X108.1881 Y21.4627
G01 X108.1745 Y21.4400
G01 X108.1587 Y21.4187
G01 X108.1409 Y21.3991
G01 X108.1213 Y21.3813
G01 X108.1000 Y21.3655
G01 X108.0773 Y21.3519
G01 X108.0533 Y21.3406
G01 X108.0284 Y21.3316
G01 X108.0027 Y21.3252
G01 X107.9765 Y21.3213
G01 X107.9500 Y21.3200
G01 X107.9235 Y21.3213
G01 X107.8973 Y21.3252
G01 X107.8716 Y21.3316
G01 X107.8467 Y21.3406
G01 X107.8227 Y21.3519
G01 X107.8000 Y21.3655
G01 X107.7787 Y21.3813
G01 X107.7591 Y21.3991
G01 X107.7413 Y21.4187
G01 X107.7255 Y21.4400
G01 X107.7119 Y21.4627
G01 X107.7006 Y21.4867
G01 X107.6916 Y21.5116
G01 X107.6852 Y21.5373
G01 X107.6813 Y21.5635
G01 X107.6800 Y21.5900
G01 X107.6813 Y21.6165
G01 X107.6852 Y21.6427
G01 X107.6916 Y21.6684
G01 X107.7006 Y21.6933
G01 X107.7119 Y21.7173
G01 X107.7255 Y21.7400
G01 X107.7413 Y21.7613
G01 X107.7591 Y21.7809
G01 X107.7787 Y21.7987
G01 X107.8000 Y21.8145
G01 X107.8227 Y21.8281
G01 X107.8467 Y21.8394
G01 X107.8716 Y21.8484
G01 X107.8973 Y21.8548
G01 X107.9235 Y21.8587
G01 X107.9500 Y21.8600
G01 X107.9765 Y21.8587
G01 X108.0027 Y21.8548
G01 X108.0284 Y21.8484
G01 X108.0533 Y21.8394
G01 X108.0773 Y21.8281
G01 X108.1000 Y21.8145
G01 X108.1213 Y21.7987
G01 X108.1409 Y21.7809
G01 X108.1587 Y21.7613
G01 X108.1745 Y21.7400
G01 X108.1881 Y21.7173
G01 X108.1994 Y21.6933
G01 X108.2084 Y21.6684
G01 X108.2148 Y21.6427
G01 X108.2187 Y21.6165
G01 X108.2200 Y21.5900
G00 X108.2200 Y21.5900
G01 F60.00
G01 Z-2.0000
G01 F120.00
G01 X108.2187 Y21.5635
G01 X108.2148 Y21.5373
G01 X108.2084 Y21.5116
G01 X108.1994 Y21.4867
G01 X108.1881 Y21.4627
G01 X108.1745 Y21.4400
G01 X108.1587 Y21.4187
G01 X108.1409 Y21.3991
G01 X108.1213 Y21.3813
G01 X108.1000 Y21.3655
G01 X108.0773 Y21.3519
G01 X108.0533 Y21.3406
G01 X108.0284 Y21.3316
G01 X108.0027 Y21.3252
G01 X107.9765 Y21.3213
G01 X107.9500 Y21.3200
G01 X107.9235 Y21.3213
G01 X107.8973 Y21.3252
G01 X107.8716 Y21.3316
G01 X107.8467 Y21.3406
G01 X107.8227 Y21.3519
G01 X107.8000 Y21.3655
G01 X107.7787 Y21.3813
G01 X107.7591 Y21.3991
G01 X107.7413 Y21.4187
G01 X107.7255 Y21.4400
G01 X107.7119 Y21.4627
G01 X107.7006 Y21.4867
G01 X107.6916 Y21.5116
G01 X107.6852 Y21.5373
G01 X107.6813 Y21.5635
G01 X107.6800 Y21.5900
G01 X107.6813 Y21.6165
G01 X107.6852 Y21.6427
G01 X107.6916 Y21.6684
G01 X107.7006 Y21.6933
G01 X107.7119 Y21.7173
G01 X107.7255 Y21.7400
G01 X107.7413 Y21.7613
G01 X107.7591 Y21.7809
G01 X107.7787 Y21.7987
G01 X107.8000 Y21.8145
G01 X107.8227 Y21.8281
G01 X107.8467 Y21.8394
G01 X107.8716 Y21.8484
G01 X107.8973 Y21.8548
G01 X107.9235 Y21.8587
G01 X107.9500 Y21.8600
G01 X107.9765 Y21.8587
G01 X108.0027 Y21.8548
G01 X108.0284 Y21.8484
G01 X108.0533 Y21.8394
G01 X108.0773 Y21.8281
G01 X108.1000 Y21.8145
G01 X108.1213 Y21.7987
G01 X108.1409 Y21.7809
G01 X108.1587 Y21.7613
G01 X108.1745 Y21.7400
G01 X108.1881 Y21.7173
G01 X108.1994 Y21.6933
G01 X108.2084 Y21.6684
G01 X108.2148 Y21.6427
G01 X108.2187 Y21.6165
G01 X108.2200 Y21.5900
G00 Z1.0000
G00 X118.3800 Y21.5900
G01 F60.00
G01 Z-0.6000
G01 F120.00
G01 X118.3787 Y21.5635
G01 X118.3748 Y21.5373
G01 X118.3684 Y21.5116
G01 X118.3594 Y21.4867
G01 X118.3481 Y21.4627
G01 X118.3345 Y21.4400
G01 X118.3187 Y21.4187
G01 X118.3009 Y21.3991
G01 X118.2813 Y21.3813
G01 X118.2600 Y21.3655
G01 X118.2373 Y21.3519
G01 X118.2133 Y21.3406
G01 X118.1884 Y21.3316
G01 X118.1627 Y21.3252
G01 X118.1365 Y21.3213
G01 X118.1100 Y21.3200
G01 X118.0835 Y21.3213
G01 X118.0573 Y21.3252
G01 X118.0316 Y21.3316
G01 X118.0067 Y21.3406
G01 X117.9827 Y21.3519
G01 X117.9600 Y21.3655
G01 X117.9387 Y21.3813
G01 X117.9191 Y21.3991
G01 X117.9013 Y21.4187
G01 X117.8855 Y21.4400
G01 X117.8719 Y21.4627
G01 X117.8606 Y21.4867
G01 X117.8516 Y21.5116
G01 X117.8452 Y21.5373
G01 X117.8413 Y21.5635
G01 X117.8400 Y21.5900
G01 X117.8413 Y21.6165
G01 X117.8452 Y21.6427
G01 X117.8516 Y21.6684
G01 X117.8606 Y21.6933
G01 X117.8719 Y21.7173
G01 X117.8855 Y21.7400
G01 X117.9013 Y21.7613
G01 X117.9191 Y21.7809
G01 X117.9387 Y21.7987
G01 X117.9600 Y21.8145
G01 X117.9827 Y21.8281
G01 X118.0067 Y21.8394
G01 X118.0316 Y21.8484
G01 X118.0573 Y21.8548
G01 X118.0835 Y21.8587
G01 X118.1100 Y21.8600
G01 X118.1365 Y21.8587
G01 X118.1627 Y21.8548
G01 X118.1884 Y21.8484
G01 X118.2133 Y21.8394
G01 X118.2373 Y21.8281
G01 X118.2600 Y21.8145
G01 X118.2813 Y21.7987
G01 X118.3009 Y21.7809
G01 X118.3187 Y21.7613
G01 X118.3345 Y21.7400
G01 X118.3481 Y21.7173
G01 X118.3594 Y21.6933
G01 X118.3684 Y21.6684
G01 X118.3748 Y21.6427
G01 X118.3787 Y21.6165
G01 X118.3800 Y21.5900
G00 X118.3800 Y21.5900
G01 F60.00
G01 Z-1.2000
G01 F120.00
G01 X118.3787 Y21.5635
G01 X118.3748 Y21.5373
G01 X118.3684 Y21.5116
G01 X118.3594 Y21.4867
G01 X118.3481 Y21.4627
G01 X118.3345 Y21.4400
G01 X118.3187 Y21.4187
G01 X118.3009 Y21.3991
G01 X118.2813 Y21.3813
G01 X118.2600 Y21.3655
G01 X118.2373 Y21.3519
G01 X118.2133 Y21.3406
G01 X118.1884 Y21.3316
G01 X118.1627 Y21.3252
G01 X118.1365 Y21.3213
G01 X118.1100 Y21.3200
G01 X118.0835 Y21.3213
G01 X118.0573 Y21.3252
G01 X118.0316 Y21.3316
G01 X118.0067 Y21.3406
G01 X117.9827 Y21.3519
G01 X117.9600 Y21.3655
G01 X117.9387 Y21.3813
G01 X117.9191 Y21.3991
G01 X117.9013 Y21.4187
G01 X117.8855 Y21.4400
G01 X117.8719 Y21.4627
G01 X117.8606 Y21.4867
G01 X117.8516 Y21.5116
G01 X117.8452 Y21.5373
G01 X117.8413 Y21.5635
G01 X117.8400 Y21.5900
G01 X117.8413 Y21.6165
G01 X117.8452 Y21.6427
G01 X117.8516 Y21.6684
G01 X117.8606 Y21.6933
G01 X117.8719 Y21.7173
G01 X117.8855 Y21.7400
G01 X117.9013 Y21.7613
G01 X117.9191 Y21.7809
G01 X117.9387 Y21.7987
G01 X117.9600 Y21.8145
G01 X117.9827 Y21.8281
G01 X118.0067 Y21.8394
G01 X118.0316 Y21.8484
G01 X118.0573 Y21.8548
G01 X118.0835 Y21.8587
G01 X118.1100 Y21.8600
G01 X118.1365 Y21.8587
G01 X118.1627 Y21.8548
G01 X118.1884 Y21.8484
G01 X118.2133 Y21.8394
G01 X118.2373 Y21.8281
G01 X118.2600 Y21.8145
G01 X118.2813 Y21.7987
G01 X118.3009 Y21.7809
G01 X118.3187 Y21.7613
G01 X118.3345 Y21.7400
G01 X118.3481 Y21.7173
G01 X118.3594 Y21.6933
G01 X118.3684 Y21.6684
G01 X118.3748 Y21.6427
G01 X118.3787 Y21.6165
G01 X118.3800 Y21.5900
G00 X118.3800 Y21.5900
G01 F60.00
G01 Z-1.8000
G01 F120.00
G01 X118.3787 Y21.5635
G01 X118.3748 Y21.5373
G01 X118.3684 Y21.5116
G01 X118.3594 Y21.4867
G01 X118.3481 Y21.4627
G01 X118.3345 Y21.4400
G01 X118.3187 Y21.4187
G01 X118.3009 Y21.3991
G01 X118.2813 Y21.3813
G01 X118.2600 Y21.3655
G01 X118.2373 Y21.3519
G01 X118.2133 Y21.3406
G01 X118.1884 Y21.3316
G01 X118.1627 Y21.3252
G01 X118.1365 Y21.3213
G01 X118.1100 Y21.3200
G01 X118.0835 Y21.3213
G01 X118.0573 Y21.3252
G01 X118.0316 Y21.3316
G01 X118.0067 Y21.3406
G01 X117.9827 Y21.3519
G01 X117.9600 Y21.3655
G01 X117.9387 Y21.3813
G01 X117.9191 Y21.3991
G01 X117.9013 Y21.4187
G01 X117.8855 Y21.4400
G01 X117.8719 Y21.4627
G01 X117.8606 Y21.4867
G01 X117.8516 Y21.5116
G01 X117.8452 Y21.5373
G01 X117.8413 Y21.5635
G01 X117.8400 Y21.5900
G01 X117.8413 Y21.6165
G01 X117.8452 Y21.6427
G01 X117.8516 Y21.6684
G01 X117.8606 Y21.6933
G01 X117.8719 Y21.7173
G01 X117.8855 Y21.7400
G01 X117.9013 Y21.7613
G01 X117.9191 Y21.7809
G01 X117.9387 Y21.7987
G01 X117.9600 Y21.8145
G01 X117.9827 Y21.8281
G01 X118.0067 Y21.8394
G01 X118.0316 Y21.8484
G01 X118.0573 Y21.8548
G01 X118.0835 Y21.8587
G01 X118.1100 Y21.8600
G01 X118.1365 Y21.8587
G01 X118.1627 Y21.8548
G01 X118.1884 Y21.8484
G01 X118.2133 Y21.8394
G01 X118.2373 Y21.8281
G01 X118.2600 Y21.8145
G01 X118.2813 Y21.7987
G01 X118.3009 Y21.7809
G01 X118.3187 Y21.7613
G01 X118.3345 Y21.7400
G01 X118.3481 Y21.7173
G01 X118.3594 Y21.6933
G01 X118.3684 Y21.6684
G01 X118.3748 Y21.6427
G01 X118.3787 Y21.6165
G01 X118.3800 Y21.5900
G00 X118.3800 Y21.5900
G01 F60.00
G01 Z-2.0000
G01 F120.00
G01 X118.3787 Y21.5635
G01 X118.3748 Y21.5373
G01 X118.3684 Y21.5116
G01 X118.3594 Y21.4867
G01 X118.3481 Y21.4627
G01 X118.3345 Y21.4400
G01 X118.3187 Y21.4187
G01 X118.3009 Y21.3991
G01 X118.2813 Y21.3813
G01 X118.2600 Y21.3655
G01 X118.2373 Y21.3519
G01 X118.2133 Y21.3406
G01 X118.1884 Y21.3316
G01 X118.1627 Y21.3252
G01 X118.1365 Y21.3213
G01 X118.1100 Y21.3200
G01 X118.0835 Y21.3213
G01 X118.0573 Y21.3252
G01 X118.0316 Y21.3316
G01 X118.0067 Y21.3406
G01 X117.9827 Y21.3519
G01 X117.9600 Y21.3655
G01 X117.9387 Y21.3813
G01 X117.9191 Y21.3991
G01 X117.9013 Y21.4187
G01 X117.8855 Y21.4400
G01 X117.8719 Y21.4627
G01 X117.8606 Y21.4867
G01 X117.8516 Y21.5116
G01 X117.8452 Y21.5373
G01 X117.8413 Y21.5635
G01 X117.8400 Y21.5900
G01 X117.8413 Y21.6165
G01 X117.8452 Y21.6427
G01 X117.8516 Y21.6684
G01 X117.8606 Y21.6933
G01 X117.8719 Y21.7173
G01 X117.8855 Y21.7400
G01 X117.9013 Y21.7613
G01 X117.9191 Y21.7809
G01 X117.9387 Y21.7987
G01 X117.9600 Y21.8145
G01 X117.9827 Y21.8281
G01 X118.0067 Y21.8394
G01 X118.0316 Y21.8484
G01 X118.0573 Y21.8548
G01 X118.0835 Y21.8587
G01 X118.1100 Y21.8600
G01 X118.1365 Y21.8587
G01 X118.1627 Y21.8548
G01 X118.1884 Y21.8484
G01 X118.2133 Y21.8394
G01 X118.2373 Y21.8281
G01 X118.2600 Y21.8145
G01 X118.2813 Y21.7987
G01 X118.3009 Y21.7809
G01 X118.3187 Y21.7613
G01 X118.3345 Y21.7400
G01 X118.3481 Y21.7173
G01 X118.3594 Y21.6933
G01 X118.3684 Y21.6684
G01 X118.3748 Y21.6427
G01 X118.3787 Y21.6165
G01 X118.3800 Y21.5900
G00 Z1.0000
G00 X128.5400 Y21.5900
G01 F60.00
G01 Z-0.6000
G01 F120.00
G01 X128.5387 Y21.5635
G01 X128.5348 Y21.5373
G01 X128.5284 Y21.5116
G01 X128.5194 Y21.4867
G01 X128.5081 Y21.4627
G01 X128.4945 Y21.4400
G01 X128.4787 Y21.4187
G01 X128.4609 Y21.3991
G01 X128.4413 Y21.3813
G01 X128.4200 Y21.3655
G01 X128.3973 Y21.3519
G01 X128.3733 Y21.3406
G01 X128.3484 Y21.3316
G01 X128.3227 Y21.3252
G01 X128.2965 Y21.3213
G01 X128.2700 Y21.3200
G01 X128.2435 Y21.3213
G01 X128.2173 Y21.3252
G01 X128.1916 Y21.3316
G01 X128.1667 Y21.3406
G01 X128.1427 Y21.3519
G01 X128.1200 Y21.3655
G01 X128.0987 Y21.3813
G01 X128.0791 Y21.3991
G01 X128.0613 Y21.4187
G01 X128.0455 Y21.4400
G01 X128.0319 Y21.4627
G01 X128.0206 Y21.4867
G01 X128.0116 Y21.5116
G01 X128.0052 Y21.5373
G01 X128.0013 Y21.5635
G01 X128.0000 Y21.5900
G01 X128.0013 Y21.6165
G01 X128.0052 Y21.6427
G01 X128.0116 Y21.6684
G01 X128.0206 Y21.6933
G01 X128.0319 Y21.7173
G01 X128.0455 Y21.7400
G01 X128.0613 Y21.7613
G01 X128.0791 Y21.7809
G01 X128.0987 Y21.7987
G01 X128.1200 Y21.8145
G01 X128.1427 Y21.8281
G01 X128.1667 Y21.8394
G01 X128.1916 Y21.8484
G01 X128.2173 Y21.8548
G01 X128.2435 Y21.8587
G01 X128.2700 Y21.8600
G01 X128.2965 Y21.8587
G01 X128.3227 Y21.8548
G01 X128.3484 Y21.8484
G01 X128.3733 Y21.8394
G01 X128.3973 Y21.8281
G01 X128.4200 Y21.8145
G01 X128.4413 Y21.7987
G01 X128.4609 Y21.7809
G01 X128.4787 Y21.7613
G01 X128.4945 Y21.7400
G01 X128.5081 Y21.7173
G01 X128.5194 Y21.6933
G01 X128.5284 Y21.6684
G01 X128.5348 Y21.6427
G01 X128.5387 Y21.6165
G01 X128.5400 Y21.5900
G00 X128.5400 Y21.5900
G01 F60.00
G01 Z-1.2000
G01 F120.00
G01 X128.5387 Y21.5635
G01 X128.5348 Y21.5373
G01 X128.5284 Y21.5116
G01 X128.5194 Y21.4867
G01 X128.5081 Y21.4627
G01 X128.4945 Y21.4400
G01 X128.4787 Y21.4187
G01 X128.4609 Y21.3991
G01 X128.4413 Y21.3813
G01 X128.4200 Y21.3655
G01 X128.3973 Y21.3519
G01 X128.3733 Y21.3406
G01 X128.3484 Y21.3316
G01 X128.3227 Y21.3252
G01 X128.2965 Y21.3213
G01 X128.2700 Y21.3200
G01 X128.2435 Y21.3213
G01 X128.2173 Y21.3252
G01 X128.1916 Y21.3316
G01 X128.1667 Y21.3406
G01 X128.1427 Y21.3519
G01 X128.1200 Y21.3655
G01 X128.0987 Y21.3813
G01 X128.0791 Y21.3991
G01 X128.0613 Y21.4187
G01 X128.0455 Y21.4400
G01 X128.0319 Y21.4627
G01 X128.0206 Y21.4867
G01 X128.0116 Y21.5116
G01 X128.0052 Y21.5373
G01 X128.0013 Y21.5635
G01 X128.0000 Y21.5900
G01 X128.0013 Y21.6165
G01 X128.0052 Y21.6427
G01 X128.0116 Y21.6684
G01 X128.0206 Y21.6933
G01 X128.0319 Y21.7173
G01 X128.0455 Y21.7400
G01 X128.0613 Y21.7613
G01 X128.0791 Y21.7809
G01 X128.0987 Y21.7987
G01 X128.1200 Y21.8145
G01 X128.1427 Y21.8281
G01 X128.1667 Y21.8394
G01 X128.1916 Y21.8484
G01 X128.2173 Y21.8548
G01 X128.2435 Y21.8587
G01 X128.2700 Y21.8600
G01 X128.2965 Y21.8587
G01 X128.3227 Y21.8548
G01 X128.3484 Y21.8484
G01 X128.3733 Y21.8394
G01 X128.3973 Y21.8281
G01 X128.4200 Y21.8145
G01 X128.4413 Y21.7987
G01 X128.4609 Y21.7809
G01 X128.4787 Y21.7613
G01 X128.4945 Y21.7400
G01 X128.5081 Y21.7173
G01 X128.5194 Y21.6933
G01 X128.5284 Y21.6684
G01 X128.5348 Y21.6427
G01 X128.5387 Y21.6165
G01 X128.5400 Y21.5900
G00 X128.5400 Y21.5900
G01 F60.00
G01 Z-1.8000
G01 F120.00
G01 X128.5387 Y21.5635
G01 X128.5348 Y21.5373
G01 X128.5284 Y21.5116
G01 X128.5194 Y21.4867
G01 X128.5081 Y21.4627
G01 X128.4945 Y21.4400
G01 X128.4787 Y21.4187
G01 X128.4609 Y21.3991
G01 X128.4413 Y21.3813
G01 X128.4200 Y21.3655
G01 X128.3973 Y21.3519
G01 X128.3733 Y21.3406
G01 X128.3484 Y21.3316
G01 X128.3227 Y21.3252
G01 X128.2965 Y21.3213
G01 X128.2700 Y21.3200
G01 X128.2435 Y21.3213
G01 X128.2173 Y21.3252
G01 X128.1916 Y21.3316
G01 X128.1667 Y21.3406
G01 X128.1427 Y21.3519
G01 X128.1200 Y21.3655
G01 X128.0987 Y21.3813
G01 X128.0791 Y21.3991
G01 X128.0613 Y21.4187
G01 X128.0455 Y21.4400
G01 X128.0319 Y21.4627
G01 X128.0206 Y21.4867
G01 X128.0116 Y21.5116
G01 X128.0052 Y21.5373
G01 X128.0013 Y21.5635
G01 X128.0000 Y21.5900
G01 X128.0013 Y21.6165
G01 X128.0052 Y21.6427
G01 X128.0116 Y21.6684
G01 X128.0206 Y21.6933
G01 X128.0319 Y21.7173
G01 X128.0455 Y21.7400
G01 X128.0613 Y21.7613
G01 X128.0791 Y21.7809
G01 X128.0987 Y21.7987
G01 X128.1200 Y21.8145
G01 X128.1427 Y21.8281
G01 X128.1667 Y21.8394
G01 X128.1916 Y21.8484
G01 X128.2173 Y21.8548
G01 X128.2435 Y21.8587
G01 X128.2700 Y21.8600
G01 X128.2965 Y21.8587
G01 X128.3227 Y21.8548
G01 X128.3484 Y21.8484
G01 X128.3733 Y21.8394
G01 X128.3973 Y21.8281
G01 X128.4200 Y21.8145
G01 X128.4413 Y21.7987
G01 X128.4609 Y21.7809
G01 X128.4787 Y21.7613
G01 X128.4945 Y21.7400
G01 X128.5081 Y21.7173
G01 X128.5194 Y21.6933
G01 X128.5284 Y21.6684
G01 X128.5348 Y21.6427
G01 X128.5387 Y21.6165
G01 X128.5400 Y21.5900
G00 X128.5400 Y21.5900
G01 F60.00
G01 Z-2.0000
G01 F120.00
G01 X128.5387 Y21.5635
G01 X128.5348 Y21.5373
G01 X128.5284 Y21.5116
G01 X128.5194 Y21.4867
G01 X128.5081 Y21.4627
G01 X128.4945 Y21.4400
G01 X128.4787 Y21.4187
G01 X128.4609 Y21.3991
G01 X128.4413 Y21.3813
G01 X128.4200 Y21.3655
G01 X128.3973 Y21.3519
G01 X128.3733 Y21.3406
G01 X128.3484 Y21.3316
G01 X128.3227 Y21.3252
G01 X128.2965 Y21.3213
G01 X128.2700 Y21.3200
G01 X128.2435 Y21.3213
G01 X128.2173 Y21.3252
G01 X128.1916 Y21.3316
G01 X128.1667 Y21.3406
G01 X128.1427 Y21.3519
G01 X128.1200 Y21.3655
G01 X128.0987 Y21.3813
G01 X128.0791 Y21.3991
G01 X128.0613 Y21.4187
G01 X128.0455 Y21.4400
G01 X128.0319 Y21.4627
G01 X128.0206 Y21.4867
G01 X128.0116 Y21.5116
G01 X128.0052 Y21.5373
G01 X128.0013 Y21.5635
G01 X128.0000 Y21.5900
G01 X128.0013 Y21.6165
G01 X128.0052 Y21.6427
G01 X128.0116 Y21.6684
G01 X128.0206 Y21.6933
G01 X128.0319 Y21.7173
G01 X128.0455 Y21.7400
G01 X128.0613 Y21.7613
G01 X128.0791 Y21.7809
G01 X128.0987 Y21.7987
G01 X128.1200 Y21.8145
G01 X128.1427 Y21.8281
G01 X128.1667 Y21.8394
G01 X128.1916 Y21.8484
G01 X128.2173 Y21.8548
G01 X128.2435 Y21.8587
G01 X128.2700 Y21.8600
G01 X128.2965 Y21.8587
G01 X128.3227 Y21.8548
G01 X128.3484 Y21.8484
G01 X128.3733 Y21.8394
G01 X128.3973 Y21.8281
G01 X128.4200 Y21.8145
G01 X128.4413 Y21.7987
G01 X128.4609 Y21.7809
G01 X128.4787 Y21.7613
G01 X128.4945 Y21.7400
G01 X128.5081 Y21.7173
G01 X128.5194 Y21.6933
G01 X128.5284 Y21.6684
G01 X128.5348 Y21.6427
G01 X128.5387 Y21.6165
G01 X128.5400 Y21.5900
G00 Z1.0000
G00 X98.3140 Y38.3540
G01 F60.00
G01 Z-0.6000
G01 F120.00
G01 X98.3127 Y38.3275
G01 X98.3088 Y38.3013
G01 X98.3024 Y38.2756
G01 X98.2934 Y38.2507
G01 X98.2821 Y38.2267
G01 X98.2685 Y38.2040
G01 X98.2527 Y38.1827
G01 X98.2349 Y38.1631
G01 X98.2153 Y38.1453
G01 X98.1940 Y38.1295
G01 X98.1713 Y38.1159
G01 X98.1473 Y38.1046
G01 X98.1224 Y38.0956
G01 X98.0967 Y38.0892
G01 X98.0705 Y38.0853
G01 X98.0440 Y38.0840
G01 X98.0175 Y38.0853
G01 X97.9913 Y38.0892
G01 X97.9656 Y38.0956
G01 X97.9407 Y38.1046
G01 X97.9167 Y38.1159
G01 X97.8940 Y38.1295
G01 X97.8727 Y38.1453
G01 X97.8531 Y38.1631
G01 X97.8353 Y38.1827
G01 X97.8195 Y38.2040
G01 X97.8059 Y38.2267
G01 X97.7946 Y38.2507
G01 X97.7856 Y38.2756
G01 X97.7792 Y38.3013
G01 X97.7753 Y38.3275
G01 X97.7740 Y38.3540
G01 X97.7753 Y38.3805
G01 X97.7792 Y38.4067
G01 X97.7856 Y38.4324
G01 X97.7946 Y38.4573
G01 X97.8059 Y38.4813
G01 X97.8195 Y38.5040
G01 X97.8353 Y38.5253
G01 X97.8531 Y38.5449
G01 X97.8727 Y38.5627
G01 X97.8940 Y38.5785
G01 X97.9167 Y38.5921
G01 X97.9407 Y38.6034
G01 X97.9656 Y38.6124
G01 X97.9913 Y38.6188
G01 X98.0175 Y38.6227
G01 X98.0440 Y38.6240
G01 X98.0705 Y38.6227
G01 X98.0967 Y38.6188
G01 X98.1224 Y38.6124
G01 X98.1473 Y38.6034
G01 X98.1713 Y38.5921
G01 X98.1940 Y38.5785
G01 X98.2153 Y38.5627
G01 X98.2349 Y38.5449
G01 X98.2527 Y38.5253
G01 X98.2685 Y38.5040
G01 X98.2821 Y38.4813
G01 X98.2934 Y38.4573
G01 X98.3024 Y38.4324
G01 X98.3088 Y38.4067
G01 X98.3127 Y38.3805
G01 X98.3140 Y38.3540
G00 X98.3140 Y38.3540
G01 F60.00
G01 Z-1.2000
G01 F120.00
G01 X98.3127 Y38.3275
G01 X98.3088 Y38.3013
G01 X98.3024 Y38.2756
G01 X98.2934 Y38.2507
G01 X98.2821 Y38.2267
G01 X98.2685 Y38.2040
G01 X98.2527 Y38.1827
G01 X98.2349 Y38.1631
G01 X98.2153 Y38.1453
G01 X98.1940 Y38.1295
G01 X98.1713 Y38.1159
G01 X98.1473 Y38.1046
G01 X98.1224 Y38.0956
G01 X98.0967 Y38.0892
G01 X98.0705 Y38.0853
G01 X98.0440 Y38.0840
G01 X98.0175 Y38.0853
G01 X97.9913 Y38.0892
G01 X97.9656 Y38.0956
G01 X97.9407 Y38.1046
G01 X97.9167 Y38.1159
G01 X97.8940 Y38.1295
G01 X97.8727 Y38.1453
G01 X97.8531 Y38.1631
G01 X97.8353 Y38.1827
G01 X97.8195 Y38.2040
G01 X97.8059 Y38.2267
G01 X97.7946 Y38.2507
G01 X97.7856 Y38.2756
G01 X97.7792 Y38.3013
G01 X97.7753 Y38.3275
G01 X97.7740 Y38.3540
G01 X97.7753 Y38.3805
G01 X97.7792 Y38.4067
G01 X97.7856 Y38.4324
G01 X97.7946 Y38.4573
G01 X97.8059 Y38.4813
G01 X97.8195 Y38.5040
G01 X97.8353 Y38.5253
G01 X97.8531 Y38.5449
G01 X97.8727 Y38.5627
G01 X97.8940 Y38.5785
G01 X97.9167 Y38.5921
G01 X97.9407 Y38.6034
G01 X97.9656 Y38.6124
G01 X97.9913 Y38.6188
G01 X98.0175 Y38.6227
G01 X98.0440 Y38.6240
G01 X98.0705 Y38.6227
G01 X98.0967 Y38.6188
G01 X98.1224 Y38.6124
G01 X98.1473 Y38.6034
G01 X98.1713 Y38.5921
G01 X98.1940 Y38.5785
G01 X98.2153 Y38.5627
G01 X98.2349 Y38.5449
G01 X98.2527 Y38.5253
G01 X98.2685 Y38.5040
G01 X98.2821 Y38.4813
G01 X98.2934 Y38.4573
G01 X98.3024 Y38.4324
G01 X98.3088 Y38.4067
G01 X98.3127 Y38.3805
G01 X98.3140 Y38.3540
G00 X98.3140 Y38.3540
G01 F60.00
G01 Z-1.8000
G01 F120.00
G01 X98.3127 Y38.3275
G01 X98.3088 Y38.3013
G01 X98.3024 Y38.2756
G01 X98.2934 Y38.2507
G01 X98.2821 Y38.2267
G01 X98.2685 Y38.2040
G01 X98.2527 Y38.1827
G01 X98.2349 Y38.1631
G01 X98.2153 Y38.1453
G01 X98.1940 Y38.1295
G01 X98.1713 Y38.1159
G01 X98.1473 Y38.1046
G01 X98.1224 Y38.0956
G01 X98.0967 Y38.0892
G01 X98.0705 Y38.0853
G01 X98.0440 Y38.0840
G01 X98.0175 Y38.0853
G01 X97.9913 Y38.0892
G01 X97.9656 Y38.0956
G01 X97.9407 Y38.1046
G01 X97.9167 Y38.1159
G01 X97.8940 Y38.1295
G01 X97.8727 Y38.1453
G01 X97.8531 Y38.1631
G01 X97.8353 Y38.1827
G01 X97.8195 Y38.2040
G01 X97.8059 Y38.2267
G01 X97.7946 Y38.2507
G01 X97.7856 Y38.2756
G01 X97.7792 Y38.3013
G01 X97.7753 Y38.3275
G01 X97.7740 Y38.3540
G01 X97.7753 Y38.3805
G01 X97.7792 Y38.4067
G01 X97.7856 Y38.4324
G01 X97.7946 Y38.4573
G01 X97.8059 Y38.4813
G01 X97.8195 Y38.5040
G01 X97.8353 Y38.5253
G01 X97.8531 Y38.5449
G01 X97.8727 Y38.5627
G01 X97.8940 Y38.5785
G01 X97.9167 Y38.5921
G01 X97.9407 Y38.6034
G01 X97.9656 Y38.6124
G01 X97.9913 Y38.6188
G01 X98.0175 Y38.6227
G01 X98.0440 Y38.6240
G01 X98.0705 Y38.6227
G01 X98.0967 Y38.6188
G01 X98.1224 Y38.6124
G01 X98.1473 Y38.6034
G01 X98.1713 Y38.5921
G01 X98.1940 Y38.5785
G01 X98.2153 Y38.5627
G01 X98.2349 Y38.5449
G01 X98.2527 Y38.5253
G01 X98.2685 Y38.5040
G01 X98.2821 Y38.4813
G01 X98.2934 Y38.4573
G01 X98.3024 Y38.4324
G01 X98.3088 Y38.4067
G01 X98.3127 Y38.3805
G01 X98.3140 Y38.3540
G00 X98.3140 Y38.3540
G01 F60.00
G01 Z-2.0000
G01 F120.00
G01 X98.3127 Y38.3275
G01 X98.3088 Y38.3013
G01 X98.3024 Y38.2756
G01 X98.2934 Y38.2507
G01 X98.2821 Y38.2267
G01 X98.2685 Y38.2040
G01 X98.2527 Y38.1827
G01 X98.2349 Y38.1631
G01 X98.2153 Y38.1453
G01 X98.1940 Y38.1295
G01 X98.1713 Y38.1159
G01 X98.1473 Y38.1046
G01 X98.1224 Y38.0956
G01 X98.0967 Y38.0892
G01 X98.0705 Y38.0853
G01 X98.0440 Y38.0840
G01 X98.0175 Y38.0853
G01 X97.9913 Y38.0892
G01 X97.9656 Y38.0956
G01 X97.9407 Y38.1046
G01 X97.9167 Y38.1159
G01 X97.8940 Y38.1295
G01 X97.8727 Y38.1453
G01 X97.8531 Y38.1631
G01 X97.8353 Y38.1827
G01 X97.8195 Y38.2040
G01 X97.8059 Y38.2267
G01 X97.7946 Y38.2507
G01 X97.7856 Y38.2756
G01 X97.7792 Y38.3013
G01 X97.7753 Y38.3275
G01 X97.7740 Y38.3540
G01 X97.7753 Y38.3805
G01 X97.7792 Y38.4067
G01 X97.7856 Y38.4324
G01 X97.7946 Y38.4573
G01 X97.8059 Y38.4813
G01 X97.8195 Y38.5040
G01 X97.8353 Y38.5253
G01 X97.8531 Y38.5449
G01 X97.8727 Y38.5627
G01 X97.8940 Y38.5785
G01 X97.9167 Y38.5921
G01 X97.9407 Y38.6034
G01 X97.9656 Y38.6124
G01 X97.9913 Y38.6188
G01 X98.0175 Y38.6227
G01 X98.0440 Y38.6240
G01 X98.0705 Y38.6227
G01 X98.0967 Y38.6188
G01 X98.1224 Y38.6124
G01 X98.1473 Y38.6034
G01 X98.1713 Y38.5921
G01 X98.1940 Y38.5785
G01 X98.2153 Y38.5627
G01 X98.2349 Y38.5449
G01 X98.2527 Y38.5253
G01 X98.2685 Y38.5040
G01 X98.2821 Y38.4813
G01 X98.2934 Y38.4573
G01 X98.3024 Y38.4324
G01 X98.3088 Y38.4067
G01 X98.3127 Y38.3805
G01 X98.3140 Y38.3540
G00 Z1.0000
G00 X87.1380 Y38.3540
G01 F60.00
G01 Z-0.6000
G01 F120.00
G01 X87.1367 Y38.3275
G01 X87.1328 Y38.3013
G01 X87.1264 Y38.2756
G01 X87.1174 Y38.2507
G01 X87.1061 Y38.2267
G01 X87.0925 Y38.2040
G01 X87.0767 Y38.1827
G01 X87.0589 Y38.1631
G01 X87.0393 Y38.1453
G01 X87.0180 Y38.1295
G01 X86.9953 Y38.1159
G01 X86.9713 Y38.1046
G01 X86.9464 Y38.0956
G01 X86.9207 Y38.0892
G01 X86.8945 Y38.0853
G01 X86.8680 Y38.0840
G01 X86.8415 Y38.0853
G01 X86.8153 Y38.0892
G01 X86.7896 Y38.0956
G01 X86.7647 Y38.1046
G01 X86.7407 Y38.1159
G01 X86.7180 Y38.1295
G01 X86.6967 Y38.1453
G01 X86.6771 Y38.1631
G01 X86.6593 Y38.1827
G01 X86.6435 Y38.2040
G01 X86.6299 Y38.2267
G01 X86.6186 Y38.2507
G01 X86.6096 Y38.2756
G01 X86.6032 Y38.3013
G01 X86.5993 Y38.3275
G01 X86.5980 Y38.3540
G01 X86.5993 Y38.3805
G01 X86.6032 Y38.4067
G01 X86.6096 Y38.4324
G01 X86.6186 Y38.4573
G01 X86.6299 Y38.4813
G01 X86.6435 Y38.5040
G01 X86.6593 Y38.5253
G01 X86.6771 Y38.5449
G01 X86.6967 Y38.5627
G01 X86.7180 Y38.5785
G01 X86.7407 Y38.5921
G01 X86.7647 Y38.6034
G01 X86.7896 Y38.6124
G01 X86.8153 Y38.6188
G01 X86.8415 Y38.6227
G01 X86.8680 Y38.6240
G01 X86.8945 Y38.6227
G01 X86.9207 Y38.6188
G01 X86.9464 Y38.6124
G01 X86.9713 Y38.6034
G01 X86.9953 Y38.5921
G01 X87.0180 Y38.5785
G01 X87.0393 Y38.5627
G01 X87.0589 Y38.5449
G01 X87.0767 Y38.5253
G01 X87.0925 Y38.5040
G01 X87.1061 Y38.4813
G01 X87.1174 Y38.4573
G01 X87.1264 Y38.4324
G01 X87.1328 Y38.4067
G01 X87.1367 Y38.3805
G01 X87.1380 Y38.3540
G00 X87.1380 Y38.3540
G01 F60.00
G01 Z-1.2000
G01 F120.00
G01 X87.1367 Y38.3275
G01 X87.1328 Y38.3013
G01 X87.1264 Y38.2756
G01 X87.1174 Y38.2507
G01 X87.1061 Y38.2267
G01 X87.0925 Y38.2040
G01 X87.0767 Y38.1827
G01 X87.0589 Y38.1631
G01 X87.0393 Y38.1453
G01 X87.0180 Y38.1295
G01 X86.9953 Y38.1159
G01 X86.9713 Y38.1046
G01 X86.9464 Y38.0956
G01 X86.9207 Y38.0892
G01 X86.8945 Y38.0853
G01 X86.8680 Y38.0840
G01 X86.8415 Y38.0853
G01 X86.8153 Y38.0892
G01 X86.7896 Y38.0956
G01 X86.7647 Y38.1046
G01 X86.7407 Y38.1159
G01 X86.7180 Y38.1295
G01 X86.6967 Y38.1453
G01 X86.6771 Y38.1631
G01 X86.6593 Y38.1827
G01 X86.6435 Y38.2040
G01 X86.6299 Y38.2267
G01 X86.6186 Y38.2507
G01 X86.6096 Y38.2756
G01 X86.6032 Y38.3013
G01 X86.5993 Y38.3275
G01 X86.5980 Y38.3540
G01 X86.5993 Y38.3805
G01 X86.6032 Y38.4067
G01 X86.6096 Y38.4324
G01 X86.6186 Y38.4573
G01 X86.6299 Y38.4813
G01 X86.6435 Y38.5040
G01 X86.6593 Y38.5253
G01 X86.6771 Y38.5449
G01 X86.6967 Y38.5627
G01 X86.7180 Y38.5785
G01 X86.7407 Y38.5921
G01 X86.7647 Y38.6034
G01 X86.7896 Y38.6124
G01 X86.8153 Y38.6188
G01 X86.8415 Y38.6227
G01 X86.8680 Y38.6240
G01 X86.8945 Y38.6227
G01 X86.9207 Y38.6188
G01 X86.9464 Y38.6124
G01 X86.9713 Y38.6034
G01 X86.9953 Y38.5921
G01 X87.0180 Y38.5785
G01 X87.0393 Y38.5627
G01 X87.0589 Y38.5449
G01 X87.0767 Y38.5253
G01 X87.0925 Y38.5040
G01 X87.1061 Y38.4813
G01 X87.1174 Y38.4573
G01 X87.1264 Y38.4324
G01 X87.1328 Y38.4067
G01 X87.1367 Y38.3805
G01 X87.1380 Y38.3540
G00 X87.1380 Y38.3540
G01 F60.00
G01 Z-1.8000
G01 F120.00
G01 X87.1367 Y38.3275
G01 X87.1328 Y38.3013
G01 X87.1264 Y38.2756
G01 X87.1174 Y38.2507
G01 X87.1061 Y38.2267
G01 X87.0925 Y38.2040
G01 X87.0767 Y38.1827
G01 X87.0589 Y38.1631
G01 X87.0393 Y38.1453
G01 X87.0180 Y38.1295
G01 X86.9953 Y38.1159
G01 X86.9713 Y38.1046
G01 X86.9464 Y38.0956
G01 X86.9207 Y38.0892
G01 X86.8945 Y38.0853
G01 X86.8680 Y38.0840
G01 X86.8415 Y38.0853
G01 X86.8153 Y38.0892
G01 X86.7896 Y38.0956
G01 X86.7647 Y38.1046
G01 X86.7407 Y38.1159
G01 X86.7180 Y38.1295
G01 X86.6967 Y38.1453
G01 X86.6771 Y38.1631
G01 X86.6593 Y38.1827
G01 X86.6435 Y38.2040
G01 X86.6299 Y38.2267
G01 X86.6186 Y38.2507
G01 X86.6096 Y38.2756
G01 X86.6032 Y38.3013
G01 X86.5993 Y38.3275
G01 X86.5980 Y38.3540
G01 X86.5993 Y38.3805
G01 X86.6032 Y38.4067
G01 X86.6096 Y38.4324
G01 X86.6186 Y38.4573
G01 X86.6299 Y38.4813
G01 X86.6435 Y38.5040
G01 X86.6593 Y38.5253
G01 X86.6771 Y38.5449
G01 X86.6967 Y38.5627
G01 X86.7180 Y38.5785
G01 X86.7407 Y38.5921
G01 X86.7647 Y38.6034
G01 X86.7896 Y38.6124
G01 X86.8153 Y38.6188
G01 X86.8415 Y38.6227
G01 X86.8680 Y38.6240
G01 X86.8945 Y38.6227
G01 X86.9207 Y38.6188
G01 X86.9464 Y38.6124
G01 X86.9713 Y38.6034
G01 X86.9953 Y38.5921
G01 X87.0180 Y38.5785
G01 X87.0393 Y38.5627
G01 X87.0589 Y38.5449
G01 X87.0767 Y38.5253
G01 X87.0925 Y38.5040
G01 X87.1061 Y38.4813
G01 X87.1174 Y38.4573
G01 X87.1264 Y38.4324
G01 X87.1328 Y38.4067
G01 X87.1367 Y38.3805
G01 X87.1380 Y38.3540
G00 X87.1380 Y38.3540
G01 F60.00
G01 Z-2.0000
G01 F120.00
G01 X87.1367 Y38.3275
G01 X87.1328 Y38.3013
G01 X87.1264 Y38.2756
G01 X87.1174 Y38.2507
G01 X87.1061 Y38.2267
G01 X87.0925 Y38.2040
G01 X87.0767 Y38.1827
G01 X87.0589 Y38.1631
G01 X87.0393 Y38.1453
G01 X87.0180 Y38.1295
G01 X86.9953 Y38.1159
G01 X86.9713 Y38.1046
G01 X86.9464 Y38.0956
G01 X86.9207 Y38.0892
G01 X86.8945 Y38.0853
G01 X86.8680 Y38.0840
G01 X86.8415 Y38.0853
G01 X86.8153 Y38.0892
G01 X86.7896 Y38.0956
G01 X86.7647 Y38.1046
G01 X86.7407 Y38.1159
G01 X86.7180 Y38.1295
G01 X86.6967 Y38.1453
G01 X86.6771 Y38.1631
G01 X86.6593 Y38.1827
G01 X86.6435 Y38.2040
G01 X86.6299 Y38.2267
G01 X86.6186 Y38.2507
G01 X86.6096 Y38.2756
G01 X86.6032 Y38.3013
G01 X86.5993 Y38.3275
G01 X86.5980 Y38.3540
G01 X86.5993 Y38.3805
G01 X86.6032 Y38.4067
G01 X86.6096 Y38.4324
G01 X86.6186 Y38.4573
G01 X86.6299 Y38.4813
G01 X86.6435 Y38.5040
G01 X86.6593 Y38.5253
G01 X86.6771 Y38.5449
G01 X86.6967 Y38.5627
G01 X86.7180 Y38.5785
G01 X86.7407 Y38.5921
G01 X86.7647 Y38.6034
G01 X86.7896 Y38.6124
G01 X86.8153 Y38.6188
G01 X86.8415 Y38.6227
G01 X86.8680 Y38.6240
G01 X86.8945 Y38.6227
G01 X86.9207 Y38.6188
G01 X86.9464 Y38.6124
G01 X86.9713 Y38.6034
G01 X86.9953 Y38.5921
G01 X87.0180 Y38.5785
G01 X87.0393 Y38.5627
G01 X87.0589 Y38.5449
G01 X87.0767 Y38.5253
G01 X87.0925 Y38.5040
G01 X87.1061 Y38.4813
G01 X87.1174 Y38.4573
G01 X87.1264 Y38.4324
G01 X87.1328 Y38.4067
G01 X87.1367 Y38.3805
G01 X87.1380 Y38.3540
G00 Z1.0000
M05
G00 Z1.0000
G00 Z15.00

